;FLAVOR:Marlin
;TIME:4466
;Filament used: 3.83698m
;Layer height: 0.2
;Generated with Cura_SteamEngine 3.4.1
M190 S60
M104 S200
M109 S200
M82 ;absolute extrusion mode
G21 ;metric values
G90 ;absolute positioning
M82 ;set extruder to absolute mode
M107 ;start with the fan off
G28 X0 Y0 ;move X/Y to min endstops
G28 Z0 ;move Z to min endstops
G1 Z15.0 F100 ;move the platform down 15mm
G92 E0 ;zero the extruded length
G1 F200 E3 ;extrude 3mm of feed stock
G92 E0 ;zero the extruded length again
G1 F100
M117 Printing...
G5
G92 E0
G1 F2400 E-6
;LAYER_COUNT:456
;LAYER:0
M106 S255
M204 S3000
M205 X10 Y10
G0 F3000 X87.451 Y61.114 Z0.2
M204 S1800
M205 X8 Y8
;TYPE:SKIRT
G1 F2400 E0
G1 X87.864 Y60.53 E0.03331
G1 X88.339 Y59.996 E0.06659
G1 X88.871 Y59.517 E0.09992
G1 X89.453 Y59.102 E0.1332
G1 X90.078 Y58.753 E0.16654
G1 X90.738 Y58.477 E0.19985
G1 X91.424 Y58.276 E0.23313
G1 X92.129 Y58.153 E0.26646
G1 X92.877 Y58.109 E0.30135
G1 X117.124 Y58.11 E1.43039
G1 X117.838 Y58.15 E1.46369
G1 X118.544 Y58.269 E1.49703
G1 X119.231 Y58.467 E1.53032
G1 X119.892 Y58.74 E1.56362
G1 X120.519 Y59.085 E1.59694
G1 X121.103 Y59.497 E1.63022
G1 X121.638 Y59.973 E1.66357
G1 X122.116 Y60.505 E1.69687
G1 X122.531 Y61.087 E1.73015
G1 X122.88 Y61.711 E1.76345
G1 X123.156 Y62.371 E1.79676
G1 X123.357 Y63.058 E1.83009
G1 X123.48 Y63.762 E1.86336
G1 X123.524 Y64.509 E1.89821
G1 X123.525 Y69.492 E2.13024
G1 X123.485 Y70.206 E2.16354
G1 X123.366 Y70.911 E2.19683
G1 X123.169 Y71.599 E2.23015
G1 X123.037 Y71.944 E2.24735
G1 X122.146 Y74.094 E2.35572
G1 X120.3 Y79.1 E2.60417
G1 X118.747 Y84.184 E2.8517
G1 X117.476 Y89.376 E3.1006
G1 X116.979 Y91.863 E3.21869
G1 X116.154 Y97.138 E3.4673
G1 X115.63 Y102.45 E3.71585
G1 X115.485 Y105.023 E3.83585
G1 X115.4 Y109.068 E4.02425
G1 X115.39 Y145.493 E5.72035
G1 X115.35 Y146.207 E5.75365
G1 X115.23 Y146.912 E5.78695
G1 X115.033 Y147.6 E5.82027
G1 X114.76 Y148.261 E5.85357
G1 X114.415 Y148.887 E5.88685
G1 X114.002 Y149.471 E5.92016
G1 X113.526 Y150.006 E5.9535
G1 X112.994 Y150.484 E5.98681
G1 X112.412 Y150.899 E6.02009
G1 X111.787 Y151.247 E6.0534
G1 X111.127 Y151.524 E6.08673
G1 X110.441 Y151.724 E6.12
G1 X109.736 Y151.847 E6.15333
G1 X108.99 Y151.891 E6.18812
G1 X101.009 Y151.891 E6.55975
G1 X100.295 Y151.851 E6.59305
G1 X99.59 Y151.732 E6.62634
G1 X98.902 Y151.534 E6.65968
G1 X98.241 Y151.261 E6.69298
G1 X97.614 Y150.917 E6.72628
G1 X97.03 Y150.504 E6.75959
G1 X96.496 Y150.029 E6.79287
G1 X96.017 Y149.497 E6.8262
G1 X95.602 Y148.915 E6.85949
G1 X95.253 Y148.29 E6.89282
G1 X94.977 Y147.63 E6.92613
G1 X94.776 Y146.944 E6.95942
G1 X94.653 Y146.239 E6.99274
G1 X94.609 Y145.493 E7.02754
G1 X94.6 Y109.064 E8.72382
G1 X94.448 Y103.703 E8.97356
G1 X93.999 Y98.422 E9.22035
G1 X93.252 Y93.178 E9.467
G1 X92.205 Y87.956 E9.71499
G1 X91.584 Y85.423 E9.83643
G1 X90.897 Y82.923 E9.95716
G1 X89.259 Y77.833 E10.20614
G1 X86.915 Y71.826 E10.50639
G1 X86.693 Y71.146 E10.5397
G1 X86.547 Y70.446 E10.573
G1 X86.477 Y69.499 E10.61721
G1 X86.477 Y64.509 E10.84957
G1 X86.517 Y63.795 E10.88287
G1 X86.636 Y63.09 E10.91616
G1 X86.834 Y62.402 E10.9495
G1 X87.107 Y61.741 E10.9828
G1 X87.451 Y61.114 E11.0161
M204 S3000
M205 X10 Y10
G0 F3000 X88.009 Y61.283
M204 S1800
M205 X8 Y8
G1 F2400 X88.419 Y60.736 E11.04793
G1 X88.89 Y60.241 E11.07975
G1 X89.416 Y59.805 E11.11156
G1 X89.989 Y59.433 E11.14337
G1 X90.602 Y59.13 E11.17521
G1 X91.245 Y58.902 E11.20698
G1 X91.911 Y58.749 E11.2388
G1 X92.877 Y58.669 E11.28393
G1 X117.124 Y58.67 E12.41297
G1 X117.806 Y58.71 E12.44479
G1 X118.479 Y58.829 E12.47661
G1 X119.133 Y59.027 E12.50843
G1 X119.76 Y59.299 E12.54025
G1 X120.35 Y59.642 E12.57203
G1 X120.897 Y60.052 E12.60386
G1 X121.392 Y60.523 E12.63568
G1 X121.828 Y61.049 E12.66749
G1 X122.2 Y61.622 E12.6993
G1 X122.503 Y62.235 E12.73114
G1 X122.732 Y62.879 E12.76297
G1 X122.884 Y63.545 E12.79478
G1 X122.964 Y64.509 E12.83982
G1 X122.965 Y69.492 E13.07185
G1 X122.925 Y70.174 E13.10366
G1 X122.806 Y70.847 E13.13548
G1 X122.52 Y71.73 E13.1787
G1 X121.626 Y73.886 E13.28738
G1 X119.765 Y78.936 E13.53799
G1 X118.208 Y84.031 E13.78607
G1 X116.931 Y89.247 E14.03612
G1 X116.428 Y91.767 E14.15578
G1 X115.599 Y97.065 E14.40548
G1 X115.071 Y102.412 E14.65566
G1 X114.925 Y105.008 E14.77674
G1 X114.84 Y109.056 E14.96527
G1 X114.83 Y145.493 E16.66193
G1 X114.79 Y146.175 E16.69374
G1 X114.67 Y146.847 E16.72553
G1 X114.473 Y147.501 E16.75733
G1 X114.201 Y148.128 E16.78916
G1 X113.857 Y148.719 E16.821
G1 X113.447 Y149.265 E16.85279
G1 X112.976 Y149.76 E16.88461
G1 X112.45 Y150.196 E16.91642
G1 X111.877 Y150.568 E16.94823
G1 X111.264 Y150.87 E16.98005
G1 X110.62 Y151.099 E17.01188
G1 X109.954 Y151.251 E17.04369
G1 X108.99 Y151.331 E17.08873
G1 X101.009 Y151.331 E17.46036
G1 X100.327 Y151.291 E17.49217
G1 X99.654 Y151.172 E17.52399
G1 X99 Y150.975 E17.5558
G1 X98.373 Y150.702 E17.58764
G1 X97.783 Y150.359 E17.61942
G1 X97.236 Y149.949 E17.65125
G1 X96.741 Y149.478 E17.68307
G1 X96.305 Y148.952 E17.71488
G1 X95.933 Y148.379 E17.74669
G1 X95.63 Y147.766 E17.77853
G1 X95.402 Y147.123 E17.8103
G1 X95.249 Y146.457 E17.84212
G1 X95.169 Y145.492 E17.88721
G1 X95.16 Y109.083 E19.58256
G1 X95.007 Y103.659 E19.83523
G1 X94.557 Y98.365 E20.08263
G1 X93.803 Y93.078 E20.3313
G1 X92.75 Y87.826 E20.58072
G1 X92.129 Y85.294 E20.70212
G1 X91.427 Y82.738 E20.82554
G1 X89.791 Y77.654 E21.07423
G1 X87.437 Y71.622 E21.37574
G1 X87.226 Y70.972 E21.40756
G1 X87.092 Y70.302 E21.43938
G1 X87.037 Y69.499 E21.47685
G1 X87.037 Y64.509 E21.70921
G1 X87.077 Y63.827 E21.74102
G1 X87.196 Y63.154 E21.77284
G1 X87.393 Y62.5 E21.80465
G1 X87.666 Y61.873 E21.83649
G1 X88.009 Y61.283 E21.86827
M204 S3000
M205 X10 Y10
G0 F3000 X88.566 Y61.46
M204 S1800
M205 X8 Y8
G1 F2400 X88.973 Y60.954 E21.89851
G1 X89.439 Y60.501 E21.92877
G1 X89.957 Y60.11 E21.95899
G1 X90.52 Y59.784 E21.98928
G1 X91.118 Y59.531 E22.01952
G1 X91.742 Y59.352 E22.04975
G1 X92.384 Y59.252 E22.08
G1 X92.877 Y59.229 E22.10298
G1 X117.124 Y59.23 E23.23202
G1 X117.773 Y59.27 E23.2623
G1 X118.411 Y59.389 E23.29252
G1 X119.03 Y59.586 E23.32277
G1 X119.62 Y59.857 E23.353
G1 X120.173 Y60.199 E23.38328
G1 X120.679 Y60.606 E23.41352
G1 X121.132 Y61.072 E23.44378
G1 X121.523 Y61.591 E23.47404
G1 X121.849 Y62.153 E23.50429
G1 X122.102 Y62.751 E23.53452
G1 X122.281 Y63.376 E23.5648
G1 X122.381 Y64.017 E23.595
G1 X122.404 Y64.509 E23.61794
G1 X122.405 Y69.492 E23.84997
G1 X122.365 Y70.14 E23.8802
G1 X122.246 Y70.779 E23.91047
G1 X122.002 Y71.515 E23.94657
G1 X121.106 Y73.677 E24.05555
G1 X119.24 Y78.74 E24.3068
G1 X117.671 Y83.874 E24.55678
G1 X116.38 Y89.146 E24.80952
G1 X115.878 Y91.663 E24.92903
G1 X115.041 Y97.013 E25.18118
G1 X114.514 Y102.348 E25.43081
G1 X114.365 Y104.993 E25.55416
G1 X114.28 Y109.045 E25.74288
G1 X114.27 Y145.492 E27.44001
G1 X114.23 Y146.141 E27.47029
G1 X114.11 Y146.779 E27.50051
G1 X113.913 Y147.398 E27.53076
G1 X113.642 Y147.989 E27.56104
G1 X113.3 Y148.541 E27.59127
G1 X112.893 Y149.047 E27.62151
G1 X112.427 Y149.499 E27.65174
G1 X111.908 Y149.891 E27.68203
G1 X111.346 Y150.216 E27.71226
G1 X110.748 Y150.47 E27.74251
G1 X110.123 Y150.648 E27.77277
G1 X109.481 Y150.748 E27.80302
G1 X108.99 Y150.771 E27.82591
G1 X101.009 Y150.771 E28.19754
G1 X100.361 Y150.731 E28.22777
G1 X99.722 Y150.612 E28.25804
G1 X99.103 Y150.415 E28.28828
G1 X98.513 Y150.144 E28.31852
G1 X97.96 Y149.802 E28.34879
G1 X97.454 Y149.395 E28.37903
G1 X97.001 Y148.929 E28.40929
G1 X96.61 Y148.411 E28.43951
G1 X96.284 Y147.848 E28.46981
G1 X96.031 Y147.25 E28.50004
G1 X95.852 Y146.626 E28.53027
G1 X95.752 Y145.984 E28.56052
G1 X95.729 Y145.492 E28.58346
G1 X95.72 Y109.067 E30.27956
G1 X95.566 Y103.63 E30.53283
G1 X95.113 Y98.292 E30.78228
G1 X94.358 Y92.995 E31.03143
G1 X93.296 Y87.702 E31.2828
G1 X92.67 Y85.147 E31.40529
G1 X91.966 Y82.587 E31.52892
G1 X90.322 Y77.476 E31.77892
G1 X87.958 Y71.419 E32.08168
G1 X87.76 Y70.8 E32.11194
G1 X87.639 Y70.162 E32.14218
G1 X87.597 Y69.499 E32.17311
G1 X87.597 Y64.509 E32.40547
G1 X87.637 Y63.861 E32.4357
G1 X87.756 Y63.222 E32.46597
G1 X87.953 Y62.603 E32.49621
G1 X88.224 Y62.013 E32.52645
G1 X88.566 Y61.46 E32.55672
M204 S3000
M205 X10 Y10
G1 F2400 E26.55672
G0 F3000 X92.202 Y65.354
G0 X93.721 Y65.354
G0 X107.6 Y68.1
M204 S1800
M205 X8 Y8
;TYPE:WALL-INNER
G1 F2400 E32.55672
G1 F1500 X107.6 Y144.1 E36.0956
G1 X102.4 Y144.1 E36.33774
G1 X102.4 Y68.1 E39.87661
G1 X94.267 Y68.1 E40.25532
G1 X94.267 Y65.9 E40.35776
G1 X115.733 Y65.9 E41.35731
G1 X115.734 Y67.82 E41.44671
G1 X115.734 Y68.1 E41.45975
G1 X115.454 Y68.1 E41.46819
G1 X107.6 Y68.1 E41.8339
M204 S3000
M205 X10 Y10
G0 F3000 X108.16 Y68.66
M204 S1800
M205 X8 Y8
G1 F1500 X108.16 Y144.66 E45.37278
G1 X101.84 Y144.66 E45.66707
G1 X101.84 Y68.66 E49.20595
G1 X93.707 Y68.66 E49.58465
G1 X93.707 Y65.34 E49.73925
G1 X116.293 Y65.34 E50.79095
G1 X116.294 Y68.38 E50.9325
G1 X116.294 Y68.66 E50.94554
G1 X116.014 Y68.66 E50.95398
G1 X108.16 Y68.66 E51.31969
M204 S3000
M205 X10 Y10
G0 F3000 X108.72 Y69.22
M204 S1800
M205 X8 Y8
;TYPE:WALL-OUTER
G1 F1500 X108.72 Y145.22 E54.85857
G1 X101.28 Y145.22 E55.20501
G1 X101.28 Y69.22 E58.74389
G1 X93.147 Y69.22 E59.12259
G1 X93.147 Y64.78 E59.32934
G1 X116.853 Y64.78 E60.43319
G1 X116.854 Y68.94 E60.6269
G1 X116.854 Y69.22 E60.63994
G1 X116.574 Y69.22 E60.64837
G1 X108.72 Y69.22 E61.01409
M204 S3000
M205 X10 Y10
G0 F3000 X108.72 Y69.42
G0 X108.06 Y69.42
G0 X107.05 Y67.55
M204 S1800
M205 X8 Y8
;TYPE:SKIN
G1 F1500 X107.05 Y143.55 E64.55297
G1 X102.95 Y143.55 E64.74388
G1 X102.95 Y67.55 E68.28276
G1 X94.817 Y67.55 E68.66147
G1 X94.817 Y66.45 E68.71269
G1 X115.183 Y66.45 E69.66101
G1 X115.184 Y67.55 E69.71223
G1 X107.05 Y67.55 E70.09099
M204 S3000
M205 X10 Y10
G0 F3000 X114.807 Y67.289
G0 X114.517 Y66.999
G1 F1500 X113.725 Y66.999 E70.12918
G1 X112.933 Y66.999 E70.16738
G1 X112.141 Y66.999 E70.20557
G1 X111.349 Y66.999 E70.24377
G1 X110.557 Y66.999 E70.28197
G1 X109.765 Y66.999 E70.32016
G1 X108.973 Y66.999 E70.35836
G1 X108.181 Y66.999 E70.39655
G1 X107.389 Y66.999 E70.43475
G1 X106.597 Y66.999 E70.47295
G0 F3000 X105.515 Y66.709
M204 S1800
M205 X8 Y8
G1 F1500 X106.79 Y67.984 E70.55691
G1 X106.86 Y68.054
M204 S3000
M205 X10 Y10
G0 F3000 X106.79 Y68.776
M204 S1800
M205 X8 Y8
G1 F1500 X104.723 Y66.709 E70.69302
G1 X104.653 Y66.639
M204 S3000
M205 X10 Y10
G0 F3000 X103.931 Y66.709
M204 S1800
M205 X8 Y8
G1 F1500 X106.79 Y69.567 E70.88126
G1 X106.86 Y69.637
M204 S3000
M205 X10 Y10
G0 F3000 X106.79 Y70.359
M204 S1800
M205 X8 Y8
G1 F1500 X103.14 Y66.709 E71.12162
G1 X103.07 Y66.639
M204 S3000
M205 X10 Y10
G0 F3000 X102.637 Y66.999
G1 F1500 X101.845 Y66.999 E71.15981
G1 X101.053 Y66.999 E71.19801
G1 X100.261 Y66.999 E71.23621
G1 X99.47 Y66.999 E71.27435
G1 X98.678 Y66.999 E71.31255
G1 X97.886 Y66.999 E71.35075
G1 X97.094 Y66.999 E71.38894
G1 X96.302 Y66.999 E71.42714
G1 X95.51 Y66.999 E71.46533
G0 F3000 X95.22 Y66.709
G0 X103.209 Y67.571
M204 S1800
M205 X8 Y8
G1 F1500 X106.79 Y71.151 E71.70112
G1 X106.86 Y71.221
M204 S3000
M205 X10 Y10
G0 F3000 X106.79 Y71.943
M204 S1800
M205 X8 Y8
G1 F1500 X103.209 Y68.363 E71.9369
G1 X103.139 Y68.293
M204 S3000
M205 X10 Y10
G0 F3000 X103.209 Y69.155
M204 S1800
M205 X8 Y8
G1 F1500 X106.79 Y72.735 E72.17268
G1 X106.86 Y72.805
M204 S3000
M205 X10 Y10
G0 F3000 X106.79 Y73.527
M204 S1800
M205 X8 Y8
G1 F1500 X103.209 Y69.947 E72.40846
G1 X103.139 Y69.877
M204 S3000
M205 X10 Y10
G0 F3000 X103.209 Y70.738
M204 S1800
M205 X8 Y8
G1 F1500 X106.79 Y74.319 E72.64428
G1 X106.86 Y74.389
M204 S3000
M205 X10 Y10
G0 F3000 X106.79 Y75.111
M204 S1800
M205 X8 Y8
G1 F1500 X103.209 Y71.53 E72.88009
G1 X103.139 Y71.46
M204 S3000
M205 X10 Y10
G0 F3000 X103.209 Y72.322
M204 S1800
M205 X8 Y8
G1 F1500 X106.79 Y75.903 E73.11591
G1 X106.86 Y75.973
M204 S3000
M205 X10 Y10
G0 F3000 X106.79 Y76.695
M204 S1800
M205 X8 Y8
G1 F1500 X103.209 Y73.114 E73.35172
G1 X103.139 Y73.044
M204 S3000
M205 X10 Y10
G0 F3000 X103.209 Y73.906
M204 S1800
M205 X8 Y8
G1 F1500 X106.79 Y77.487 E73.58754
G1 X106.86 Y77.557
M204 S3000
M205 X10 Y10
G0 F3000 X106.79 Y78.279
M204 S1800
M205 X8 Y8
G1 F1500 X103.209 Y74.698 E73.82335
G1 X103.139 Y74.628
M204 S3000
M205 X10 Y10
G0 F3000 X103.209 Y75.49
M204 S1800
M205 X8 Y8
G1 F1500 X106.79 Y79.071 E74.05917
G1 X106.86 Y79.141
M204 S3000
M205 X10 Y10
G0 F3000 X106.79 Y79.863
M204 S1800
M205 X8 Y8
G1 F1500 X103.209 Y76.282 E74.29498
G1 X103.139 Y76.212
M204 S3000
M205 X10 Y10
G0 F3000 X103.209 Y77.074
M204 S1800
M205 X8 Y8
G1 F1500 X106.79 Y80.655 E74.5308
G1 X106.86 Y80.725
M204 S3000
M205 X10 Y10
G0 F3000 X106.79 Y81.447
M204 S1800
M205 X8 Y8
G1 F1500 X103.209 Y77.866 E74.76661
G1 X103.139 Y77.796
M204 S3000
M205 X10 Y10
G0 F3000 X103.209 Y78.658
M204 S1800
M205 X8 Y8
G1 F1500 X106.79 Y82.239 E75.00243
G1 X106.86 Y82.309
M204 S3000
M205 X10 Y10
G0 F3000 X106.79 Y83.031
M204 S1800
M205 X8 Y8
G1 F1500 X103.209 Y79.45 E75.23824
G1 X103.139 Y79.38
M204 S3000
M205 X10 Y10
G0 F3000 X103.209 Y80.242
M204 S1800
M205 X8 Y8
G1 F1500 X106.79 Y83.823 E75.47406
G1 X106.86 Y83.893
M204 S3000
M205 X10 Y10
G0 F3000 X106.79 Y84.615
M204 S1800
M205 X8 Y8
G1 F1500 X103.209 Y81.034 E75.70987
G1 X103.139 Y80.964
M204 S3000
M205 X10 Y10
G0 F3000 X103.209 Y81.826
M204 S1800
M205 X8 Y8
G1 F1500 X106.79 Y85.407 E75.94569
G1 X106.86 Y85.477
M204 S3000
M205 X10 Y10
G0 F3000 X106.79 Y86.199
M204 S1800
M205 X8 Y8
G1 F1500 X103.209 Y82.618 E76.1815
G1 X103.139 Y82.548
M204 S3000
M205 X10 Y10
G0 F3000 X103.209 Y83.41
M204 S1800
M205 X8 Y8
G1 F1500 X106.79 Y86.991 E76.41732
G1 X106.86 Y87.061
M204 S3000
M205 X10 Y10
G0 F3000 X106.79 Y87.783
M204 S1800
M205 X8 Y8
G1 F1500 X103.209 Y84.202 E76.65313
G1 X103.139 Y84.132
M204 S3000
M205 X10 Y10
G0 F3000 X103.209 Y84.994
M204 S1800
M205 X8 Y8
G1 F1500 X106.79 Y88.575 E76.88895
G1 X106.86 Y88.645
M204 S3000
M205 X10 Y10
G0 F3000 X106.79 Y89.366
M204 S1800
M205 X8 Y8
G1 F1500 X103.209 Y85.786 E77.12473
G1 X103.139 Y85.716
M204 S3000
M205 X10 Y10
G0 F3000 X103.209 Y86.578
M204 S1800
M205 X8 Y8
G1 F1500 X106.79 Y90.158 E77.36051
G1 X106.86 Y90.228
M204 S3000
M205 X10 Y10
G0 F3000 X106.79 Y90.95
M204 S1800
M205 X8 Y8
G1 F1500 X103.209 Y87.37 E77.59629
G1 X103.139 Y87.3
M204 S3000
M205 X10 Y10
G0 F3000 X103.209 Y88.162
M204 S1800
M205 X8 Y8
G1 F1500 X106.79 Y91.742 E77.83207
G1 X106.86 Y91.812
M204 S3000
M205 X10 Y10
G0 F3000 X106.79 Y92.534
M204 S1800
M205 X8 Y8
G1 F1500 X103.209 Y88.954 E78.06786
G1 X103.139 Y88.884
M204 S3000
M205 X10 Y10
G0 F3000 X103.209 Y89.745
M204 S1800
M205 X8 Y8
G1 F1500 X106.79 Y93.326 E78.30367
G1 X106.86 Y93.396
M204 S3000
M205 X10 Y10
G0 F3000 X106.79 Y94.118
M204 S1800
M205 X8 Y8
G1 F1500 X103.209 Y90.537 E78.53949
G1 X103.139 Y90.467
M204 S3000
M205 X10 Y10
G0 F3000 X103.209 Y91.329
M204 S1800
M205 X8 Y8
G1 F1500 X106.79 Y94.91 E78.7753
G1 X106.86 Y94.98
M204 S3000
M205 X10 Y10
G0 F3000 X106.79 Y95.702
M204 S1800
M205 X8 Y8
G1 F1500 X103.209 Y92.121 E79.01112
G1 X103.139 Y92.051
M204 S3000
M205 X10 Y10
G0 F3000 X103.209 Y92.913
M204 S1800
M205 X8 Y8
G1 F1500 X106.79 Y96.494 E79.24693
G1 X106.86 Y96.564
M204 S3000
M205 X10 Y10
G0 F3000 X106.79 Y97.286
M204 S1800
M205 X8 Y8
G1 F1500 X103.209 Y93.705 E79.48275
G1 X103.139 Y93.635
M204 S3000
M205 X10 Y10
G0 F3000 X103.209 Y94.497
M204 S1800
M205 X8 Y8
G1 F1500 X106.79 Y98.078 E79.71856
G1 X106.86 Y98.148
M204 S3000
M205 X10 Y10
G0 F3000 X106.79 Y98.87
M204 S1800
M205 X8 Y8
G1 F1500 X103.209 Y95.289 E79.95438
G1 X103.139 Y95.219
M204 S3000
M205 X10 Y10
G0 F3000 X103.209 Y96.081
M204 S1800
M205 X8 Y8
G1 F1500 X106.79 Y99.662 E80.19019
G1 X106.86 Y99.732
M204 S3000
M205 X10 Y10
G0 F3000 X106.79 Y100.454
M204 S1800
M205 X8 Y8
G1 F1500 X103.209 Y96.873 E80.42601
G1 X103.139 Y96.803
M204 S3000
M205 X10 Y10
G0 F3000 X103.209 Y97.665
M204 S1800
M205 X8 Y8
G1 F1500 X106.79 Y101.246 E80.66182
G1 X106.86 Y101.316
M204 S3000
M205 X10 Y10
G0 F3000 X106.79 Y102.038
M204 S1800
M205 X8 Y8
G1 F1500 X103.209 Y98.457 E80.89764
G1 X103.139 Y98.387
M204 S3000
M205 X10 Y10
G0 F3000 X103.209 Y99.249
M204 S1800
M205 X8 Y8
G1 F1500 X106.79 Y102.83 E81.13345
G1 X106.86 Y102.9
M204 S3000
M205 X10 Y10
G0 F3000 X106.79 Y103.622
M204 S1800
M205 X8 Y8
