;FLAVOR:Marlin
;TIME:2297
;Filament used: 1.57989m
;Layer height: 0.2
;Generated with Cura_SteamEngine 3.4.1
M190 S60
M104 S200
M109 S200
M82 ;absolute extrusion mode
G21 ;metric values
G90 ;absolute positioning
M82 ;set extruder to absolute mode
M107 ;start with the fan off
G28 X0 Y0 ;move X/Y to min endstops
G28 Z0 ;move Z to min endstops
G1 Z15.0 F100 ;move the platform down 15mm
G92 E0 ;zero the extruded length
G1 F200 E3 ;extrude 3mm of feed stock
G92 E0 ;zero the extruded length again
G1 F100
M117 Printing...
G5
G92 E0
G1 F2400 E-6
;LAYER_COUNT:276
;LAYER:0
M106 S255
M204 S3000
M205 X10 Y10
G0 F3000 X85.609 Y78.534 Z0.2
M204 S1800
M205 X8 Y8
;TYPE:SKIRT
G1 F2400 E0
G1 X85.835 Y78.306 E0.01495
G1 X86.366 Y77.827 E0.04825
G1 X86.947 Y77.411 E0.08152
G1 X87.571 Y77.061 E0.11484
G1 X88.23 Y76.784 E0.14812
G1 X88.916 Y76.582 E0.18142
G1 X89.621 Y76.457 E0.21476
G1 X90.566 Y76.415 E0.25881
G1 X96.917 Y76.6 E0.55466
G1 X115.793 Y76.56 E1.43361
G1 X119.364 Y76.418 E1.60002
G1 X120.079 Y76.43 E1.63332
G1 X120.789 Y76.521 E1.66665
G1 X121.484 Y76.691 E1.69997
G1 X122.155 Y76.937 E1.73325
G1 X122.795 Y77.257 E1.76656
G1 X123.395 Y77.646 E1.79986
G1 X123.984 Y78.132 E1.83542
G1 X124.058 Y78.201 E1.84013
G1 X124.685 Y78.877 E1.88306
G1 X124.827 Y79.054 E1.89363
G1 X125.243 Y79.636 E1.92694
G1 X125.591 Y80.261 E1.96025
G1 X125.867 Y80.921 E1.99356
G1 X126.068 Y81.607 E2.02685
G1 X126.191 Y82.312 E2.06017
G1 X126.235 Y83.035 E2.0939
G1 X126.246 Y85.941 E2.22922
G1 X126.209 Y86.655 E2.26251
G1 X126.092 Y87.361 E2.29583
G1 X125.897 Y88.049 E2.32913
G1 X125.627 Y88.711 E2.36242
G1 X125.431 Y89.09 E2.38229
G1 X124.005 Y91.638 E2.51825
G1 X121.611 Y96.394 E2.76618
G1 X119.481 Y101.296 E3.01506
G1 X118.529 Y103.764 E3.13823
G1 X117.689 Y106.152 E3.2561
G1 X115.752 Y112.604 E3.56978
G1 X115.508 Y113.277 E3.60312
G1 X115.186 Y113.926 E3.63685
G1 X112.9 Y117.948 E3.85227
G1 X110.509 Y122.707 E4.10027
G1 X108.842 Y126.454 E4.29123
G1 X108.515 Y127.09 E4.32453
G1 X108.119 Y127.686 E4.35785
G1 X107.66 Y128.234 E4.39113
G1 X107.142 Y128.727 E4.42443
G1 X106.572 Y129.159 E4.45774
G1 X105.957 Y129.526 E4.49108
G1 X105.306 Y129.821 E4.52436
G1 X104.626 Y130.042 E4.55766
G1 X103.925 Y130.185 E4.59097
G1 X102.989 Y130.253 E4.63467
G1 X98.737 Y130.25 E4.83266
G1 X98.023 Y130.21 E4.86596
G1 X97.318 Y130.09 E4.89926
G1 X96.631 Y129.892 E4.93255
G1 X95.97 Y129.618 E4.96587
G1 X95.344 Y129.273 E4.99915
G1 X94.76 Y128.86 E5.03246
G1 X94.236 Y128.395 E5.06508
G1 X94.007 Y128.168 E5.0801
G1 X93.528 Y127.637 E5.1134
G1 X93.112 Y127.056 E5.14667
G1 X92.762 Y126.432 E5.17998
G1 X92.485 Y125.772 E5.21331
G1 X92.283 Y125.086 E5.24661
G1 X92.158 Y124.382 E5.27991
G1 X92.124 Y124.004 E5.29758
G1 X91.731 Y117.41 E5.60517
G1 X91.095 Y112.161 E5.85137
G1 X90.164 Y106.955 E6.09763
G1 X88.943 Y101.828 E6.34304
G1 X87.408 Y96.678 E6.59327
G1 X86.579 Y94.284 E6.71124
G1 X84.208 Y88.329 E7.0097
G1 X83.981 Y87.651 E7.04299
G1 X83.831 Y86.952 E7.07628
G1 X83.754 Y85.962 E7.12252
G1 X83.754 Y83.04 E7.25858
G1 X83.794 Y82.326 E7.29188
G1 X83.913 Y81.621 E7.32517
G1 X84.111 Y80.933 E7.35851
G1 X84.384 Y80.272 E7.39181
G1 X84.728 Y79.645 E7.42511
G1 X85.141 Y79.061 E7.45842
G1 X85.609 Y78.534 E7.49124
M204 S3000
M205 X10 Y10
G0 F3000 X86.006 Y78.929
M204 S1800
M205 X8 Y8
G1 F2400 X86.232 Y78.701 E7.50618
G1 X86.741 Y78.244 E7.53804
G1 X87.299 Y77.851 E7.56982
G1 X87.9 Y77.525 E7.60165
G1 X88.534 Y77.271 E7.63346
G1 X89.194 Y77.094 E7.66528
G1 X89.87 Y76.994 E7.6971
G1 X90.55 Y76.974 E7.72877
G1 X96.935 Y77.16 E8.02621
G1 X115.817 Y77.12 E8.90544
G1 X119.387 Y76.978 E9.0718
G1 X120.07 Y76.99 E9.10361
G1 X120.747 Y77.083 E9.13543
G1 X121.408 Y77.254 E9.16722
G1 X122.045 Y77.501 E9.19904
G1 X122.649 Y77.82 E9.23084
G1 X123.211 Y78.209 E9.26267
G1 X123.602 Y78.542 E9.28659
G1 X123.676 Y78.611 E9.2913
G1 X124.248 Y79.228 E9.33047
G1 X124.39 Y79.405 E9.34104
G1 X124.786 Y79.962 E9.37286
G1 X125.114 Y80.561 E9.40466
G1 X125.369 Y81.195 E9.43648
G1 X125.549 Y81.854 E9.46829
G1 X125.651 Y82.529 E9.50008
G1 X125.675 Y83.037 E9.52376
G1 X125.686 Y85.943 E9.65908
G1 X125.649 Y86.625 E9.69088
G1 X125.532 Y87.298 E9.72269
G1 X125.337 Y87.953 E9.75451
G1 X124.943 Y88.816 E9.79869
G1 X123.508 Y91.381 E9.93554
G1 X121.101 Y96.163 E10.18483
G1 X118.968 Y101.071 E10.43402
G1 X118.007 Y103.562 E10.55834
G1 X117.149 Y106.002 E10.67878
G1 X115.215 Y112.443 E10.99193
G1 X114.981 Y113.085 E11.02374
G1 X114.699 Y113.65 E11.05315
G1 X112.405 Y117.686 E11.26932
G1 X109.997 Y122.477 E11.519
G1 X108.33 Y126.226 E11.71005
G1 X108.016 Y126.833 E11.74187
G1 X107.634 Y127.399 E11.77367
G1 X107.188 Y127.917 E11.80549
G1 X106.685 Y128.379 E11.8373
G1 X106.131 Y128.779 E11.86911
G1 X105.534 Y129.112 E11.90095
G1 X104.903 Y129.372 E11.93272
G1 X104.245 Y129.557 E11.96455
G1 X103.57 Y129.665 E11.99638
G1 X102.99 Y129.693 E12.02342
G1 X98.738 Y129.69 E12.22141
G1 X98.056 Y129.65 E12.25322
G1 X97.383 Y129.53 E12.28505
G1 X96.729 Y129.332 E12.31687
G1 X96.103 Y129.06 E12.34865
G1 X95.512 Y128.716 E12.3805
G1 X94.966 Y128.305 E12.41232
G1 X94.631 Y127.998 E12.43348
G1 X94.402 Y127.771 E12.44849
G1 X93.945 Y127.262 E12.48034
G1 X93.552 Y126.704 E12.51212
G1 X93.226 Y126.103 E12.54396
G1 X92.972 Y125.469 E12.57576
G1 X92.795 Y124.809 E12.60758
G1 X92.683 Y123.971 E12.64695
G1 X92.289 Y117.359 E12.95538
G1 X91.65 Y112.081 E13.20294
G1 X90.711 Y106.832 E13.45123
G1 X89.485 Y101.682 E13.69774
G1 X87.945 Y96.519 E13.94862
G1 X87.104 Y94.091 E14.06827
G1 X84.728 Y88.122 E14.36742
G1 X84.513 Y87.474 E14.39921
G1 X84.375 Y86.805 E14.43102
G1 X84.314 Y85.962 E14.47037
G1 X84.314 Y83.04 E14.60643
G1 X84.354 Y82.358 E14.63825
G1 X84.473 Y81.685 E14.67007
G1 X84.67 Y81.031 E14.70187
G1 X84.943 Y80.404 E14.73372
G1 X85.286 Y79.814 E14.76549
G1 X85.696 Y79.267 E14.79733
G1 X86.006 Y78.929 E14.81868
M204 S3000
M205 X10 Y10
G0 F3000 X86.404 Y79.323
M204 S1800
M205 X8 Y8
G1 F2400 X86.63 Y79.095 E14.83363
G1 X87.115 Y78.663 E14.86387
G1 X87.649 Y78.293 E14.89412
G1 X88.225 Y77.992 E14.92439
G1 X88.833 Y77.764 E14.95462
G1 X89.465 Y77.612 E14.98489
G1 X90.11 Y77.539 E15.01512
G1 X90.534 Y77.534 E15.03486
G1 X96.92 Y77.72 E15.33235
G1 X115.814 Y77.68 E16.21213
G1 X119.409 Y77.537 E16.37966
G1 X120.058 Y77.551 E16.40989
G1 X120.701 Y77.645 E16.44015
G1 X121.328 Y77.817 E16.47042
G1 X121.928 Y78.065 E16.50065
G1 X122.494 Y78.384 E16.53091
G1 X123.22 Y78.951 E16.5738
G1 X123.294 Y79.02 E16.57851
G1 X123.811 Y79.578 E16.61393
G1 X123.953 Y79.755 E16.6245
G1 X124.328 Y80.286 E16.65477
G1 X124.635 Y80.858 E16.685
G1 X124.868 Y81.464 E16.71523
G1 X125.026 Y82.095 E16.74552
G1 X125.115 Y83.039 E16.78967
G1 X125.126 Y85.945 E16.92499
G1 X125.088 Y86.594 E16.95526
G1 X124.972 Y87.233 E16.9855
G1 X124.777 Y87.852 E17.01572
G1 X124.454 Y88.543 E17.05124
G1 X123.015 Y91.115 E17.18847
G1 X120.598 Y95.916 E17.43876
G1 X118.442 Y100.879 E17.69072
G1 X117.487 Y103.353 E17.8142
G1 X116.617 Y105.825 E17.93623
G1 X114.679 Y112.282 E18.25015
G1 X114.454 Y112.892 E18.28042
G1 X114.212 Y113.373 E18.30549
G1 X111.918 Y117.408 E18.52162
G1 X109.486 Y122.249 E18.77389
G1 X107.818 Y125.999 E18.965
G1 X107.518 Y126.575 E18.99524
G1 X107.15 Y127.11 E19.02547
G1 X106.719 Y127.595 E19.05569
G1 X106.231 Y128.025 E19.08597
G1 X105.694 Y128.39 E19.11621
G1 X105.116 Y128.688 E19.14649
G1 X104.507 Y128.912 E19.1767
G1 X103.874 Y129.059 E19.20696
G1 X102.99 Y129.133 E19.24827
G1 X98.738 Y129.13 E19.44626
G1 X98.09 Y129.09 E19.47649
G1 X97.451 Y128.97 E19.50676
G1 X96.832 Y128.773 E19.53701
G1 X96.242 Y128.501 E19.56726
G1 X95.69 Y128.159 E19.5975
G1 X95.025 Y127.6 E19.63795
G1 X94.796 Y127.373 E19.65297
G1 X94.364 Y126.888 E19.68321
G1 X93.994 Y126.354 E19.71346
G1 X93.693 Y125.778 E19.74372
G1 X93.465 Y125.17 E19.77396
G1 X93.313 Y124.538 E19.80423
G1 X93.242 Y123.937 E19.83241
G1 X92.847 Y117.309 E20.14158
G1 X92.204 Y112.005 E20.39037
G1 X91.257 Y106.711 E20.64079
G1 X90.029 Y101.549 E20.88786
G1 X88.475 Y96.339 E21.14102
G1 X87.623 Y93.878 E21.26229
G1 X85.249 Y87.915 E21.56115
G1 X85.046 Y87.298 E21.59139
G1 X84.92 Y86.661 E21.62163
G1 X84.874 Y85.962 E21.65425
G1 X84.874 Y83.04 E21.79031
G1 X84.914 Y82.392 E21.82054
G1 X85.033 Y81.753 E21.85081
G1 X85.23 Y81.134 E21.88106
G1 X85.501 Y80.544 E21.91129
G1 X85.843 Y79.991 E21.94156
G1 X86.404 Y79.323 E21.98218
M204 S3000
M205 X10 Y10
G0 F3000 X98.85 Y121.359
M204 S1800
M205 X8 Y8
;TYPE:SUPPORT
G1 F1500 X102.72 Y121.359 E22.16239
G1 X102.72 Y123.583 E22.26595
G1 X98.852 Y123.58 E22.44606
G1 X98.78 Y123.508 E22.4508
G1 X98.78 Y121.429 E22.5476
G1 X98.85 Y121.359 E22.55221
M204 S3000
M205 X10 Y10
G0 F3000 X99 Y121.82
M204 S1800
M205 X8 Y8
G1 F1500 X101.668 Y123.361 E22.69568
M204 S3000
M205 X10 Y10
G1 F2400 E16.69568
G0 F3000 X101.668 Y111.438
G0 X101.668 Y109.913
G0 X108.23 Y84.6
M204 S1800
M205 X8 Y8
;TYPE:WALL-INNER
G1 F2400 E22.69568
G1 F1500 X108.23 Y109.372 E23.84917
G1 X105.3 Y109.372 E23.9856
G1 X105.3 Y109.675 E23.99971
G1 X105.1 Y109.676 E24.00902
G1 X105.1 Y109.373 E24.01409
G1 X102.03 Y109.373 E24.15704
G1 X102.03 Y84.6 E25.31058
G1 X92.649 Y84.6 E25.7474
G1 X92.649 Y84.4 E25.75671
G1 X102.03 Y84.4 E25.91272
G1 X108.23 Y84.4 E26.20141
G1 X117.351 Y84.4 E26.62613
G1 X117.352 Y84.6 E26.63544
G1 X108.23 Y84.6 E26.78715
M204 S3000
M205 X10 Y10
G0 F3000 X108.79 Y85.16
M204 S1800
M205 X8 Y8
G1 F1500 X108.79 Y109.932 E27.94064
G1 X105.86 Y109.932 E28.07708
G1 X105.86 Y110.235 E28.09118
G1 X104.54 Y110.236 E28.15265
G1 X104.54 Y109.933 E28.16676
G1 X101.47 Y109.933 E28.30971
G1 X101.47 Y85.16 E29.46324
G1 X92.089 Y85.16 E29.90006
G1 X92.089 Y83.84 E29.96153
G1 X117.911 Y83.84 E31.16391
G1 X117.912 Y84.88 E31.21234
G1 X117.912 Y85.16 E31.22537
G1 X117.632 Y85.16 E31.23381
G1 X108.79 Y85.16 E31.64553
M204 S3000
M205 X10 Y10
G0 F3000 X109.35 Y85.72
M204 S1800
M205 X8 Y8
;TYPE:WALL-OUTER
G1 F1500 X109.35 Y110.492 E32.79902
G1 X106.42 Y110.492 E32.93545
G1 X106.42 Y110.795 E32.94956
G1 X103.98 Y110.796 E33.06318
G1 X103.98 Y110.493 E33.07729
G1 X100.91 Y110.493 E33.22024
G1 X100.91 Y85.72 E34.37378
G1 X91.529 Y85.72 E34.81059
G1 X91.529 Y83.28 E34.92421
G1 X118.471 Y83.28 E36.17874
G1 X118.472 Y85.44 E36.27932
G1 X118.472 Y85.72 E36.29236
G1 X118.192 Y85.72 E36.3008
G1 X109.35 Y85.72 E36.71252
M204 S3000
M205 X10 Y10
G0 F3000 X109.35 Y85.92
G0 X108.69 Y85.92
G0 X107.68 Y84.95
M204 S1800
M205 X8 Y8
;TYPE:SKIN
G1 F1500 X107.68 Y108.822 E37.8241
G1 X102.58 Y108.823 E38.06158
G1 X102.58 Y84.95 E39.17321
G1 X107.68 Y84.95 E39.41068
M204 S3000
M205 X10 Y10
G0 F3000 X107.419 Y86.036
M204 S1800
M205 X8 Y8
G1 F1500 X106.592 Y85.209 E39.46514
G1 X106.522 Y85.139
M204 S3000
M205 X10 Y10
G0 F3000 X105.8 Y85.209
M204 S1800
M205 X8 Y8
G1 F1500 X107.419 Y86.828 E39.57176
G1 X107.489 Y86.898
M204 S3000
M205 X10 Y10
G0 F3000 X107.419 Y87.62
M204 S1800
M205 X8 Y8
G1 F1500 X105.008 Y85.209 E39.73052
G1 X104.938 Y85.139
M204 S3000
M205 X10 Y10
G0 F3000 X104.216 Y85.209
M204 S1800
M205 X8 Y8
G1 F1500 X107.419 Y88.412 E39.94145
G1 X107.489 Y88.482
M204 S3000
M205 X10 Y10
G0 F3000 X107.419 Y89.204
M204 S1800
M205 X8 Y8
G1 F1500 X103.424 Y85.209 E40.20453
G1 X103.354 Y85.139
M204 S3000
M205 X10 Y10
G0 F3000 X102.839 Y85.416
M204 S1800
M205 X8 Y8
G1 F1500 X107.419 Y89.996 E40.50613
G1 X107.489 Y90.066
M204 S3000
M205 X10 Y10
G0 F3000 X107.419 Y90.788
M204 S1800
M205 X8 Y8
G1 F1500 X102.839 Y86.208 E40.80773
G1 X102.769 Y86.138
M204 S3000
M205 X10 Y10
G0 F3000 X102.839 Y87
M204 S1800
M205 X8 Y8
G1 F1500 X107.419 Y91.58 E41.10933
G1 X107.489 Y91.65
M204 S3000
M205 X10 Y10
G0 F3000 X107.419 Y92.372
M204 S1800
M205 X8 Y8
G1 F1500 X102.839 Y87.792 E41.41093
G1 X102.769 Y87.722
M204 S3000
M205 X10 Y10
G0 F3000 X102.839 Y88.584
M204 S1800
M205 X8 Y8
G1 F1500 X107.419 Y93.164 E41.71253
G1 X107.489 Y93.234
M204 S3000
M205 X10 Y10
G0 F3000 X107.419 Y93.956
M204 S1800
M205 X8 Y8
G1 F1500 X102.839 Y89.376 E42.01413
G1 X102.769 Y89.306
M204 S3000
M205 X10 Y10
G0 F3000 X102.839 Y90.168
M204 S1800
M205 X8 Y8
G1 F1500 X107.419 Y94.748 E42.31573
G1 X107.489 Y94.818
M204 S3000
M205 X10 Y10
G0 F3000 X107.419 Y95.54
M204 S1800
M205 X8 Y8
G1 F1500 X102.839 Y90.96 E42.61733
G1 X102.769 Y90.89
M204 S3000
M205 X10 Y10
G0 F3000 X102.839 Y91.752
M204 S1800
M205 X8 Y8
G1 F1500 X107.419 Y96.331 E42.9189
G1 X107.489 Y96.401
M204 S3000
M205 X10 Y10
G0 F3000 X107.42 Y97.124
M204 S1800
M205 X8 Y8
G1 F1500 X102.839 Y92.544 E43.22053
G1 X102.769 Y92.474
M204 S3000
M205 X10 Y10
G0 F3000 X102.839 Y93.335
M204 S1800
M205 X8 Y8
G1 F1500 X107.42 Y97.916 E43.5222
G1 X107.49 Y97.986
M204 S3000
M205 X10 Y10
G0 F3000 X107.42 Y98.708
M204 S1800
M205 X8 Y8
G1 F1500 X102.839 Y94.127 E43.82387
G1 X102.769 Y94.057
M204 S3000
M205 X10 Y10
G0 F3000 X102.839 Y94.919
M204 S1800
M205 X8 Y8
G1 F1500 X107.42 Y99.5 E44.12553
G1 X107.49 Y99.57
M204 S3000
M205 X10 Y10
G0 F3000 X107.42 Y100.292
M204 S1800
M205 X8 Y8
G1 F1500 X102.839 Y95.711 E44.4272
G1 X102.769 Y95.641
M204 S3000
M205 X10 Y10
G0 F3000 X102.839 Y96.503
M204 S1800
M205 X8 Y8
G1 F1500 X107.42 Y101.084 E44.72887
G1 X107.49 Y101.154
M204 S3000
M205 X10 Y10
G0 F3000 X107.42 Y101.876
M204 S1800
M205 X8 Y8
G1 F1500 X102.839 Y97.295 E45.03053
G1 X102.769 Y97.225
M204 S3000
M205 X10 Y10
G0 F3000 X102.839 Y98.087
M204 S1800
M205 X8 Y8
G1 F1500 X107.42 Y102.668 E45.3322
G1 X107.49 Y102.738
M204 S3000
M205 X10 Y10
G0 F3000 X107.42 Y103.46
M204 S1800
M205 X8 Y8
G1 F1500 X102.839 Y98.879 E45.63387
G1 X102.769 Y98.809
M204 S3000
M205 X10 Y10
G0 F3000 X102.839 Y99.671
M204 S1800
M205 X8 Y8
G1 F1500 X107.42 Y104.252 E45.93553
G1 X107.49 Y104.322
M204 S3000
M205 X10 Y10
G0 F3000 X107.42 Y105.044
M204 S1800
M205 X8 Y8
G1 F1500 X102.839 Y100.463 E46.2372
G1 X102.769 Y100.393
M204 S3000
M205 X10 Y10
G0 F3000 X102.839 Y101.255
M204 S1800
M205 X8 Y8
G1 F1500 X107.42 Y105.836 E46.53887
G1 X107.49 Y105.906
M204 S3000
M205 X10 Y10
G0 F3000 X107.42 Y106.628
M204 S1800
M205 X8 Y8
G1 F1500 X102.839 Y102.047 E46.84053
G1 X102.769 Y101.977
M204 S3000
M205 X10 Y10
G0 F3000 X102.839 Y102.839
M204 S1800
M205 X8 Y8
G1 F1500 X107.42 Y107.42 E47.1422
G1 X107.49 Y107.49
M204 S3000
M205 X10 Y10
G0 F3000 X107.42 Y108.212
M204 S1800
M205 X8 Y8
G1 F1500 X102.839 Y103.631 E47.44387
G1 X102.769 Y103.561
M204 S3000
M205 X10 Y10
G0 F3000 X102.839 Y104.423
M204 S1800
M205 X8 Y8
G1 F1500 X106.977 Y108.561 E47.71636
G1 X107.047 Y108.631
M204 S3000
M205 X10 Y10
G0 F3000 X106.185 Y108.561
M204 S1800
M205 X8 Y8
G1 F1500 X102.839 Y105.215 E47.9367
G1 X102.769 Y105.145
M204 S3000
M205 X10 Y10
G0 F3000 X102.839 Y106.007
M204 S1800
M205 X8 Y8
G1 F1500 X105.393 Y108.561 E48.10489
G1 X105.463 Y108.631
M204 S3000
M205 X10 Y10
G0 F3000 X104.601 Y108.561
M204 S1800
M205 X8 Y8
G1 F1500 X102.839 Y106.799 E48.22092
G1 X102.769 Y106.729
M204 S3000
M205 X10 Y10
G0 F3000 X102.839 Y107.591
M204 S1800
M205 X8 Y8
G1 F1500 X103.809 Y108.561 E48.28479
G1 X103.879 Y108.631
M204 S3000
M205 X10 Y10
G0 F3000 X103.017 Y108.561
M204 S1800
M205 X8 Y8
G1 F1500 X102.839 Y108.383 E48.29651
M204 S3000
M205 X10 Y10
G1 F2400 E42.29651
G0 F3000 X101.484 Y109.919
G0 X101.484 Y111.438
G0 X98.816 Y121.279
;TIME_ELAPSED:47.674122
;LAYER:1
M140 S60
G0 F4500 X98.816 Y121.279 Z0.4
M204 S1800
M205 X8 Y8
;TYPE:SUPPORT
G1 F2400 E48.29651
G1 F1650 X102.8 Y121.279 E48.42902
G1 X102.8 Y123.663 E48.50832
G1 X98.818 Y123.66 E48.64076
G1 X98.7 Y123.542 E48.64631
G1 X98.7 Y121.395 E48.71772
G1 X98.816 Y121.279 E48.72317
M204 S3000
M205 X10 Y10
G0 F4500 X98.839 Y121.728
M204 S1800
M205 X8 Y8
G1 F1650 X101.946 Y123.521 E48.84249
M204 S3000
M205 X10 Y10
G1 F2400 E42.84249
G0 F4500 X104.315 Y111.891
G0 X104.314 Y110.613
G0 X108.63 Y85
M204 S1800
M205 X8 Y8
;TYPE:WALL-INNER
G1 F2400 E48.84249
G1 F2250 X108.63 Y109.317 E49.65127
G1 X105.7 Y109.317 E49.74872
G1 X105.7 Y110.226 E49.77896
G1 X104.9 Y110.227 E49.80557
G1 X104.7 Y110.227 E49.81222
G1 X104.7 Y110.027 E49.81653
G1 X104.7 Y109.318 E49.84011
G1 X101.63 Y109.318 E49.94222
G1 X101.63 Y85 E50.75104
G1 X91.711 Y85 E51.08094
G1 X91.711 Y84 E51.1142
G1 X118.289 Y84 E51.99819
G1 X118.29 Y84.8 E52.0248
G1 X118.29 Y85 E52.03145
G1 X118.09 Y85 E52.03576
