;FLAVOR:Marlin
;TIME:37040
;Filament used: 18.7074m
;Layer height: 0.1
;MINX:52.1
;MINY:56.85
;MINZ:0.1
;MAXX:157.9
;MAXY:153.15
;MAXZ:31
;Generated with Cura_SteamEngine 4.8.0
M140 S65
M105
M190 S65
M104 S200
M105
M109 S200
M82 ;absolute extrusion mode
G21 ;metric values
G90 ;absolute positioning
M82 ;set extruder to absolute mode
M107 ;start with the fan off
G28 X0 Y0 ;move X/Y to min endstops
G28 Z0 ;move Z to min endstops
G1 Z15.0 F50 ;move the platform down 15mm
G92 E0 ;zero the extruded length
G1 F200 E3 ;extrude 3mm of feed stock
G92 E0 ;zero the extruded length again
G1 F50
G0 Y20 F50
M117 Printing...
G5
G92 E0
G92 E0
G1 F2400 E-6
;LAYER_COUNT:310
;LAYER:0
M106 S255
M204 S3000
M205 X10 Y10
G1 F600 Z0.175
G0 F1500 X54.033 Y58.685 Z0.175
M204 S1800
M205 X8 Y8
;TYPE:SKIRT
G1 F600 Z0.1
G1 F2400 E0
G1 X54.571 Y58.214 E0.01665
G1 X55.159 Y57.806 E0.03331
G1 X55.788 Y57.466 E0.04996
G1 X56.452 Y57.199 E0.06662
G1 X57.141 Y57.007 E0.08327
G1 X57.847 Y56.893 E0.09992
G1 X58.651 Y56.853 E0.11866
G1 X58.83 Y56.85 E0.12283
G1 X149.793 Y56.85 E2.24064
G1 X150.583 Y56.861 E2.25904
G1 X151.296 Y56.911 E2.27568
G1 X152 Y57.04 E2.29234
G1 X152.684 Y57.248 E2.30899
G1 X153.341 Y57.53 E2.32563
G1 X153.963 Y57.884 E2.34229
G1 X154.541 Y58.305 E2.35894
G1 X155.069 Y58.788 E2.3756
G1 X155.539 Y59.326 E2.39224
G1 X155.947 Y59.914 E2.4089
G1 X156.286 Y60.544 E2.42555
G1 X156.553 Y61.207 E2.44219
G1 X156.744 Y61.897 E2.45886
G1 X156.857 Y62.603 E2.47551
G1 X156.897 Y63.4 E2.49409
G1 X156.9 Y63.58 E2.49828
G1 X156.9 Y93.214 E3.18822
G1 X156.938 Y95.856 E3.24974
G1 X157.05 Y98.496 E3.31126
G1 X157.237 Y101.141 E3.37299
G1 X157.499 Y103.779 E3.43472
G1 X157.831 Y106.372 E3.49558
G1 X157.848 Y106.52 E3.49905
G1 X157.887 Y107.056 E3.51156
G1 X157.9 Y107.58 E3.52376
G1 X157.9 Y146.093 E4.42043
G1 X157.891 Y146.82 E4.43735
G1 X157.842 Y147.534 E4.45402
G1 X157.714 Y148.238 E4.47068
G1 X157.508 Y148.923 E4.48733
G1 X157.227 Y149.58 E4.50397
G1 X156.874 Y150.203 E4.52064
G1 X156.454 Y150.782 E4.53729
G1 X155.972 Y151.31 E4.55394
G1 X155.435 Y151.782 E4.57058
G1 X154.847 Y152.19 E4.58724
G1 X154.218 Y152.531 E4.6039
G1 X153.555 Y152.799 E4.62055
G1 X152.866 Y152.991 E4.6372
G1 X152.16 Y153.106 E4.65386
G1 X151.349 Y153.147 E4.67276
G1 X151.17 Y153.15 E4.67693
G1 X59.124 Y153.149 E6.81995
G1 X58.426 Y153.14 E6.83621
G1 X57.713 Y153.091 E6.85285
G1 X57.009 Y152.963 E6.86951
G1 X56.324 Y152.757 E6.88616
G1 X55.667 Y152.475 E6.90281
G1 X55.045 Y152.122 E6.91946
G1 X54.466 Y151.702 E6.93611
G1 X53.937 Y151.22 E6.95277
G1 X53.466 Y150.682 E6.96942
G1 X53.058 Y150.095 E6.98606
G1 X52.718 Y149.465 E7.00273
G1 X52.45 Y148.802 E7.01938
G1 X52.258 Y148.113 E7.03603
G1 X52.144 Y147.407 E7.05268
G1 X52.102 Y146.581 E7.07194
G1 X52.1 Y146.408 E7.07597
G1 X52.101 Y107.863 E7.97337
G1 X52.122 Y106.394 E8.00758
G1 X52.122 Y103.618 E8.07221
G1 X52.101 Y102.623 E8.09538
G1 X52.101 Y63.837 E8.9984
G1 X52.11 Y63.172 E9.01388
G1 X52.159 Y62.459 E9.03052
G1 X52.288 Y61.755 E9.04719
G1 X52.495 Y61.071 E9.06383
G1 X52.777 Y60.413 E9.08049
G1 X53.13 Y59.791 E9.09714
G1 X53.55 Y59.213 E9.11378
G1 X54.033 Y58.685 E9.13044
M204 S3000
M205 X10 Y10
G0 F1500 X54.58 Y58.938
M204 S1800
M205 X8 Y8
G1 F2400 X55.112 Y58.509 E9.14635
G1 X55.69 Y58.144 E9.16227
G1 X56.307 Y57.85 E9.17818
G1 X56.953 Y57.63 E9.19407
G1 X57.621 Y57.487 E9.20997
G1 X58.345 Y57.421 E9.2269
G1 X58.83 Y57.41 E9.23819
G1 X149.793 Y57.41 E11.356
G1 X150.575 Y57.421 E11.37421
G1 X151.256 Y57.47 E11.39011
G1 X151.927 Y57.599 E11.40602
G1 X152.578 Y57.806 E11.42192
G1 X153.201 Y58.087 E11.43783
G1 X153.787 Y58.439 E11.45375
G1 X154.327 Y58.857 E11.46965
G1 X154.815 Y59.335 E11.48555
G1 X155.244 Y59.867 E11.50146
G1 X155.608 Y60.445 E11.51736
G1 X155.902 Y61.062 E11.53328
G1 X156.121 Y61.709 E11.54918
G1 X156.264 Y62.377 E11.56508
G1 X156.329 Y63.096 E11.58189
G1 X156.34 Y63.58 E11.59316
G1 X156.34 Y93.214 E12.28311
G1 X156.377 Y95.853 E12.34455
G1 X156.492 Y98.56 E12.40764
G1 X156.677 Y101.163 E12.46839
G1 X156.945 Y103.869 E12.5317
G1 X157.275 Y106.436 E12.59196
G1 X157.327 Y107.073 E12.60684
G1 X157.34 Y107.58 E12.61865
G1 X157.34 Y146.086 E13.51515
G1 X157.331 Y146.813 E13.53207
G1 X157.282 Y147.495 E13.54799
G1 X157.154 Y148.166 E13.5639
G1 X156.949 Y148.818 E13.57981
G1 X156.669 Y149.441 E13.59571
G1 X156.319 Y150.027 E13.6116
G1 X155.902 Y150.569 E13.62752
G1 X155.425 Y151.058 E13.64343
G1 X154.894 Y151.487 E13.65932
G1 X154.316 Y151.852 E13.67524
G1 X153.7 Y152.147 E13.69114
G1 X153.053 Y152.368 E13.70706
G1 X152.385 Y152.512 E13.72297
G1 X151.655 Y152.579 E13.74003
G1 X151.17 Y152.59 E13.75133
G1 X59.132 Y152.59 E15.89417
G1 X58.434 Y152.581 E15.91042
G1 X57.752 Y152.532 E15.92634
G1 X57.081 Y152.404 E15.94224
G1 X56.43 Y152.198 E15.95814
G1 X55.806 Y151.918 E15.97406
G1 X55.22 Y151.567 E15.98997
G1 X54.679 Y151.15 E16.00587
G1 X54.19 Y150.672 E16.02179
G1 X53.761 Y150.141 E16.03768
G1 X53.396 Y149.563 E16.0536
G1 X53.102 Y148.947 E16.06949
G1 X52.881 Y148.3 E16.08541
G1 X52.737 Y147.632 E16.10132
G1 X52.671 Y146.899 E16.11845
G1 X52.66 Y146.408 E16.12989
G1 X52.661 Y107.871 E17.02711
G1 X52.682 Y106.394 E17.0615
G1 X52.682 Y103.651 E17.12536
G1 X52.662 Y102.753 E17.14628
G1 X52.66 Y63.924 E18.0503
G1 X52.67 Y63.18 E18.06762
G1 X52.719 Y62.499 E18.08352
G1 X52.847 Y61.827 E18.09944
G1 X53.053 Y61.176 E18.11534
G1 X53.334 Y60.553 E18.13125
G1 X53.685 Y59.967 E18.14716
G1 X54.103 Y59.426 E18.16307
G1 X54.58 Y58.938 E18.17896
M204 S3000
M205 X10 Y10
G0 F1500 X54.654 Y59.651
M204 S1800
M205 X8 Y8
G1 F2400 X55.126 Y59.205 E18.19408
G1 X55.649 Y58.821 E18.20919
G1 X56.216 Y58.503 E18.22432
G1 X56.817 Y58.257 E18.23944
G1 X57.444 Y58.087 E18.25457
G1 X58.361 Y57.981 E18.27606
G1 X58.83 Y57.97 E18.28698
G1 X149.793 Y57.97 E20.40479
G1 X150.567 Y57.981 E20.42281
G1 X151.214 Y58.03 E20.43792
G1 X151.851 Y58.158 E20.45305
G1 X152.467 Y58.364 E20.46817
G1 X153.054 Y58.644 E20.48331
G1 X153.601 Y58.993 E20.49842
G1 X154.102 Y59.407 E20.51355
G1 X154.547 Y59.88 E20.52867
G1 X154.932 Y60.404 E20.54381
G1 X155.249 Y60.971 E20.55893
G1 X155.494 Y61.572 E20.57404
G1 X155.663 Y62.199 E20.58916
G1 X155.769 Y63.112 E20.61056
G1 X155.78 Y63.58 E20.62146
G1 X155.78 Y93.214 E21.3114
G1 X155.818 Y95.885 E21.37359
G1 X155.931 Y98.551 E21.43572
G1 X156.123 Y101.258 E21.4989
G1 X156.384 Y103.897 E21.56064
G1 X156.719 Y106.499 E21.62172
G1 X156.768 Y107.09 E21.63553
G1 X156.78 Y107.58 E21.64694
G1 X156.78 Y146.079 E22.54328
G1 X156.771 Y146.806 E22.56021
G1 X156.723 Y147.454 E22.57533
G1 X156.595 Y148.091 E22.59046
G1 X156.391 Y148.708 E22.60559
G1 X156.112 Y149.295 E22.62072
G1 X155.764 Y149.843 E22.63584
G1 X155.351 Y150.344 E22.65095
G1 X154.879 Y150.791 E22.66609
G1 X154.356 Y151.176 E22.68121
G1 X153.79 Y151.494 E22.69632
G1 X153.188 Y151.741 E22.71147
G1 X152.562 Y151.911 E22.72658
G1 X151.639 Y152.019 E22.74821
G1 X151.17 Y152.03 E22.75913
G1 X59.139 Y152.03 E24.90181
G1 X58.441 Y152.021 E24.91806
G1 X57.793 Y151.972 E24.93319
G1 X57.156 Y151.845 E24.94831
G1 X56.54 Y151.64 E24.96343
G1 X55.953 Y151.361 E24.97856
G1 X55.405 Y151.012 E24.99369
G1 X54.904 Y150.599 E25.0088
G1 X54.457 Y150.127 E25.02394
G1 X54.072 Y149.604 E25.03906
G1 X53.754 Y149.037 E25.05419
G1 X53.508 Y148.436 E25.06931
G1 X53.338 Y147.809 E25.08444
G1 X53.231 Y146.884 E25.10612
G1 X53.22 Y146.408 E25.1172
G1 X53.221 Y107.878 E26.01426
G1 X53.242 Y106.394 E26.04882
G1 X53.242 Y103.639 E26.11296
G1 X53.222 Y102.741 E26.13387
G1 X53.22 Y63.853 E27.03926
G1 X53.229 Y63.188 E27.05475
G1 X53.278 Y62.54 E27.06988
G1 X53.406 Y61.903 E27.08501
G1 X53.611 Y61.286 E27.10014
G1 X53.891 Y60.7 E27.11526
G1 X54.24 Y60.152 E27.13039
G1 X54.654 Y59.651 E27.14552
M204 S3000
M205 X10 Y10
G1 F2400 E21.14552
;MESH:chicken coop motor case.obj
G0 F1500 X57.835 Y64.104
G0 X59.354 Y64.104
G0 X68.445 Y82.25
M204 S1800
M205 X8 Y8
;TYPE:WALL-INNER
G1 F2400 E27.14552
G1 F1500 X68.841 Y84.738 E27.20418
G1 X69.983 Y86.983 E27.26282
G1 X71.767 Y88.767 E27.32156
G1 X74.012 Y89.909 E27.3802
G1 X74.099 Y89.922 E27.38225
G1 X76.5 Y90.303 E27.43885
G1 X78.988 Y89.909 E27.4975
G1 X81.233 Y88.767 E27.55614
G1 X83.017 Y86.983 E27.61488
G1 X84.159 Y84.738 E27.67352
G1 X84.172 Y84.651 E27.67557
G1 X84.553 Y82.25 E27.73217
G1 X84.159 Y79.762 E27.79082
G1 X83.017 Y77.517 E27.84946
G1 X81.233 Y75.733 E27.9082
G1 X78.988 Y74.591 E27.96684
G1 X78.901 Y74.578 E27.96889
G1 X76.5 Y74.195 E28.02549
G1 X74.012 Y74.591 E28.08415
G1 X71.767 Y75.733 E28.14279
G1 X69.983 Y77.517 E28.20153
G1 X68.841 Y79.762 E28.26017
G1 X68.828 Y79.849 E28.26222
G1 X68.445 Y82.25 E28.31883
M204 S3000
M205 X10 Y10
G0 X69.012 Y82.25
M204 S1800
M205 X8 Y8
G1 X69.38 Y84.563 E28.37336
G1 X70.442 Y86.65 E28.42788
G1 X72.1 Y88.308 E28.48247
G1 X74.187 Y89.37 E28.53699
G1 X74.274 Y89.383 E28.53903
G1 X76.5 Y89.736 E28.59151
G1 X78.813 Y89.37 E28.64603
G1 X80.9 Y88.308 E28.70055
G1 X82.558 Y86.65 E28.75514
G1 X83.62 Y84.563 E28.80966
G1 X83.633 Y84.476 E28.81171
G1 X83.986 Y82.25 E28.86418
G1 X83.62 Y79.937 E28.9187
G1 X82.558 Y77.85 E28.97322
G1 X80.9 Y76.192 E29.02781
G1 X78.813 Y75.13 E29.08233
G1 X78.726 Y75.117 E29.08438
G1 X76.5 Y74.762 E29.13686
G1 X74.187 Y75.13 E29.19139
G1 X72.1 Y76.192 E29.24591
G1 X70.442 Y77.85 E29.3005
G1 X69.38 Y79.937 E29.35502
G1 X69.367 Y80.024 E29.35706
G1 X69.012 Y82.25 E29.40955
M204 S3000
M205 X10 Y10
G0 X69.579 Y82.25
M204 S1800
M205 X8 Y8
G1 X69.919 Y84.388 E29.45995
G1 X70.901 Y86.317 E29.51034
G1 X72.433 Y87.849 E29.56079
G1 X74.362 Y88.831 E29.61118
G1 X74.449 Y88.844 E29.61323
G1 X76.5 Y89.169 E29.66158
G1 X78.638 Y88.831 E29.71197
G1 X80.567 Y87.849 E29.76237
G1 X82.099 Y86.317 E29.81281
G1 X83.081 Y84.388 E29.86321
G1 X83.094 Y84.301 E29.86525
G1 X83.419 Y82.25 E29.9136
G1 X83.081 Y80.112 E29.964
G1 X82.099 Y78.183 E30.01439
G1 X80.567 Y76.651 E30.06484
G1 X78.638 Y75.669 E30.11523
G1 X78.551 Y75.656 E30.11728
G1 X76.5 Y75.329 E30.16563
G1 X74.362 Y75.669 E30.21604
G1 X72.433 Y76.651 E30.26643
G1 X70.901 Y78.183 E30.31687
G1 X69.919 Y80.112 E30.36727
G1 X69.906 Y80.199 E30.36932
G1 X69.579 Y82.25 E30.41767
M204 S3000
M205 X10 Y10
G0 X70.146 Y82.25
M204 S1800
M205 X8 Y8
G1 X70.458 Y84.213 E30.46395
G1 X71.36 Y85.984 E30.51022
G1 X72.766 Y87.39 E30.55652
G1 X74.537 Y88.292 E30.60279
G1 X76.5 Y88.602 E30.64906
G1 X78.463 Y88.292 E30.69533
G1 X80.234 Y87.39 E30.7416
G1 X81.64 Y85.984 E30.78789
G1 X82.542 Y84.213 E30.83417
G1 X82.852 Y82.25 E30.88043
G1 X82.542 Y80.287 E30.9267
G1 X81.64 Y78.516 E30.97298
G1 X80.234 Y77.11 E31.01927
G1 X78.463 Y76.208 E31.06554
G1 X76.5 Y75.896 E31.11182
G1 X74.537 Y76.208 E31.1581
G1 X72.766 Y77.11 E31.20437
G1 X71.36 Y78.516 E31.25066
G1 X70.458 Y80.287 E31.29693
G1 X70.146 Y82.25 E31.34321
M204 S3000
M205 X10 Y10
G0 X70.713 Y82.25
M204 S1800
M205 X8 Y8
;TYPE:WALL-OUTER
G1 X70.997 Y84.038 E31.38536
G1 X71.819 Y85.651 E31.42751
G1 X73.099 Y86.931 E31.46966
G1 X74.712 Y87.753 E31.5118
G1 X76.5 Y88.035 E31.55395
G1 X78.288 Y87.753 E31.59609
G1 X79.901 Y86.931 E31.63824
G1 X81.181 Y85.651 E31.68038
G1 X82.003 Y84.038 E31.72253
G1 X82.285 Y82.25 E31.76468
G1 X82.003 Y80.462 E31.80682
G1 X81.181 Y78.849 E31.84897
G1 X79.901 Y77.569 E31.89111
G1 X78.288 Y76.747 E31.93326
G1 X76.5 Y76.463 E31.97541
G1 X74.712 Y76.747 E32.01756
G1 X73.099 Y77.569 E32.05971
G1 X71.819 Y78.849 E32.10186
G1 X70.997 Y80.462 E32.14401
G1 X70.713 Y82.25 E32.18616
M204 S3000
M205 X10 Y10
G0 X70.744 Y82.447
G0 X70.136 Y82.542
G0 X70.093 Y82.548
G0 X70.42 Y84.225
G0 X71.328 Y86.007
G0 X72.743 Y87.422
G0 X74.525 Y88.33
G0 X147.98 Y100.23
M204 S1800
M205 X8 Y8
;TYPE:WALL-INNER
G1 X61.02 Y100.23 E34.21077
G1 X61.02 Y65.77 E35.01307
G1 X147.98 Y65.77 E37.03768
G1 X147.98 Y100.23 E37.83998
M204 S3000
M205 X10 Y10
G0 X148.54 Y100.79
M204 S1800
M205 X8 Y8
G1 X60.46 Y100.79 E39.89067
G1 X60.46 Y65.21 E40.71905
G1 X148.54 Y65.21 E42.76973
G1 X148.54 Y100.79 E43.59811
M204 S3000
M205 X10 Y10
G0 X149.1 Y101.35
M204 S1800
M205 X8 Y8
G1 X59.9 Y101.35 E45.67487
G1 X59.9 Y64.65 E46.52933
G1 X149.1 Y64.65 E48.60609
G1 X149.1 Y101.35 E49.46054
M204 S3000
M205 X10 Y10
G0 X149.66 Y101.91
M204 S1800
M205 X8 Y8
G1 X59.34 Y101.91 E51.56338
G1 X59.34 Y64.09 E52.44391
G1 X149.66 Y64.09 E54.54675
G1 X149.66 Y101.91 E55.42728
M204 S3000
M205 X10 Y10
G0 X150.22 Y102.47
M204 S1800
M205 X8 Y8
;TYPE:WALL-OUTER
G1 X58.78 Y102.47 E57.55619
G1 X58.78 Y63.53 E58.4628
G1 X150.22 Y63.53 E60.59171
G1 X150.22 Y102.47 E61.49832
M204 S3000
M205 X10 Y10
G0 X150.02 Y102.47
G0 X149.604 Y101.854
G0 X149.56 Y101.854
G0 X147.43 Y99.68
M204 S1800
M205 X8 Y8
;TYPE:SKIN
G1 X61.57 Y99.68 E63.49732
G1 X61.57 Y66.32 E64.27401
G1 X147.43 Y66.32 E66.27301
G1 X147.43 Y99.68 E67.0497
M204 S3000
M205 X10 Y10
G0 X84.689 Y84.91
M204 S1800
M205 X8 Y8
G1 X85.109 Y82.25 E67.1124
G1 X84.689 Y79.59 E67.17509
G1 X83.467 Y77.189 E67.23782
G1 X81.561 Y75.283 E67.30057
G1 X79.161 Y74.061 E67.36328
G1 X76.5 Y73.638 E67.42601
G1 X73.839 Y74.061 E67.48874
G1 X71.439 Y75.283 E67.55144
G1 X69.533 Y77.189 E67.6142
G1 X68.311 Y79.589 E67.6769
G1 X67.888 Y82.25 E67.73963
G1 X68.311 Y84.911 E67.80237
G1 X69.533 Y87.311 E67.86507
G1 X71.439 Y89.217 E67.92783
G1 X73.84 Y90.439 E67.99055
G1 X76.5 Y90.859 E68.05325
G1 X79.16 Y90.439 E68.11594
G1 X81.561 Y89.217 E68.17867
G1 X83.467 Y87.311 E68.24143
G1 X84.689 Y84.91 E68.30415
M204 S3000
M205 X10 Y10
G0 X62.197 Y99.419
M204 S1800
M205 X8 Y8
G1 X61.829 Y99.051 E68.31627
M204 S3000
M205 X10 Y10
G0 X61.829 Y98.259
M204 S1800
M205 X8 Y8
G1 X62.989 Y99.419 E68.35446
M204 S3000
M205 X10 Y10
G0 X63.781 Y99.419
M204 S1800
M205 X8 Y8
G1 X61.829 Y97.467 E68.41873
M204 S3000
M205 X10 Y10
G0 X61.829 Y96.675
M204 S1800
M205 X8 Y8
G1 X64.572 Y99.419 E68.50906
M204 S3000
M205 X10 Y10
G0 X65.364 Y99.419
M204 S1800
M205 X8 Y8
G1 X61.829 Y95.883 E68.62547
M204 S3000
M205 X10 Y10
G0 X61.829 Y95.091
M204 S1800
M205 X8 Y8
G1 X66.156 Y99.419 E68.76796
M204 S3000
M205 X10 Y10
G0 X66.948 Y99.419
M204 S1800
M205 X8 Y8
G1 X61.829 Y94.299 E68.93652
M204 S3000
M205 X10 Y10
G0 X61.829 Y93.507
M204 S1800
M205 X8 Y8
G1 X67.74 Y99.419 E69.13116
M204 S3000
M205 X10 Y10
G0 X68.532 Y99.419
M204 S1800
M205 X8 Y8
G1 X61.829 Y92.715 E69.35188
M204 S3000
M205 X10 Y10
G0 X61.829 Y91.923
M204 S1800
M205 X8 Y8
G1 X69.324 Y99.419 E69.59868
M204 S3000
M205 X10 Y10
G0 X70.116 Y99.419
M204 S1800
M205 X8 Y8
G1 X61.829 Y91.131 E69.87155
M204 S3000
M205 X10 Y10
G0 X61.829 Y90.339
M204 S1800
M205 X8 Y8
G1 X70.908 Y99.419 E70.1705
M204 S3000
M205 X10 Y10
G0 X71.7 Y99.419
M204 S1800
M205 X8 Y8
G1 X61.829 Y89.548 E70.49551
M204 S3000
M205 X10 Y10
G0 X61.829 Y88.756
M204 S1800
M205 X8 Y8
G1 X72.492 Y99.419 E70.8466
M204 S3000
M205 X10 Y10
G0 X73.284 Y99.419
M204 S1800
M205 X8 Y8
G1 X61.829 Y87.964 E71.22377
M204 S3000
M205 X10 Y10
G0 X61.829 Y87.172
M204 S1800
M205 X8 Y8
G1 X74.076 Y99.419 E71.62701
M204 S3000
M205 X10 Y10
G0 X74.868 Y99.419
M204 S1800
M205 X8 Y8
G1 X61.829 Y86.38 E72.05633
M204 S3000
M205 X10 Y10
G0 X61.829 Y85.588
M204 S1800
M205 X8 Y8
G1 X75.66 Y99.419 E72.51173
M204 S3000
M205 X10 Y10
G0 X76.452 Y99.419
M204 S1800
M205 X8 Y8
G1 X61.829 Y84.796 E72.9932
M204 S3000
M205 X10 Y10
G0 X61.829 Y84.004
M204 S1800
M205 X8 Y8
G1 X77.244 Y99.419 E73.50075
M204 S3000
M205 X10 Y10
G0 X78.036 Y99.419
M204 S1800
M205 X8 Y8
G1 X61.829 Y83.212 E74.03438
M204 S3000
M205 X10 Y10
G0 X61.829 Y82.42
M204 S1800
M205 X8 Y8
G1 X78.828 Y99.419 E74.59409
M204 S3000
M205 X10 Y10
G0 X79.62 Y99.419
M204 S1800
M205 X8 Y8
G1 X61.829 Y81.628 E75.17987
M204 S3000
M205 X10 Y10
G0 X61.829 Y80.836
M204 S1800
M205 X8 Y8
G1 X80.412 Y99.419 E75.79174
M204 S3000
M205 X10 Y10
G0 X81.204 Y99.419
M204 S1800
M205 X8 Y8
G1 X61.829 Y80.044 E76.42967
M204 S3000
M205 X10 Y10
G0 X61.829 Y79.252
M204 S1800
M205 X8 Y8
G1 X68.571 Y85.994 E76.65166
G1 X68.641 Y86.064
M204 S3000
M205 X10 Y10
G0 X68.004 Y84.635
M204 S1800
M205 X8 Y8
G1 X61.829 Y78.46 E76.85498
M204 S3000
M205 X10 Y10
G0 X61.829 Y77.668
M204 S1800
M205 X8 Y8
G1 X67.853 Y83.693 E77.05334
M204 S3000
M205 X10 Y10
G0 X67.704 Y82.751
M204 S1800
M205 X8 Y8
G1 X61.829 Y76.876 E77.24678
M204 S3000
M205 X10 Y10
