;FLAVOR:Marlin
;TIME:11416
;Filament used: 4.16191m
;Layer height: 0.1
;MINX:37.35
;MINY:78.85
;MINZ:0.1
;MAXX:172.75
;MAXY:131.149
;MAXZ:3
;Generated with Cura_SteamEngine 5.3.0
M140 S65
M105
M190 S65
M104 S200
M105
M109 S200
M82 ;absolute extrusion mode
G21 ;metric values
G90 ;absolute positioning
M82 ;set extruder to absolute mode
M107 ;start with the fan off
G28 X0 Y0 ;move X/Y to min endstops
G28 Z0 ;move Z to min endstops
G1 Z15.0 F50 ;move the platform down 15mm
G92 E0 ;zero the extruded length
G1 F200 E3 ;extrude 3mm of feed stock
G92 E0 ;zero the extruded length again
G1 F50
G0 Y20 F50
M117 Printing...
G5
G92 E0
G92 E0
G1 F2400 E-6
;LAYER_COUNT:30
;LAYER:0
M107
M204 S3000
M205 X10 Y10
G1 F600 Z0.175
G0 F1500 X41.471 Y91.2 Z0.175
M204 S1800
M205 X8 Y8
;TYPE:SKIRT
G1 F600 Z0.1
G1 F2400 E0
G1 X42.276 Y90.891 E0.02008
G1 X43.017 Y90.674 E0.03805
G1 X45.608 Y89.878 E0.10116
G1 X48.163 Y89.013 E0.16396
G1 X50.671 Y88.085 E0.22622
G1 X53.19 Y87.07 E0.28945
G1 X55.587 Y86.026 E0.35032
G1 X58.057 Y84.864 E0.41387
G1 X60.431 Y83.665 E0.4758
G1 X62.764 Y82.402 E0.53756
G1 X65.158 Y81.018 E0.60194
G1 X65.652 Y80.724 E0.61533
G1 X66.23 Y80.427 E0.63046
G1 X66.84 Y80.203 E0.64559
G1 X67.472 Y80.055 E0.6607
G1 X68.175 Y79.984 E0.67715
G1 X68.68 Y79.97 E0.68891
G1 X165.719 Y79.971 E2.94818
G1 X166.417 Y79.981 E2.96443
G1 X167.064 Y80.03 E2.97954
G1 X167.701 Y80.158 E2.99467
G1 X168.317 Y80.364 E3.00979
G1 X168.904 Y80.644 E3.02493
G1 X169.451 Y80.993 E3.04004
G1 X169.952 Y81.407 E3.05517
G1 X170.397 Y81.88 E3.07029
G1 X170.782 Y82.404 E3.08543
G1 X171.099 Y82.971 E3.10055
G1 X171.344 Y83.572 E3.11566
G1 X171.513 Y84.199 E3.13078
G1 X171.63 Y85.207 E3.15441
G1 X171.63 Y124.079 E4.05943
G1 X171.621 Y124.806 E4.07636
G1 X171.573 Y125.454 E4.09149
G1 X171.445 Y126.091 E4.10661
G1 X171.241 Y126.708 E4.12174
G1 X170.962 Y127.295 E4.13687
G1 X170.614 Y127.843 E4.15199
G1 X170.201 Y128.344 E4.1671
G1 X169.729 Y128.791 E4.18224
G1 X169.206 Y129.176 E4.19736
G1 X168.64 Y129.494 E4.21247
G1 X168.038 Y129.741 E4.22762
G1 X167.412 Y129.911 E4.24273
G1 X166.395 Y130.03 E4.26657
G1 X68.975 Y130.029 E6.53471
G1 X68.27 Y130.018 E6.55112
G1 X67.622 Y129.968 E6.56626
G1 X66.985 Y129.839 E6.58139
G1 X66.369 Y129.633 E6.59651
G1 X65.658 Y129.28 E6.61499
G1 X63.56 Y128.036 E6.67178
G1 X61.245 Y126.744 E6.7335
G1 X58.817 Y125.478 E6.79725
G1 X56.443 Y124.323 E6.85872
G1 X53.99 Y123.216 E6.92138
G1 X51.535 Y122.189 E6.98333
G1 X49 Y121.214 E7.04657
G1 X46.481 Y120.324 E7.10877
G1 X43.956 Y119.514 E7.17051
G1 X43.21 Y119.296 E7.1886
G1 X42.214 Y118.991 E7.21285
G1 X41.606 Y118.763 E7.22797
G1 X41.03 Y118.462 E7.2431
G1 X40.496 Y118.092 E7.25823
G1 X40.011 Y117.66 E7.27335
G1 X39.583 Y117.171 E7.28848
G1 X39.218 Y116.634 E7.3036
G1 X38.922 Y116.056 E7.31872
G1 X38.699 Y115.446 E7.33384
G1 X38.552 Y114.813 E7.34897
G1 X38.47 Y113.973 E7.36862
G1 X38.471 Y96.571 E7.77377
G1 X38.481 Y95.881 E7.78984
G1 X38.53 Y95.234 E7.80495
G1 X38.658 Y94.597 E7.82007
G1 X38.864 Y93.981 E7.8352
G1 X39.144 Y93.395 E7.85032
G1 X39.494 Y92.847 E7.86546
G1 X39.908 Y92.347 E7.88057
G1 X40.381 Y91.901 E7.89571
G1 X40.904 Y91.517 E7.91081
G1 X41.471 Y91.2 E7.92594
M204 S3000
M205 X10 Y10
G0 F1500 X41.27 Y90.677
M204 S1800
M205 X8 Y8
G1 F2400 X42.075 Y90.368 E7.94601
G1 X42.86 Y90.137 E7.96506
G1 X45.431 Y89.347 E8.02768
G1 X47.983 Y88.483 E8.09041
G1 X50.477 Y87.56 E8.15233
G1 X52.966 Y86.557 E8.2148
G1 X55.349 Y85.519 E8.27532
G1 X57.819 Y84.357 E8.33887
G1 X60.179 Y83.165 E8.40043
G1 X62.484 Y81.917 E8.46145
G1 X64.878 Y80.533 E8.52584
G1 X65.396 Y80.226 E8.53985
G1 X66.037 Y79.901 E8.55659
G1 X66.647 Y79.677 E8.57172
G1 X67.344 Y79.51 E8.5884
G1 X68.159 Y79.424 E8.60748
G1 X68.68 Y79.41 E8.61962
G1 X165.727 Y79.411 E10.87908
G1 X166.425 Y79.421 E10.89533
G1 X167.174 Y79.481 E10.91282
G1 X167.879 Y79.627 E10.92958
G1 X168.495 Y79.833 E10.94471
G1 X169.205 Y80.172 E10.96302
G1 X169.808 Y80.561 E10.97973
G1 X170.309 Y80.975 E10.99486
G1 X170.805 Y81.496 E11.01161
G1 X171.271 Y82.131 E11.02995
G1 X171.618 Y82.76 E11.04667
G1 X171.885 Y83.426 E11.06338
G1 X172.064 Y84.09 E11.07939
G1 X172.19 Y85.207 E11.10556
G1 X172.19 Y124.086 E12.01075
G1 X172.181 Y124.813 E12.02767
G1 X172.122 Y125.564 E12.04521
G1 X171.977 Y126.267 E12.06192
G1 X171.773 Y126.884 E12.07705
G1 X171.468 Y127.535 E12.09379
G1 X171.087 Y128.143 E12.1105
G1 X170.586 Y128.751 E12.12884
G1 X170.114 Y129.198 E12.14397
G1 X169.538 Y129.627 E12.1607
G1 X168.853 Y130.012 E12.17899
G1 X168.251 Y130.259 E12.19414
G1 X167.519 Y130.462 E12.21183
G1 X166.46 Y130.586 E12.23665
G1 X68.966 Y130.589 E14.50651
G1 X68.261 Y130.578 E14.52293
G1 X67.511 Y130.517 E14.54045
G1 X66.874 Y130.388 E14.55558
G1 X66.12 Y130.135 E14.5741
G1 X65.372 Y129.762 E14.59356
G1 X63.274 Y128.518 E14.65034
G1 X60.986 Y127.241 E14.71135
G1 X58.558 Y125.975 E14.7751
G1 X56.198 Y124.826 E14.83621
G1 X53.774 Y123.733 E14.89812
G1 X51.326 Y122.709 E14.9599
G1 X48.799 Y121.737 E15.02294
G1 X46.294 Y120.852 E15.08479
G1 X43.799 Y120.052 E15.14579
G1 X43.046 Y119.831 E15.16406
G1 X42.017 Y119.515 E15.18913
G1 X41.409 Y119.287 E15.20424
G1 X40.711 Y118.922 E15.22258
G1 X40.177 Y118.552 E15.23771
G1 X39.59 Y118.029 E15.25601
G1 X39.12 Y117.486 E15.27273
G1 X38.755 Y116.949 E15.28785
G1 X38.396 Y116.248 E15.30619
G1 X38.173 Y115.638 E15.32131
G1 X38.007 Y114.94 E15.33801
G1 X37.91 Y113.973 E15.36064
G1 X37.911 Y96.563 E15.76598
G1 X37.921 Y95.873 E15.78205
G1 X37.981 Y95.124 E15.79954
G1 X38.127 Y94.419 E15.8163
G1 X38.333 Y93.803 E15.83142
G1 X38.672 Y93.094 E15.84972
G1 X39.022 Y92.546 E15.86486
G1 X39.477 Y91.99 E15.88159
G1 X39.997 Y91.494 E15.89832
G1 X40.631 Y91.028 E15.91664
G1 X41.27 Y90.677 E15.93361
M204 S3000
M205 X10 Y10
G0 F1500 X41.069 Y90.154
M204 S1800
M205 X8 Y8
G1 F2400 X41.874 Y89.845 E15.95369
G1 X42.702 Y89.6 E15.97379
G1 X45.254 Y88.816 E16.03595
G1 X47.803 Y87.953 E16.0986
G1 X50.283 Y87.035 E16.16017
G1 X52.742 Y86.044 E16.2219
G1 X55.111 Y85.012 E16.28206
G1 X57.581 Y83.85 E16.34561
G1 X59.927 Y82.665 E16.4068
G1 X62.204 Y81.432 E16.46709
G1 X64.592 Y80.051 E16.53131
G1 X65.11 Y79.744 E16.54533
G1 X65.844 Y79.375 E16.56446
G1 X66.517 Y79.132 E16.58112
G1 X67.214 Y78.965 E16.59781
G1 X68.144 Y78.864 E16.61959
G1 X68.68 Y78.85 E16.63207
G1 X165.735 Y78.851 E18.89171
G1 X166.433 Y78.861 E18.90797
G1 X167.288 Y78.933 E18.92794
G1 X168.057 Y79.096 E18.94624
G1 X168.673 Y79.302 E18.96137
G1 X169.509 Y79.701 E18.98293
G1 X170.112 Y80.09 E18.99964
G1 X170.666 Y80.543 E19.0163
G1 X171.211 Y81.11 E19.03461
G1 X171.761 Y81.86 E19.05627
G1 X172.138 Y82.552 E19.07461
G1 X172.426 Y83.28 E19.09284
G1 X172.615 Y83.981 E19.10974
G1 X172.75 Y85.207 E19.13846
G1 X172.75 Y124.093 E20.04381
G1 X172.741 Y124.82 E20.06073
G1 X172.68 Y125.608 E20.07914
G1 X172.509 Y126.443 E20.09898
G1 X172.305 Y127.06 E20.11411
G1 X171.975 Y127.773 E20.1324
G1 X171.562 Y128.44 E20.15067
G1 X170.971 Y129.158 E20.17232
G1 X170.449 Y129.647 E20.18897
G1 X169.873 Y130.076 E20.20569
G1 X169.066 Y130.53 E20.22725
G1 X168.401 Y130.799 E20.24395
G1 X167.63 Y131.013 E20.26258
G1 X166.46 Y131.146 E20.29
G1 X68.957 Y131.149 E22.56007
G1 X68.252 Y131.138 E22.57649
G1 X67.4 Y131.066 E22.59639
G1 X66.696 Y130.919 E22.61314
G1 X65.942 Y130.666 E22.63165
G1 X65.086 Y130.244 E22.65387
G1 X62.988 Y129 E22.71066
G1 X60.727 Y127.738 E22.77095
G1 X58.299 Y126.471 E22.83471
G1 X55.968 Y125.337 E22.89506
G1 X53.544 Y124.244 E22.95697
G1 X51.117 Y123.229 E23.01822
G1 X48.598 Y122.26 E23.08105
G1 X46.107 Y121.38 E23.14256
G1 X43.635 Y120.587 E23.203
G1 X42.882 Y120.366 E23.22127
G1 X41.82 Y120.039 E23.24715
G1 X41.212 Y119.811 E23.26226
G1 X40.392 Y119.382 E23.28381
G1 X39.804 Y118.97 E23.30053
G1 X39.217 Y118.447 E23.31883
G1 X38.657 Y117.801 E23.33874
G1 X38.292 Y117.264 E23.35385
G1 X37.87 Y116.44 E23.37541
G1 X37.628 Y115.768 E23.39204
G1 X37.462 Y115.07 E23.40874
G1 X37.35 Y113.973 E23.43441
G1 X37.351 Y96.555 E23.83994
G1 X37.361 Y95.865 E23.85601
G1 X37.433 Y95.01 E23.87598
G1 X37.596 Y94.241 E23.89428
G1 X37.802 Y93.625 E23.90941
G1 X38.167 Y92.852 E23.92931
G1 X38.589 Y92.191 E23.94757
G1 X39.09 Y91.585 E23.96587
G1 X39.61 Y91.089 E23.98261
G1 X40.361 Y90.537 E24.00431
G1 X41.069 Y90.154 E24.02305
M204 S3000
M205 X10 Y10
G1 F2400 E18.02305
;MESH:coop motor lid mk2.obj
G0 F1500 X44.164 Y95.285
G0 X44.164 Y96.364
G0 X60.199 Y97.544
M204 S1800
M205 X8 Y8
;TYPE:WALL-INNER
G1 F2400 E24.02305
G1 F925.1 X60.695 Y97.505 E24.04183
M204 S3000
M205 X10 Y10
G0 F1500 X58.417 Y99.211
G0 X57.011 Y100.617
G0 X56.109 Y102.388
G0 X55.798 Y104.35
G0 X56.109 Y106.312
G0 X56.963 Y108.118
G0 X57.01 Y108.086
M204 S1800
M205 X8 Y8
G1 X56.108 Y106.312 E24.08816
G1 X55.798 Y104.366 E24.13404
G1 X56.108 Y102.39 E24.18061
G1 X56.947 Y100.736 E24.22379
G1 X57.102 Y100.522 E24.22994
G1 X58.322 Y99.302 E24.27011
G1 X58.536 Y99.148 E24.27625
G1 X60.069 Y98.368 E24.31629
G1 X60.317 Y98.288 E24.32236
G1 X61.41 Y98.114 E24.34813
G1 X61.41 Y96.79 E24.37895
G1 X44.591 Y96.791 E24.77054
G1 X44.591 Y113.109 E25.15045
G1 X61.41 Y113.11 E25.54204
G1 X61.41 Y110.587 E25.60078
G1 X60.296 Y110.408 E25.62704
G1 X60.069 Y110.332 E25.63262
G1 X58.536 Y109.552 E25.67266
G1 X58.323 Y109.397 E25.6788
G1 X57.01 Y108.086 E25.722
M204 S3000
M205 X10 Y10
G0 X56.549 Y108.418
M204 S1800
M205 X8 Y8
G1 X55.569 Y106.489 E25.77237
G1 X55.248 Y104.471 E25.81994
G1 X55.248 Y104.229 E25.82558
G1 X55.57 Y102.21 E25.87318
G1 X56.448 Y100.482 E25.91831
G1 X56.706 Y100.126 E25.92854
G1 X57.926 Y98.906 E25.96871
G1 X58.282 Y98.648 E25.97895
G1 X59.815 Y97.869 E26.01898
G1 F1115.5 X60.199 Y97.544 E26.03473
G1 X59.691 Y97.351 E26.05175
G1 F1500 X45.151 Y97.351 E26.39027
G1 X45.151 Y112.549 E26.74411
G1 X60.85 Y112.55 E27.10961
G1 X60.85 Y111.064 E27.14421
G1 X60.193 Y110.958 E27.15971
G1 X59.815 Y110.831 E27.16899
G1 X58.282 Y110.052 E27.20902
G1 X57.927 Y109.793 E27.21926
G1 X56.549 Y108.418 E27.26458
M204 S3000
M205 X10 Y10
G0 X60.266 Y110.463
G0 X60.363 Y109.852
M204 S1800
M205 X8 Y8
;TYPE:WALL-OUTER
G1 X58.751 Y109.033 E27.30667
G1 X57.469 Y107.747 E27.34895
G1 X56.652 Y106.139 E27.39094
G1 X56.364 Y104.344 E27.43327
G1 X56.65 Y102.565 E27.47522
G1 X57.469 Y100.947 E27.51744
G1 X58.747 Y99.669 E27.55952
G1 X60.363 Y98.848 E27.60172
G1 X61.97 Y98.592 E27.63961
G1 X61.97 Y96.23 E27.6946
G1 X44.031 Y96.231 E28.11226
G1 X44.031 Y113.669 E28.51825
G1 X61.97 Y113.67 E28.93591
G1 X61.97 Y110.109 E29.01882
G1 X60.363 Y109.852 E29.05671
M204 S3000
M205 X10 Y10
G0 X60.185 Y109.762
G0 X59.904 Y110.314
G0 X56.108 Y108.741
M204 S1800
M205 X8 Y8
;TYPE:SKIN
G1 F1200 X57.577 Y110.202 E29.10494
G1 X58.037 Y110.533 E29.11814
G1 X59.57 Y111.314 E29.15819
G1 X60.053 Y111.48 E29.17008
G1 X60.31 Y111.525 E29.17616
G1 X60.31 Y112.01 E29.18745
G1 X45.691 Y112.009 E29.52781
G1 X45.692 Y97.892 E29.85649
G1 X58.576 Y97.892 E30.15645
G1 X58.038 Y98.164 E30.17049
G1 X57.543 Y98.525 E30.18475
G1 X56.325 Y99.743 E30.22485
G1 X55.985 Y100.202 E30.23815
G1 X55.05 Y102.045 E30.28627
G1 X54.707 Y104.217 E30.33746
G1 X54.73 Y104.658 E30.34775
G1 X55.055 Y106.658 E30.39492
G1 X56.108 Y108.741 E30.44926
M204 S3000
M205 X10 Y10
G0 F1500 X46.787 Y111.727
M204 S1800
M205 X8 Y8
G1 F1200 X45.971 Y110.911 E30.47613
M204 S3000
M205 X10 Y10
G0 F1500 X45.971 Y110.119
M204 S1800
M205 X8 Y8
G1 F1200 X47.579 Y111.727 E30.52907
M204 S3000
M205 X10 Y10
G0 F1500 X48.371 Y111.727
M204 S1800
M205 X8 Y8
G1 F1200 X45.971 Y109.327 E30.6081
M204 S3000
M205 X10 Y10
G0 F1500 X45.971 Y108.535
M204 S1800
M205 X8 Y8
G1 F1200 X49.163 Y111.727 E30.7132
M204 S3000
M205 X10 Y10
G0 F1500 X49.954 Y111.727
M204 S1800
M205 X8 Y8
G1 F1200 X45.971 Y107.743 E30.84436
M204 S3000
M205 X10 Y10
G0 F1500 X45.971 Y106.952
M204 S1800
M205 X8 Y8
G1 F1200 X50.746 Y111.727 E31.00158
M204 S3000
M205 X10 Y10
G0 F1500 X51.538 Y111.727
M204 S1800
M205 X8 Y8
G1 F1200 X45.971 Y106.16 E31.18487
M204 S3000
M205 X10 Y10
G0 F1500 X45.971 Y105.368
M204 S1800
M205 X8 Y8
G1 F1200 X52.33 Y111.727 E31.39425
M204 S3000
M205 X10 Y10
G0 F1500 X53.122 Y111.727
M204 S1800
M205 X8 Y8
G1 F1200 X45.971 Y104.576 E31.6297
M204 S3000
M205 X10 Y10
G0 F1500 X45.971 Y103.784
M204 S1800
M205 X8 Y8
G1 F1200 X53.914 Y111.727 E31.89123
M204 S3000
M205 X10 Y10
G0 F1500 X54.706 Y111.727
M204 S1800
M205 X8 Y8
G1 F1200 X45.971 Y102.992 E32.17884
M204 S3000
M205 X10 Y10
G0 F1500 X45.971 Y102.2
M204 S1800
M205 X8 Y8
G1 F1200 X55.498 Y111.727 E32.49252
M204 S3000
M205 X10 Y10
G0 F1500 X56.29 Y111.727
M204 S1800
M205 X8 Y8
G1 F1200 X45.971 Y101.409 E32.83227
M204 S3000
M205 X10 Y10
G0 F1500 X45.971 Y100.617
M204 S1800
M205 X8 Y8
G1 F1200 X57.082 Y111.727 E33.19809
M204 S3000
M205 X10 Y10
G0 F1500 X57.874 Y111.727
M204 S1800
M205 X8 Y8
G1 F1200 X45.971 Y99.825 E33.58999
M204 S3000
M205 X10 Y10
G0 F1500 X45.971 Y99.033
M204 S1800
M205 X8 Y8
G1 F1200 X58.666 Y111.727 E34.00797
M204 S3000
M205 X10 Y10
G0 F1500 X59.137 Y111.406
M204 S1800
M205 X8 Y8
G1 F1200 X59.458 Y111.727 E34.01854
M204 S3000
M205 X10 Y10
G0 F1500 X55.096 Y107.365
M204 S1800
M205 X8 Y8
G1 F1200 X45.971 Y98.241 E34.31897
M204 S3000
M205 X10 Y10
G0 F1500 X46.693 Y98.171
M204 S1800
M205 X8 Y8
G1 F1200 X54.69 Y106.167 E34.58226
M204 S3000
M205 X10 Y10
G0 F1500 X54.539 Y105.225
M204 S1800
M205 X8 Y8
G1 F1200 X47.485 Y98.171 E34.81452
M204 S3000
M205 X10 Y10
G0 F1500 X48.277 Y98.171
M204 S1800
M205 X8 Y8
G1 F1200 X54.432 Y104.325 E35.01716
M204 S3000
M205 X10 Y10
G0 F1500 X54.515 Y103.616
M204 S1800
M205 X8 Y8
G1 F1200 X49.069 Y98.171 E35.19646
M204 S3000
M205 X10 Y10
G0 F1500 X49.861 Y98.171
M204 S1800
M205 X8 Y8
G1 F1200 X54.623 Y102.933 E35.35325
M204 S3000
M205 X10 Y10
G0 F1500 X54.732 Y102.25
M204 S1800
M205 X8 Y8
G1 F1200 X50.653 Y98.171 E35.48756
M204 S3000
M205 X10 Y10
G0 F1500 X51.445 Y98.171
M204 S1800
M205 X8 Y8
G1 F1200 X54.931 Y101.657 E35.60234
M204 S3000
M205 X10 Y10
G0 F1500 X55.197 Y101.131
M204 S1800
M205 X8 Y8
G1 F1200 X52.237 Y98.171 E35.6998
M204 S3000
M205 X10 Y10
G0 F1500 X53.029 Y98.171
M204 S1800
M205 X8 Y8
G1 F1200 X55.464 Y100.605 E35.77996
M204 S3000
M205 X10 Y10
G0 F1500 X55.729 Y100.079
M204 S1800
M205 X8 Y8
G1 F1200 X53.821 Y98.171 E35.84278
M204 S3000
M205 X10 Y10
G0 F1500 X54.613 Y98.171
M204 S1800
M205 X8 Y8
G1 F1200 X56.063 Y99.621 E35.89052
M204 S3000
M205 X10 Y10
G0 F1500 X56.452 Y99.218
M204 S1800
M205 X8 Y8
G1 F1200 X55.405 Y98.171 E35.925
M204 S3000
M205 X10 Y10
G0 F1500 X56.197 Y98.171
M204 S1800
M205 X8 Y8
G1 F1200 X56.848 Y98.822 E35.94643
M204 S3000
M205 X10 Y10
G0 F1500 X57.244 Y98.426
M204 S1800
M205 X8 Y8
G1 F1200 X56.989 Y98.171 E35.95483
M204 S3000
M205 X10 Y10
G1 F2400 E29.95483
G0 F1500 X61.835 Y98.479
G0 X62.149 Y99.521
G0 X68.764 Y109.087
G0 X68.764 Y110.166
G0 X87.267 Y111.09
M204 S1800
M205 X8 Y8
;TYPE:WALL-INNER
G1 F2400 E35.95483
G1 F1500 X86.852 Y111.152 E35.9646
G1 X69.75 Y111.152 E36.36277
G1 X69.75 Y123.35 E36.64676
G1 X164.95 Y123.35 E38.86322
G1 X164.95 Y86.65 E39.71767
G1 X69.75 Y86.651 E41.93412
G1 X69.75 Y97.347 E42.18315
G1 X86.953 Y97.347 E42.58367
G1 X87.279 Y97.413 E42.59142
G1 X87.333 Y97.485 E42.59351
G1 X88.367 Y97.651 E42.61789
G1 X88.6 Y97.726 E42.62359
G1 X90.306 Y98.593 E42.66815
G1 X90.503 Y98.736 E42.67381
G1 X91.873 Y100.113 E42.71904
G1 X92.052 Y100.382 E42.72656
G1 X92.93 Y102.11 E42.77169
G1 X93.246 Y104.102 E42.81865
G1 X93.254 Y104.347 E42.82435
G1 X92.953 Y106.236 E42.86889
G1 X92.865 Y106.513 E42.87565
G1 X92.052 Y108.118 E42.91754
G1 X91.872 Y108.388 E42.9251
G1 X90.496 Y109.766 E42.97044
G1 X90.318 Y109.896 E42.97557
G1 X88.593 Y110.778 E43.02067
G1 X88.292 Y110.862 E43.02795
G1 X87.322 Y111.015 E43.05081
G1 X87.267 Y111.09 E43.05298
M204 S3000
M205 X10 Y10
G0 X87.101 Y110.555
M204 S1800
M205 X8 Y8
G1 X86.937 Y110.588 E43.05687
G1 X69.19 Y110.592 E43.47006
G1 X69.19 Y123.91 E43.78013
G1 X165.51 Y123.91 E46.02266
G1 X165.51 Y86.09 E46.90319
G1 X69.19 Y86.091 E49.14572
G1 X69.19 Y97.907 E49.42082
G1 X86.94 Y97.911 E49.83408
G1 X87.108 Y97.946 E49.83808
G1 X87.168 Y98.026 E49.84041
G1 X88.326 Y98.215 E49.86772
G1 X90.082 Y99.113 E49.91364
G1 X91.495 Y100.524 E49.96013
G1 X92.392 Y102.293 E50.00631
