;FLAVOR:Marlin
;TIME:8557
;Filament used: 7.33781m
;Layer height: 0.2
;MINX:56.48
;MINY:57.891
;MINZ:0.2
;MAXX:153.52
;MAXY:152.129
;MAXZ:35
;Generated with Cura_SteamEngine 4.10.0
M140 S65
M105
M190 S65
M104 S200
M105
M109 S200
M82 ;absolute extrusion mode
G21 ;metric values
G90 ;absolute positioning
M82 ;set extruder to absolute mode
M107 ;start with the fan off
G28 X0 Y0 ;move X/Y to min endstops
G28 Z0 ;move Z to min endstops
G1 Z15.0 F100 ;move the platform down 15mm
G92 E0 ;zero the extruded length
G1 F200 E3 ;extrude 3mm of feed stock
G92 E0 ;zero the extruded length again
G1 F100
G0 Y20 F100
M117 Printing...
G5
G92 E0
G92 E0
G1 F2400 E-6
;LAYER_COUNT:175
;LAYER:0
M107
M204 S3000
M205 X10 Y10
G1 F600 Z0.275
G0 F3000 X68.52 Y64.411 Z0.275
M204 S1800
M205 X8 Y8
;TYPE:SKIRT
G1 F600 Z0.2
G1 F2400 E0
G1 X68.871 Y64.037 E0.02388
G1 X69.189 Y63.717 E0.04489
G1 X69.916 Y63.03 E0.09147
G1 X70.407 Y62.593 E0.12207
G1 X71.022 Y62.095 E0.15892
G1 X71.42 Y61.797 E0.18207
G1 X71.848 Y61.49 E0.2066
G1 X72.234 Y61.231 E0.22824
G1 X73.05 Y60.719 E0.2731
G1 X73.89 Y60.244 E0.31804
G1 X74.823 Y59.779 E0.36658
G1 X75.691 Y59.395 E0.41077
G1 X76.593 Y59.051 E0.45572
G1 X77.254 Y58.819 E0.48834
G1 X77.998 Y58.599 E0.52447
G1 X78.458 Y58.481 E0.54658
G1 X78.952 Y58.364 E0.57022
G1 X79.434 Y58.267 E0.59312
G1 X80.418 Y58.101 E0.63958
G1 X81.368 Y57.984 E0.68415
G1 X82.384 Y57.913 E0.73158
G1 X83.33 Y57.891 E0.77564
G1 X84.332 Y57.919 E0.82231
G1 X85.3 Y57.991 E0.86751
G1 X86.478 Y58.143 E0.92282
G1 X86.681 Y58.174 E0.93238
G1 X87.232 Y58.279 E0.9585
G1 X88.258 Y58.515 E1.00752
G1 X88.867 Y58.673 E1.03682
G1 X89.65 Y58.918 E1.07502
G1 X89.827 Y58.979 E1.08374
G1 X90.52 Y59.227 E1.11801
G1 X90.639 Y59.263 E1.1238
G1 X91.999 Y59.752 E1.1911
G1 X94.454 Y60.557 E1.3114
G1 X96.995 Y61.312 E1.43484
G1 X99.484 Y61.975 E1.55478
G1 X102.089 Y62.59 E1.67941
G1 X104.631 Y63.117 E1.80029
G1 X107.157 Y63.564 E1.91974
G1 X109.793 Y63.955 E2.04383
G1 X112.375 Y64.263 E2.16491
G1 X114.984 Y64.5 E2.28689
G1 X117.569 Y64.662 E2.4075
G1 X120.216 Y64.752 E2.53083
G1 X122.124 Y64.771 E2.61967
G1 X131.995 Y64.772 E3.07931
G1 X132.807 Y64.783 E3.11712
G1 X133.431 Y64.808 E3.1462
G1 X134.301 Y64.878 E3.18684
G1 X134.957 Y64.971 E3.2177
G1 X135.465 Y65.06 E3.24171
G1 X136.073 Y65.19 E3.27066
G1 X136.409 Y65.276 E3.28681
G1 X136.959 Y65.431 E3.31342
G1 X137.685 Y65.671 E3.34902
G1 X138.413 Y65.955 E3.38541
G1 X138.886 Y66.162 E3.40945
G1 X139.424 Y66.426 E3.43736
G1 X139.871 Y66.663 E3.46092
G1 X140.435 Y66.99 E3.49127
G1 X140.73 Y67.177 E3.50754
G1 X141.188 Y67.483 E3.53319
G1 X141.738 Y67.884 E3.56488
G1 X142.002 Y68.094 E3.58059
G1 X142.409 Y68.433 E3.60525
G1 X142.995 Y68.968 E3.6422
G1 X143.216 Y69.187 E3.65669
G1 X143.593 Y69.576 E3.68191
G1 X144.024 Y70.056 E3.71195
G1 X144.237 Y70.315 E3.72757
G1 X144.577 Y70.748 E3.7532
G1 X144.976 Y71.3 E3.78492
G1 X145.174 Y71.6 E3.80165
G1 X145.464 Y72.063 E3.82709
G1 X145.765 Y72.583 E3.85507
G1 X145.935 Y72.908 E3.87215
G1 X146.193 Y73.431 E3.8993
G1 X146.408 Y73.909 E3.92371
G1 X146.628 Y74.462 E3.95142
G1 X146.919 Y75.293 E3.99242
G1 X147.091 Y75.889 E4.02131
G1 X147.218 Y76.396 E4.04564
G1 X147.307 Y76.797 E4.06477
G1 X147.449 Y77.531 E4.09958
G1 X147.984 Y80.111 E4.22227
G1 X148.585 Y82.645 E4.34354
G1 X149.266 Y85.193 E4.46635
G1 X150.016 Y87.711 E4.58869
G1 X150.833 Y90.195 E4.71045
G1 X151.709 Y92.624 E4.83069
G1 X152.638 Y94.993 E4.94917
G1 X152.745 Y95.256 E4.9624
G1 X152.999 Y95.988 E4.99847
G1 X153.125 Y96.484 E5.0223
G1 X153.315 Y97.353 E5.06372
G1 X153.42 Y97.945 E5.09172
G1 X153.443 Y98.114 E5.09966
G1 X153.511 Y99.027 E5.14229
G1 X153.52 Y99.726 E5.17484
G1 X153.519 Y141.509 E7.12044
G1 X153.508 Y142.233 E7.15415
G1 X153.441 Y143.125 E7.1958
G1 X153.366 Y143.633 E7.21972
G1 X153.276 Y144.14 E7.24369
G1 X153.102 Y144.896 E7.27982
G1 X152.85 Y145.629 E7.31591
G1 X152.556 Y146.271 E7.34879
G1 X152.232 Y146.896 E7.38157
G1 X152.079 Y147.175 E7.39638
G1 X151.55 Y148.005 E7.44222
G1 X151.421 Y148.181 E7.45238
G1 X150.931 Y148.781 E7.48845
G1 X150.582 Y149.143 E7.51186
G1 X150.162 Y149.542 E7.53884
G1 X149.932 Y149.75 E7.55328
G1 X149.331 Y150.24 E7.58938
G1 X148.476 Y150.782 E7.63652
G1 X148.006 Y151.022 E7.6611
G1 X147.551 Y151.232 E7.68443
G1 X147.243 Y151.366 E7.70007
G1 X146.517 Y151.638 E7.73617
G1 X145.607 Y151.865 E7.77984
G1 X145.092 Y151.96 E7.80423
G1 X144.644 Y152.032 E7.82536
G1 X143.753 Y152.115 E7.86702
G1 X143.034 Y152.128 E7.90051
G1 X67.207 Y152.129 E11.43133
G1 X66.374 Y152.117 E11.47012
G1 X65.477 Y152.05 E11.51201
G1 X65.042 Y151.982 E11.53251
G1 X64.403 Y151.864 E11.56277
G1 X63.649 Y151.684 E11.59886
G1 X62.918 Y151.427 E11.63494
G1 X62.336 Y151.16 E11.66476
G1 X61.802 Y150.886 E11.69271
G1 X61.328 Y150.623 E11.71795
G1 X61.06 Y150.463 E11.73248
G1 X60.416 Y150.032 E11.76857
G1 X59.819 Y149.536 E11.80471
G1 X59.104 Y148.779 E11.85319
G1 X58.693 Y148.257 E11.88413
G1 X58.192 Y147.586 E11.92312
G1 X57.76 Y146.942 E11.95923
G1 X57.397 Y146.257 E11.99533
G1 X57.106 Y145.538 E12.03145
G1 X56.864 Y144.671 E12.07336
G1 X56.674 Y143.792 E12.11524
G1 X56.559 Y143.115 E12.14721
G1 X56.543 Y142.984 E12.15336
G1 X56.489 Y142.167 E12.19149
G1 X56.48 Y141.442 E12.22525
G1 X56.481 Y99.698 E14.16902
G1 X56.488 Y99.175 E14.19338
G1 X56.51 Y98.69 E14.21598
G1 X56.561 Y98.037 E14.24648
G1 X56.661 Y97.269 E14.28255
G1 X56.84 Y96.514 E14.31868
G1 X57.138 Y95.639 E14.36172
G1 X57.343 Y95.103 E14.38844
G1 X57.425 Y94.9 E14.39864
G1 X57.745 Y94.143 E14.4369
G1 X58.74 Y91.686 E14.56034
G1 X59.663 Y89.211 E14.68334
G1 X60.501 Y86.749 E14.80444
G1 X61.272 Y84.257 E14.9259
G1 X61.982 Y81.708 E15.04911
G1 X62.617 Y79.154 E15.17166
G1 X63.161 Y76.658 E15.29061
G1 X63.382 Y75.46 E15.34734
G1 X63.428 Y75.267 E15.35657
G1 X63.605 Y74.348 E15.40015
G1 X63.657 Y74.101 E15.41191
G1 X63.912 Y72.982 E15.46535
G1 X64.049 Y72.453 E15.49079
G1 X64.176 Y72.035 E15.51114
G1 X64.498 Y71.076 E15.55824
G1 X64.637 Y70.691 E15.5773
G1 X64.835 Y70.204 E15.60178
G1 X65.259 Y69.26 E15.64997
G1 X65.675 Y68.438 E15.69287
G1 X66.186 Y67.546 E15.74073
G1 X66.702 Y66.732 E15.78561
G1 X67.271 Y65.932 E15.83132
G1 X67.659 Y65.416 E15.86138
G1 X68.233 Y64.729 E15.90307
G1 X68.52 Y64.411 E15.92302
M204 S3000
M205 X10 Y10
G0 F3000 X68.928 Y64.794
M204 S1800
M205 X8 Y8
G1 F2400 X69.279 Y64.42 E15.9469
G1 X69.574 Y64.124 E15.96636
G1 X70.301 Y63.437 E16.01294
G1 X70.776 Y63.014 E16.04255
G1 X71.368 Y62.535 E16.07801
G1 X71.746 Y62.252 E16.1
G1 X72.174 Y61.945 E16.12453
G1 X72.532 Y61.705 E16.14459
G1 X73.348 Y61.193 E16.18945
G1 X74.139 Y60.745 E16.23178
G1 X75.072 Y60.28 E16.28032
G1 X75.891 Y59.918 E16.32202
G1 X76.793 Y59.574 E16.36697
G1 X77.436 Y59.349 E16.39869
G1 X78.148 Y59.138 E16.43327
G1 X78.587 Y59.026 E16.45436
G1 X79.081 Y58.909 E16.478
G1 X79.527 Y58.819 E16.49919
G1 X80.511 Y58.653 E16.54566
G1 X81.407 Y58.543 E16.58769
G1 X82.423 Y58.472 E16.63512
G1 X83.314 Y58.451 E16.67662
G1 X84.316 Y58.479 E16.72329
G1 X85.229 Y58.546 E16.76592
G1 X86.224 Y58.673 E16.81263
G1 X86.597 Y58.728 E16.83018
G1 X87.106 Y58.825 E16.85431
G1 X88.132 Y59.061 E16.90333
G1 X88.723 Y59.214 E16.93176
G1 X89.474 Y59.45 E16.96842
G1 X89.639 Y59.506 E16.97653
G1 X90.376 Y59.769 E17.01297
G1 X90.449 Y59.79 E17.0165
G1 X91.801 Y60.277 E17.08342
G1 X94.297 Y61.094 E17.20571
G1 X96.834 Y61.848 E17.32895
G1 X99.355 Y62.52 E17.45044
G1 X101.949 Y63.133 E17.57455
G1 X104.524 Y63.667 E17.69701
G1 X107.093 Y64.12 E17.81847
G1 X109.713 Y64.509 E17.94181
G1 X112.328 Y64.821 E18.06444
G1 X114.932 Y65.058 E18.18619
G1 X117.55 Y65.222 E18.30834
G1 X120.191 Y65.312 E18.43138
G1 X122.119 Y65.331 E18.52116
G1 X131.987 Y65.332 E18.98066
G1 X132.799 Y65.343 E19.01847
G1 X133.394 Y65.367 E19.0462
G1 X134.232 Y65.434 E19.08535
G1 X134.86 Y65.522 E19.11488
G1 X135.368 Y65.611 E19.13889
G1 X135.946 Y65.735 E19.16642
G1 X136.257 Y65.815 E19.18137
G1 X136.807 Y65.97 E19.20798
G1 X137.498 Y66.199 E19.24187
G1 X138.206 Y66.475 E19.27726
G1 X138.909 Y66.794 E19.31321
G1 X139.161 Y66.921 E19.32635
G1 X139.608 Y67.158 E19.3499
G1 X140.146 Y67.47 E19.37886
G1 X140.419 Y67.643 E19.39391
G1 X140.877 Y67.949 E19.41956
G1 X141.4 Y68.33 E19.44969
G1 X141.643 Y68.524 E19.46417
G1 X142.05 Y68.863 E19.48883
G1 X142.61 Y69.374 E19.52414
G1 X142.814 Y69.576 E19.5375
G1 X143.191 Y69.965 E19.56273
G1 X143.599 Y70.421 E19.59122
G1 X143.796 Y70.661 E19.60568
G1 X144.136 Y71.094 E19.63131
G1 X144.516 Y71.62 E19.66153
G1 X144.699 Y71.897 E19.67699
G1 X144.989 Y72.36 E19.70243
G1 X145.275 Y72.855 E19.72905
G1 X145.433 Y73.156 E19.74488
G1 X145.691 Y73.679 E19.77203
G1 X146.003 Y74.397 E19.80848
G1 X146.264 Y75.098 E19.84331
G1 X146.455 Y75.693 E19.87241
G1 X146.547 Y76.025 E19.88845
G1 X146.674 Y76.532 E19.91279
G1 X146.757 Y76.903 E19.93049
G1 X146.894 Y77.614 E19.96421
G1 X147.44 Y80.243 E20.08924
G1 X148.042 Y82.783 E20.21079
G1 X148.729 Y85.353 E20.33466
G1 X149.479 Y87.869 E20.45691
G1 X150.295 Y90.351 E20.57857
G1 X151.194 Y92.842 E20.70188
G1 X152.142 Y95.261 E20.82286
G1 X152.226 Y95.467 E20.83322
G1 X152.47 Y96.172 E20.86796
G1 X152.578 Y96.603 E20.88865
G1 X152.768 Y97.472 E20.93007
G1 X152.865 Y98.02 E20.95598
G1 X152.888 Y98.189 E20.96393
G1 X152.951 Y99.035 E21.00343
G1 X152.96 Y99.726 E21.03561
G1 X152.959 Y141.501 E22.98083
G1 X152.948 Y142.225 E23.01454
G1 X152.886 Y143.05 E23.05307
G1 X152.815 Y143.535 E23.07589
G1 X152.725 Y144.042 E23.09987
G1 X152.555 Y144.769 E23.13463
G1 X152.309 Y145.473 E23.16936
G1 X152.059 Y146.015 E23.19715
G1 X151.825 Y146.469 E23.22093
G1 X151.588 Y146.906 E23.24408
G1 X151.099 Y147.674 E23.28648
G1 X150.97 Y147.85 E23.29664
G1 X150.497 Y148.427 E23.33138
G1 X149.955 Y148.97 E23.3671
G1 X149.556 Y149.335 E23.39228
G1 X148.977 Y149.805 E23.42701
G1 X148.209 Y150.29 E23.4693
G1 X147.502 Y150.639 E23.50602
G1 X147.02 Y150.852 E23.53056
G1 X146.321 Y151.113 E23.5653
G1 X145.506 Y151.315 E23.6044
G1 X144.991 Y151.41 E23.62878
G1 X144.56 Y151.479 E23.64911
G1 X143.735 Y151.555 E23.68769
G1 X143.028 Y151.568 E23.72061
G1 X67.207 Y151.569 E27.25116
G1 X66.382 Y151.557 E27.28957
G1 X65.552 Y151.495 E27.32833
G1 X65.144 Y151.431 E27.34756
G1 X64.505 Y151.313 E27.37782
G1 X63.78 Y151.139 E27.41254
G1 X63.078 Y150.888 E27.44725
G1 X62.592 Y150.661 E27.47223
G1 X62.058 Y150.387 E27.50018
G1 X61.615 Y150.142 E27.52375
G1 X61.347 Y149.982 E27.53828
G1 X60.728 Y149.566 E27.57301
G1 X60.157 Y149.086 E27.60774
G1 X59.537 Y148.424 E27.64998
G1 X59.135 Y147.914 E27.68022
G1 X58.64 Y147.251 E27.71874
G1 X58.226 Y146.63 E27.7535
G1 X57.881 Y145.969 E27.78822
G1 X57.608 Y145.275 E27.82294
G1 X57.411 Y144.552 E27.85783
G1 X57.221 Y143.673 E27.89971
G1 X57.115 Y143.047 E27.92927
G1 X57.099 Y142.916 E27.93542
G1 X57.049 Y142.16 E27.9707
G1 X57.04 Y141.442 E28.00413
G1 X57.041 Y99.706 E29.94754
G1 X57.048 Y99.183 E29.97189
G1 X57.068 Y98.734 E29.99282
G1 X57.119 Y98.081 E30.02332
G1 X57.217 Y97.342 E30.05803
G1 X57.5 Y96.291 E30.10871
G1 X57.736 Y95.638 E30.14105
G1 X57.941 Y95.118 E30.16707
G1 X58.255 Y94.375 E30.20463
G1 X59.264 Y91.883 E30.32982
G1 X60.186 Y89.409 E30.45276
G1 X61.038 Y86.907 E30.57583
G1 X61.812 Y84.405 E30.69778
G1 X62.516 Y81.882 E30.81975
G1 X63.164 Y79.272 E30.94498
G1 X63.706 Y76.786 E31.06345
G1 X63.932 Y75.561 E31.12146
G1 X63.98 Y75.364 E31.1309
G1 X64.155 Y74.454 E31.17405
G1 X64.203 Y74.226 E31.1849
G1 X64.458 Y73.107 E31.23834
G1 X64.59 Y72.6 E31.26273
G1 X64.707 Y72.214 E31.28152
G1 X65.029 Y71.255 E31.32862
G1 X65.346 Y70.433 E31.36964
G1 X65.77 Y69.489 E31.41783
G1 X66.161 Y68.716 E31.45817
G1 X66.672 Y67.824 E31.50604
G1 X67.158 Y67.057 E31.54832
G1 X67.727 Y66.257 E31.59403
G1 X68.105 Y65.755 E31.62329
G1 X68.656 Y65.095 E31.66333
G1 X68.928 Y64.794 E31.68222
M204 S3000
M205 X10 Y10
G0 F3000 X69.336 Y65.177
M204 S1800
M205 X8 Y8
G1 F2400 X69.687 Y64.803 E31.7061
G1 X69.958 Y64.531 E31.72398
G1 X70.685 Y63.844 E31.77055
G1 X71.145 Y63.435 E31.79922
G1 X71.714 Y62.975 E31.83329
G1 X72.073 Y62.708 E31.85412
G1 X72.501 Y62.401 E31.87864
G1 X72.829 Y62.18 E31.89706
G1 X73.645 Y61.668 E31.94192
G1 X74.389 Y61.246 E31.98175
G1 X75.322 Y60.781 E32.03029
G1 X76.09 Y60.441 E32.0694
G1 X76.992 Y60.097 E32.11435
G1 X77.617 Y59.879 E32.14517
G1 X78.298 Y59.678 E32.17823
G1 X78.716 Y59.571 E32.19832
G1 X79.21 Y59.454 E32.22196
G1 X79.62 Y59.371 E32.24144
G1 X80.604 Y59.205 E32.28791
G1 X81.446 Y59.102 E32.32741
G1 X82.462 Y59.031 E32.37483
G1 X83.299 Y59.01 E32.41382
G1 X84.301 Y59.038 E32.46049
G1 X85.158 Y59.102 E32.50051
G1 X86.309 Y59.25 E32.55455
G1 X86.981 Y59.371 E32.58634
G1 X88.007 Y59.607 E32.63536
G1 X88.578 Y59.755 E32.66283
G1 X89.299 Y59.982 E32.69803
G1 X89.45 Y60.034 E32.70547
G1 X90.093 Y60.264 E32.73726
G1 X90.26 Y60.317 E32.74542
G1 X91.615 Y60.805 E32.81248
G1 X94.151 Y61.635 E32.93673
G1 X96.668 Y62.383 E33.059
G1 X99.226 Y63.065 E33.18227
G1 X101.816 Y63.677 E33.3062
G1 X104.442 Y64.221 E33.43107
G1 X106.988 Y64.671 E33.55146
G1 X109.634 Y65.064 E33.67602
G1 X112.249 Y65.376 E33.79865
G1 X114.919 Y65.618 E33.92349
G1 X117.529 Y65.782 E34.04526
G1 X120.167 Y65.872 E34.16817
G1 X122.113 Y65.891 E34.25878
G1 X131.98 Y65.892 E34.71823
G1 X132.962 Y65.907 E34.76396
G1 X133.805 Y65.955 E34.80328
G1 X134.365 Y66.014 E34.8295
G1 X134.763 Y66.074 E34.84824
G1 X135.271 Y66.163 E34.87226
G1 X135.819 Y66.281 E34.89836
G1 X136.105 Y66.354 E34.9121
G1 X136.655 Y66.509 E34.93871
G1 X137.311 Y66.726 E34.97089
G1 X138 Y66.995 E35.00533
G1 X138.667 Y67.299 E35.03946
G1 X138.899 Y67.416 E35.05156
G1 X139.346 Y67.653 E35.07512
G1 X139.857 Y67.949 E35.10262
G1 X140.107 Y68.108 E35.11641
G1 X140.565 Y68.414 E35.14206
G1 X141.061 Y68.776 E35.17065
G1 X141.285 Y68.954 E35.18398
G1 X141.692 Y69.293 E35.20864
G1 X142.224 Y69.78 E35.24222
G1 X142.412 Y69.966 E35.25454
G1 X142.789 Y70.355 E35.27976
G1 X143.174 Y70.786 E35.30667
G1 X143.356 Y71.006 E35.31997
G1 X143.696 Y71.439 E35.3456
G1 X144.056 Y71.939 E35.37429
G1 X144.225 Y72.195 E35.38858
G1 X144.515 Y72.658 E35.41402
G1 X144.786 Y73.127 E35.43924
G1 X144.931 Y73.404 E35.4538
G1 X145.189 Y73.927 E35.48095
G1 X145.485 Y74.609 E35.51557
G1 X145.738 Y75.29 E35.5494
G1 X145.92 Y75.856 E35.57708
G1 X146.004 Y76.161 E35.59181
G1 X146.131 Y76.668 E35.61615
G1 X146.207 Y77.009 E35.63242
G1 X146.353 Y77.765 E35.66827
G1 X146.888 Y80.342 E35.79083
G1 X147.499 Y82.921 E35.91424
G1 X148.192 Y85.514 E36.03922
G1 X148.941 Y88.026 E36.16128
G1 X149.767 Y90.539 E36.28445
G1 X150.672 Y93.048 E36.40865
G1 X151.616 Y95.455 E36.52904
G1 X151.707 Y95.678 E36.54025
G1 X151.939 Y96.355 E36.57358
G1 X152.031 Y96.723 E36.59124
G1 X152.221 Y97.592 E36.63266
G1 X152.311 Y98.096 E36.6565
G1 X152.334 Y98.265 E36.66444
G1 X152.391 Y99.042 E36.70072
G1 X152.4 Y99.726 E36.73257
G1 X152.399 Y141.492 E38.67737
G1 X152.388 Y142.216 E38.71109
G1 X152.331 Y142.975 E38.74653
G1 X152.263 Y143.438 E38.76832
G1 X152.173 Y143.945 E38.7923
G1 X152.009 Y144.641 E38.82559
G1 X151.768 Y145.314 E38.85888
G1 X151.561 Y145.758 E38.88169
G1 X151.327 Y146.212 E38.90548
G1 X151.097 Y146.636 E38.92794
G1 X150.647 Y147.342 E38.96692
G1 X150.518 Y147.518 E38.97708
G1 X150.064 Y148.071 E39.0104
G1 X149.565 Y148.567 E39.04316
G1 X149.181 Y148.92 E39.06745
G1 X148.624 Y149.369 E39.10076
G1 X147.941 Y149.798 E39.13832
G1 X147.265 Y150.132 E39.17343
G1 X146.796 Y150.339 E39.1973
G1 X146.125 Y150.587 E39.23061
G1 X145.404 Y150.764 E39.26518
G1 X144.889 Y150.859 E39.28956
G1 X144.475 Y150.925 E39.30908
G1 X143.716 Y150.996 E39.34458
G1 X143.021 Y151.009 E39.37695
G1 X67.109 Y151.008 E42.91173
G1 X66.391 Y150.997 E42.94517
G1 X65.628 Y150.94 E42.98079
G1 X65.246 Y150.881 E42.99879
G1 X64.607 Y150.763 E43.02905
G1 X63.912 Y150.594 E43.06235
G1 X63.24 Y150.348 E43.09568
G1 X62.847 Y150.163 E43.1159
G1 X62.313 Y149.889 E43.14385
G1 X61.634 Y149.501 E43.18027
G1 X61.042 Y149.101 E43.21353
G1 X60.497 Y148.637 E43.24686
G1 X59.97 Y148.068 E43.28298
G1 X59.578 Y147.571 E43.31245
G1 X59.089 Y146.915 E43.35055
G1 X58.693 Y146.319 E43.38387
G1 X58.366 Y145.683 E43.41717
G1 X58.113 Y145.014 E43.45047
G1 X57.958 Y144.434 E43.47843
G1 X57.768 Y143.555 E43.5203
