;FLAVOR:Marlin
;TIME:22025
;Filament used: 20.1098m
;Layer height: 0.2
;MINX:65.98
;MINY:22.175
;MINZ:0.2
;MAXX:144.019
;MAXY:192.52
;MAXZ:49.2
;TARGET_MACHINE.NAME:Anycubic i3 Mega
;Generated with Cura_SteamEngine 5.10.1
M140 S65
M105
M190 S65
M104 S200
M105
M109 S200
G21 ;metric values
G90 ;absolute positioning
M82 ;set extruder to absolute mode
M107 ;start with the fan off
G28 X0 Y0 ;move X/Y to min endstops
G28 Z0 ;move Z to min endstops
G1 Z15.0 F100 ;move the platform down 15mm
G92 E0 ;zero the extruded length
G1 F200 E3 ;extrude 3mm of feed stock
G92 E0 ;zero the extruded length again
G1 F100
G0 Y20 F100
M117 Printing...
G5
M82 ;absolute extrusion mode
G92 E0
G92 E0
G1 F2400 E-6
;LAYER_COUNT:246
;LAYER:0
M107
M204 S3000
M205 X10 Y10
G1 F600 Z0.275
G0 F3000 X66.598 Y26.748 Z0.275
M204 S1800
M205 X8 Y8
;TYPE:SKIRT
G1 F600 Z0.2
G1 F2400 E0
G1 X66.912 Y26.102 E0.03345
G1 X67.524 Y25.158 E0.08583
G1 X68.076 Y24.511 E0.12543
G1 X68.747 Y23.888 E0.16807
G1 X69.324 Y23.46 E0.20152
G1 X70.257 Y22.929 E0.25151
G1 X71.256 Y22.534 E0.30153
G1 X72.116 Y22.322 E0.34277
G1 X73.395 Y22.179 E0.4027
G1 X135.824 Y22.175 E3.30966
G1 X136.599 Y22.186 E3.34575
G1 X137.526 Y22.261 E3.38905
G1 X138.498 Y22.461 E3.43526
G1 X139.179 Y22.685 E3.46864
G1 X140.273 Y23.209 E3.52513
G1 X141.035 Y23.716 E3.56775
G1 X141.679 Y24.264 E3.60712
G1 X142.219 Y24.837 E3.64378
G1 X142.848 Y25.693 E3.69325
G1 X143.263 Y26.442 E3.73312
G1 X143.613 Y27.3 E3.77627
G1 X143.873 Y28.306 E3.82465
G1 X144.017 Y29.589 E3.88477
G1 X144.019 Y180.648 E10.91871
G1 X144.007 Y181.412 E10.95428
G1 X143.931 Y182.313 E10.99639
G1 X143.764 Y183.144 E11.03586
G1 X143.475 Y184.026 E11.07907
G1 X143.142 Y184.748 E11.1161
G1 X142.418 Y185.909 E11.17981
G1 X141.668 Y186.72 E11.23125
G1 X140.778 Y187.629 E11.29048
G1 X139.932 Y188.427 E11.34464
G1 X139.278 Y188.998 E11.38506
G1 X138.26 Y189.814 E11.44581
G1 X137.649 Y190.271 E11.48134
G1 X136.693 Y190.939 E11.53565
G1 X135.95 Y191.423 E11.57694
G1 X135.273 Y191.786 E11.61271
G1 X134.349 Y192.149 E11.65893
G1 X133.441 Y192.377 E11.70253
G1 X132.323 Y192.505 E11.75493
G1 X131.499 Y192.52 E11.7933
G1 X78.095 Y192.519 E14.28002
G1 X77.397 Y192.509 E14.31252
G1 X76.47 Y192.434 E14.35583
G1 X75.498 Y192.234 E14.40203
G1 X74.75 Y191.983 E14.43877
G1 X73.792 Y191.524 E14.48824
G1 X73.037 Y191.039 E14.53002
G1 X72.462 Y190.599 E14.56374
G1 X71.8 Y190.065 E14.60334
G1 X71.217 Y189.561 E14.63923
G1 X70.736 Y189.123 E14.66952
G1 X70.157 Y188.566 E14.70693
G1 X69.731 Y188.133 E14.73521
G1 X69.035 Y187.388 E14.78269
G1 X68.538 Y186.818 E14.8179
G1 X67.527 Y185.566 E14.89283
G1 X67.027 Y184.802 E14.93535
G1 X66.531 Y183.783 E14.98812
G1 X66.281 Y183.039 E15.02467
G1 X66.086 Y182.129 E15.068
G1 X66 Y181.154 E15.11358
G1 X65.98 Y180.03 E15.16593
G1 X65.981 Y30.256 E22.14003
G1 X65.993 Y29.555 E22.17268
G1 X66.077 Y28.591 E22.21773
G1 X66.271 Y27.682 E22.26101
G1 X66.598 Y26.748 E22.30709
M204 S3000
M205 X10 Y10
G0 F3000 X67.102 Y26.993
M204 S1800
M205 X8 Y8
G1 F2400 X67.416 Y26.347 E22.34054
G1 X67.952 Y25.519 E22.38647
G1 X68.458 Y24.92 E22.42298
G1 X69.081 Y24.338 E22.46268
G1 X69.658 Y23.91 E22.49613
G1 X70.532 Y23.417 E22.54286
G1 X71.393 Y23.077 E22.58596
G1 X72.178 Y22.879 E22.62366
G1 X73.457 Y22.736 E22.68358
G1 X135.816 Y22.735 E25.58728
G1 X136.591 Y22.746 E25.62337
G1 X137.413 Y22.81 E25.66176
G1 X138.385 Y23.01 E25.70797
G1 X139.001 Y23.216 E25.73822
G1 X139.965 Y23.677 E25.78797
G1 X140.674 Y24.144 E25.82751
G1 X141.271 Y24.648 E25.86389
G1 X141.811 Y25.221 E25.90055
G1 X142.359 Y25.967 E25.94365
G1 X142.744 Y26.654 E25.98032
G1 X143.094 Y27.512 E26.02347
G1 X143.316 Y28.368 E26.06465
G1 X143.46 Y29.651 E26.12476
G1 X143.459 Y180.639 E33.1554
G1 X143.447 Y181.403 E33.19098
G1 X143.382 Y182.205 E33.22844
G1 X143.231 Y182.972 E33.26484
G1 X142.966 Y183.791 E33.30493
G1 X142.633 Y184.513 E33.34195
G1 X141.971 Y185.568 E33.39995
G1 X141.268 Y186.328 E33.44815
G1 X140.393 Y187.222 E33.5064
G1 X139.564 Y188.005 E33.5595
G1 X138.927 Y188.561 E33.59887
G1 X137.924 Y189.366 E33.65876
G1 X137.328 Y189.812 E33.69342
G1 X136.387 Y190.47 E33.74689
G1 X135.685 Y190.929 E33.78594
G1 X135.008 Y191.292 E33.82171
G1 X134.146 Y191.627 E33.86477
G1 X133.376 Y191.821 E33.90175
G1 X132.313 Y191.945 E33.95158
G1 X131.499 Y191.96 E33.98949
G1 X78.103 Y191.959 E36.47583
G1 X77.405 Y191.949 E36.50834
G1 X76.583 Y191.885 E36.54673
G1 X75.611 Y191.685 E36.59294
G1 X74.931 Y191.453 E36.62639
G1 X74.036 Y191.02 E36.67269
G1 X73.377 Y190.594 E36.70923
G1 X72.813 Y190.163 E36.74228
G1 X72.166 Y189.642 E36.78096
G1 X71.594 Y189.147 E36.81619
G1 X71.124 Y188.719 E36.84579
G1 X70.556 Y188.173 E36.88247
G1 X70.14 Y187.751 E36.91006
G1 X69.457 Y187.02 E36.95665
G1 X68.973 Y186.465 E36.99094
G1 X67.996 Y185.259 E37.06321
G1 X67.496 Y184.495 E37.10573
G1 X67.061 Y183.602 E37.15198
G1 X66.829 Y182.922 E37.18543
G1 X66.634 Y182.012 E37.22877
G1 X66.56 Y181.144 E37.26933
G1 X66.54 Y180.03 E37.32122
G1 X66.541 Y30.264 E44.29495
G1 X66.551 Y29.601 E44.32582
G1 X66.625 Y28.708 E44.36755
G1 X66.819 Y27.799 E44.41083
G1 X67.102 Y26.993 E44.4506
M204 S3000
M205 X10 Y10
G0 F3000 X67.606 Y27.238
M204 S1800
M205 X8 Y8
G1 F2400 X67.92 Y26.592 E44.48405
G1 X68.382 Y25.878 E44.52365
G1 X68.842 Y25.328 E44.55704
G1 X69.415 Y24.788 E44.5937
G1 X69.992 Y24.36 E44.62715
G1 X70.74 Y23.937 E44.66717
G1 X71.534 Y23.619 E44.70699
G1 X72.242 Y23.435 E44.74105
G1 X73.457 Y23.296 E44.798
G1 X135.808 Y23.295 E47.70132
G1 X136.583 Y23.306 E47.73741
G1 X137.369 Y23.368 E47.77413
G1 X138.207 Y23.541 E47.81397
G1 X138.823 Y23.747 E47.84422
G1 X139.659 Y24.146 E47.88735
G1 X140.315 Y24.574 E47.92382
G1 X140.865 Y25.034 E47.95721
G1 X141.361 Y25.555 E47.99071
G1 X141.87 Y26.241 E48.03048
G1 X142.255 Y26.928 E48.06715
G1 X142.553 Y27.657 E48.10382
G1 X142.76 Y28.432 E48.14118
G1 X142.9 Y29.651 E48.19831
G1 X142.899 Y180.63 E55.22852
G1 X142.887 Y181.394 E55.2641
G1 X142.832 Y182.099 E55.29703
G1 X142.697 Y182.802 E55.33036
G1 X142.457 Y183.556 E55.36721
G1 X142.124 Y184.278 E55.40423
G1 X141.525 Y185.224 E55.45637
G1 X140.868 Y185.936 E55.50148
G1 X140.008 Y186.815 E55.55874
G1 X139.195 Y187.583 E55.61082
G1 X138.576 Y188.124 E55.6491
G1 X137.588 Y188.918 E55.70812
G1 X137.007 Y189.353 E55.74192
G1 X136.079 Y190.002 E55.79465
G1 X135.42 Y190.435 E55.83136
G1 X134.743 Y190.798 E55.86713
G1 X133.945 Y191.104 E55.90693
G1 X133.242 Y191.277 E55.94064
G1 X132.303 Y191.385 E55.98465
G1 X131.499 Y191.4 E56.0221
G1 X78.111 Y191.399 E58.50807
G1 X77.413 Y191.389 E58.54057
G1 X76.627 Y191.327 E58.57729
G1 X75.789 Y191.154 E58.61713
G1 X75.173 Y190.948 E58.64737
G1 X74.339 Y190.549 E58.69042
G1 X73.717 Y190.149 E58.72486
G1 X73.164 Y189.727 E58.75725
G1 X72.532 Y189.218 E58.79504
G1 X71.971 Y188.733 E58.82957
G1 X71.512 Y188.315 E58.85848
G1 X70.954 Y187.779 E58.8945
G1 X70.549 Y187.369 E58.92134
G1 X69.879 Y186.652 E58.96703
G1 X69.408 Y186.112 E59.0004
G1 X68.465 Y184.952 E59.07001
G1 X67.965 Y184.188 E59.11253
G1 X67.59 Y183.418 E59.15241
G1 X67.377 Y182.805 E59.18262
G1 X67.182 Y181.895 E59.22596
G1 X67.12 Y181.134 E59.26151
G1 X67.1 Y180.03 E59.31293
G1 X67.101 Y30.272 E66.28629
G1 X67.111 Y29.609 E66.31716
G1 X67.173 Y28.822 E66.35392
G1 X67.348 Y27.982 E66.39388
G1 X67.606 Y27.238 E66.43054
M204 S3000
M205 X10 Y10
G0 F3000 X68.11 Y27.483
M204 S1800
M205 X8 Y8
G1 F2400 X68.424 Y26.837 E66.46399
G1 X68.814 Y26.235 E66.49739
G1 X69.228 Y25.734 E66.52765
G1 X69.749 Y25.238 E66.56115
G1 X70.326 Y24.81 E66.5946
G1 X70.951 Y24.456 E66.62805
G1 X71.68 Y24.16 E66.66468
G1 X72.307 Y23.991 E66.69492
G1 X73.457 Y23.856 E66.74884
G1 X135.8 Y23.855 E69.65179
G1 X136.575 Y23.866 E69.68788
G1 X137.324 Y23.926 E69.72287
G1 X138.029 Y24.072 E69.75639
G1 X138.645 Y24.278 E69.78664
G1 X139.355 Y24.617 E69.82327
G1 X139.958 Y25.006 E69.85669
G1 X140.459 Y25.42 E69.88695
G1 X140.955 Y25.941 E69.92045
G1 X141.383 Y26.517 E69.95386
G1 X141.738 Y27.143 E69.98737
G1 X142.013 Y27.806 E70.02079
G1 X142.204 Y28.498 E70.05422
G1 X142.34 Y29.651 E70.10828
G1 X142.339 Y180.622 E77.13812
G1 X142.328 Y181.353 E77.17217
G1 X142.281 Y181.996 E77.20219
G1 X142.162 Y182.635 E77.23245
G1 X141.948 Y183.321 E77.26591
G1 X141.615 Y184.043 E77.30294
G1 X141.079 Y184.881 E77.34926
G1 X140.456 Y185.556 E77.39203
G1 X139.623 Y186.408 E77.44751
G1 X138.826 Y187.161 E77.49857
G1 X138.207 Y187.702 E77.53685
G1 X137.252 Y188.47 E77.59391
G1 X136.686 Y188.894 E77.62684
G1 X135.77 Y189.535 E77.6789
G1 X135.155 Y189.941 E77.71322
G1 X134.478 Y190.304 E77.74899
G1 X133.807 Y190.561 E77.78244
G1 X133.177 Y190.721 E77.81271
G1 X132.292 Y190.825 E77.8542
G1 X131.499 Y190.84 E77.89113
G1 X78.119 Y190.839 E80.37673
G1 X77.421 Y190.829 E80.40924
G1 X76.672 Y190.769 E80.44422
G1 X75.967 Y190.623 E80.47775
G1 X75.351 Y190.417 E80.50799
G1 X74.641 Y190.078 E80.54463
G1 X74.056 Y189.703 E80.57699
G1 X73.515 Y189.291 E80.60865
G1 X72.898 Y188.794 E80.64554
G1 X72.348 Y188.319 E80.67938
G1 X71.9 Y187.911 E80.7076
G1 X71.352 Y187.385 E80.74297
G1 X70.958 Y186.987 E80.76904
G1 X70.301 Y186.284 E80.81385
G1 X69.842 Y185.758 E80.84636
G1 X68.932 Y184.643 E80.91337
G1 X68.467 Y183.94 E80.95262
G1 X68.119 Y183.234 E80.98927
G1 X67.906 Y182.621 E81.01949
G1 X67.74 Y181.849 E81.05626
G1 X67.68 Y181.124 E81.09013
G1 X67.66 Y180.03 E81.14108
G1 X67.661 Y30.28 E88.11407
G1 X67.671 Y29.617 E88.14494
G1 X67.731 Y28.867 E88.17998
G1 X67.878 Y28.163 E88.21347
G1 X68.11 Y27.483 E88.24692
M204 S3000
M205 X10 Y10
G0 F3000 X68.615 Y27.725
M204 S1800
M205 X8 Y8
G1 F2400 X68.896 Y27.139 E88.27718
G1 X69.246 Y26.592 E88.30742
G1 X69.66 Y26.091 E88.33769
G1 X70.133 Y25.646 E88.36793
G1 X70.657 Y25.262 E88.39818
G1 X71.224 Y24.945 E88.42842
G1 X71.826 Y24.701 E88.45867
G1 X72.453 Y24.532 E88.48891
G1 X73.457 Y24.416 E88.53597
G1 X135.792 Y24.415 E91.43855
G1 X136.567 Y24.426 E91.47464
G1 X137.214 Y24.475 E91.50485
G1 X137.851 Y24.603 E91.53511
G1 X138.467 Y24.809 E91.56535
G1 X139.054 Y25.089 E91.59564
G1 X139.601 Y25.438 E91.62585
G1 X140.102 Y25.852 E91.65611
G1 X140.547 Y26.325 E91.68635
G1 X140.932 Y26.849 E91.71663
G1 X141.249 Y27.416 E91.74688
G1 X141.494 Y28.017 E91.7771
G1 X141.663 Y28.644 E91.80734
G1 X141.78 Y29.651 E91.85454
G1 X141.779 Y180.614 E98.88401
G1 X141.769 Y181.315 E98.91666
G1 X141.73 Y181.893 E98.94363
G1 X141.611 Y182.532 E98.9739
G1 X141.414 Y183.151 E99.00414
G1 X141.143 Y183.741 E99.03438
G1 X140.632 Y184.54 E99.07854
G1 X140.055 Y185.165 E99.11815
G1 X139.239 Y186.001 E99.17255
G1 X138.457 Y186.739 E99.22261
G1 X137.838 Y187.28 E99.26089
G1 X136.916 Y188.022 E99.316
G1 X136.365 Y188.435 E99.34807
G1 X135.461 Y189.068 E99.39945
G1 X134.846 Y189.474 E99.43377
G1 X134.274 Y189.782 E99.46402
G1 X133.669 Y190.018 E99.49426
G1 X133.039 Y190.178 E99.52452
G1 X132.281 Y190.265 E99.56005
G1 X131.499 Y190.28 E99.59647
G1 X78.127 Y190.279 E102.0817
G1 X77.429 Y190.269 E102.1142
G1 X76.782 Y190.22 E102.14441
G1 X76.145 Y190.092 E102.17467
G1 X75.529 Y189.886 E102.20491
G1 X74.942 Y189.606 E102.2352
G1 X74.395 Y189.257 E102.26541
G1 X73.866 Y188.855 E102.29635
G1 X73.264 Y188.37 E102.33235
G1 X72.725 Y187.905 E102.36549
G1 X72.288 Y187.507 E102.39302
G1 X71.75 Y186.991 E102.42773
G1 X71.367 Y186.605 E102.45305
G1 X70.723 Y185.916 E102.49696
G1 X70.276 Y185.404 E102.52861
G1 X69.366 Y184.289 E102.59563
G1 X68.935 Y183.633 E102.63218
G1 X68.648 Y183.05 E102.66243
G1 X68.435 Y182.437 E102.69265
G1 X68.298 Y181.802 E102.7229
G1 X68.24 Y181.114 E102.75505
G1 X68.22 Y180.03 E102.80553
G1 X68.221 Y30.288 E109.77815
G1 X68.231 Y29.625 E109.80902
G1 X68.28 Y28.978 E109.83924
G1 X68.409 Y28.341 E109.8695
G1 X68.615 Y27.725 E109.89975
M204 S3000
M205 X10 Y10
G1 F2400 E103.89975
;MESH:Eufy_E340_Doorbell_Hood.stl
G0 F3000 X72.835 Y30.727
G0 X73.924 Y30.727
G0 X102.468 Y60.797
G0 X103.249 Y61.196
G0 X105.889 Y62.19
M204 S1800
M205 X8 Y8
;TYPE:WALL-INNER
G1 F2400 E109.89975
G1 F1500 X104.68 Y62.389 E109.9568
G1 X104.322 Y62.389 E109.97347
G1 X103.114 Y62.191 E110.03047
G1 X102.051 Y61.65 E110.08601
G1 X101.816 Y61.489 E110.09927
G1 X101.031 Y60.706 E110.1509
G1 X100.856 Y60.466 E110.16473
G1 X100.364 Y59.498 E110.21529
G1 X100.274 Y59.222 E110.22881
G1 X100.083 Y58.02 E110.28548
G1 X100.276 Y56.752 E110.34521
G1 X100.364 Y56.502 E110.35755
G1 X100.91 Y55.427 E110.41369
G1 X101.797 Y54.529 E110.47247
G1 X102.035 Y54.355 E110.48619
G1 X103.015 Y53.859 E110.53734
G1 X103.351 Y53.761 E110.55364
G1 X104.513 Y53.579 E110.6084
G1 X105.736 Y53.778 E110.6661
G1 X106.062 Y53.895 E110.68223
G1 X107.115 Y54.439 E110.73742
G1 X107.972 Y55.302 E110.79405
G1 X108.142 Y55.536 E110.80752
G1 X108.631 Y56.501 E110.85789
G1 X108.721 Y56.773 E110.87123
G1 X108.903 Y57.876 E110.92329
G1 X108.903 Y58.124 E110.93484
G1 X108.721 Y59.226 E110.98684
G1 X108.648 Y59.47 E110.9987
G1 X108.141 Y60.465 E111.0507
G1 X107.918 Y60.754 E111.0677
G1 X107.212 Y61.459 E111.11416
G1 X106.989 Y61.627 E111.12716
G1 X105.889 Y62.19 E111.1847
M204 S3000
M205 X10 Y10
G0 F3000 X105.701 Y61.656
M204 S1800
M205 X8 Y8
G1 F1500 X104.511 Y61.85 E111.24084
G1 X103.304 Y61.659 E111.29774
G1 X102.232 Y61.111 E111.35381
G1 X101.382 Y60.268 E111.40955
G1 X100.841 Y59.2 E111.4653
G1 X100.646 Y58 E111.52191
G1 X100.841 Y56.8 E111.57852
G1 X101.375 Y55.743 E111.63366
G1 X102.236 Y54.879 E111.69046
G1 X103.324 Y54.334 E111.74712
G1 X104.5 Y54.146 E111.80257
G1 X105.676 Y54.334 E111.85803
G1 X106.753 Y54.874 E111.91413
G1 X107.62 Y55.741 E111.97122
G1 X108.154 Y56.796 E112.02628
G1 X108.355 Y57.999 E112.08308
G1 X108.163 Y59.177 E112.13865
G1 X107.616 Y60.265 E112.19536
G1 X106.746 Y61.125 E112.25232
G1 X105.701 Y61.656 E112.3069
M204 S3000
M205 X10 Y10
G0 F3000 X105.733 Y61.722
G0 X108.363 Y152
G0 X108.174 Y153.194
G0 X107.679 Y154.162
G0 X105.75 Y156.219
M204 S1800
M205 X8 Y8
G1 F1500 X104.652 Y156.396 E112.35869
G1 X104.348 Y156.396 E112.37284
G1 X103.251 Y156.219 E112.42458
G1 X103.019 Y156.142 E112.43597
G1 X102.013 Y155.632 E112.48849
G1 X101.814 Y155.487 E112.49995
G1 X101.031 Y154.706 E112.55145
G1 X100.856 Y154.466 E112.56528
G1 X100.364 Y153.498 E112.61584
G1 X100.274 Y153.222 E112.62936
G1 X100.083 Y152.02 E112.68603
G1 X100.276 Y150.752 E112.74575
G1 X100.364 Y150.502 E112.75809
G1 X100.855 Y149.535 E112.80859
G1 X101.078 Y149.246 E112.82559
G1 X101.794 Y148.531 E112.87271
G1 X101.998 Y148.377 E112.88461
G1 X103.113 Y147.806 E112.94294
G1 X104.322 Y147.607 E113
G1 X104.639 Y147.602 E113.01476
G1 X105.884 Y147.805 E113.0735
G1 X106.944 Y148.343 E113.12885
G1 X107.214 Y148.539 E113.14438
G1 X108.083 Y149.421 E113.20204
G1 X108.631 Y150.501 E113.25843
G1 X108.721 Y150.773 E113.27177
G1 X108.903 Y151.876 E113.32383
G1 X108.903 Y152.124 E113.33537
G1 X108.721 Y153.226 E113.38738
G1 X108.648 Y153.47 E113.39924
G1 X108.141 Y154.465 E113.45124
G1 X107.918 Y154.754 E113.46824
G1 X107.192 Y155.478 E113.51598
G1 X106.991 Y155.63 E113.52772
G1 X105.981 Y156.142 E113.58044
G1 X105.75 Y156.219 E113.59178
M204 S3000
M205 X10 Y10
G0 F3000 X105.703 Y155.654
M204 S1800
M205 X8 Y8
G1 F1500 X104.5 Y155.855 E113.64857
G1 X103.296 Y155.654 E113.70541
G1 X102.239 Y155.119 E113.76058
G1 X101.382 Y154.267 E113.81685
G1 X100.841 Y153.2 E113.87255
G1 X100.646 Y152 E113.92916
G1 X100.841 Y150.8 E113.98577
G1 X101.38 Y149.736 E114.04131
G1 X102.234 Y148.883 E114.09752
G1 X103.299 Y148.34 E114.15318
G1 X104.503 Y148.145 E114.20998
G1 X105.696 Y148.337 E114.26624
G1 X106.672 Y148.833 E114.31722
G1 X106.834 Y148.95 E114.32653
G1 X107.621 Y149.747 E114.37868
G1 X108.154 Y150.796 E114.43347
G1 X108.355 Y151.999 E114.49026
G1 X108.163 Y153.177 E114.54584
G1 X107.616 Y154.264 E114.6025
G1 X106.762 Y155.117 E114.65871
G1 X105.703 Y155.654 E114.714
M204 S3000
M205 X10 Y10
G0 F3000 X105.736 Y155.721
G0 X132.146 Y183.251
M204 S1800
M205 X8 Y8
G1 F1500 X132.651 Y182.887 E114.74298
G1 X133.373 Y182.316 E114.78585
G1 X133.808 Y181.947 E114.81241
G1 X134.209 Y181.583 E114.83762
G1 X135.1 Y180.701 E114.896
G1 X135.1 Y31.7 E121.83411
G1 X74.9 Y31.7 E124.63728
G1 X74.9 Y180.546 E131.56817
G1 X75.573 Y181.331 E131.61632
G1 X75.919 Y181.711 E131.64025
