;FLAVOR:Marlin
;TIME:13681
;Filament used: 10.0767m
;Layer height: 0.2
;MINX:13.04
;MINY:25.79
;MINZ:0.2
;MAXX:196.96
;MAXY:184.21
;MAXZ:2.075
;Generated with Cura_SteamEngine 4.6.0
M140 S65
M105
M190 S65
M104 S200
M105
M109 S200
M82 ;absolute extrusion mode
G21 ;metric values
G90 ;absolute positioning
M82 ;set extruder to absolute mode
M107 ;start with the fan off
G28 X0 Y0 ;move X/Y to min endstops
G28 Z0 ;move Z to min endstops
G1 Z15.0 F100 ;move the platform down 15mm
G92 E0 ;zero the extruded length
G1 F200 E3 ;extrude 3mm of feed stock
G92 E0 ;zero the extruded length again
G1 F100
G0 Y20 F100
M117 Printing...
G5
G92 E0
G92 E0
G1 F2400 E-6
;LAYER_COUNT:10
;LAYER:0
M106 S255
M204 S3000
M205 X10 Y10
G1 F600 Z0.275
G0 F3000 X191.08 Y27.521 Z0.275
M204 S1800
M205 X8 Y8
;TYPE:SKIRT
G1 F600 Z0.2
G1 F2400 E0
G1 X191.198 Y27.143 E0.01844
G1 X191.389 Y26.797 E0.03684
G1 X191.778 Y26.364 E0.06395
G1 X192.084 Y26.114 E0.08235
G1 X192.435 Y25.931 E0.10078
G1 X192.815 Y25.821 E0.1192
G1 X193.164 Y25.79 E0.13551
G1 X194.836 Y25.79 E0.21337
G1 X195.229 Y25.83 E0.23176
G1 X195.607 Y25.948 E0.2502
G1 X195.953 Y26.139 E0.2686
G1 X196.386 Y26.528 E0.29571
G1 X196.636 Y26.834 E0.31411
G1 X196.819 Y27.185 E0.33254
G1 X196.929 Y27.565 E0.35096
G1 X196.96 Y27.914 E0.36728
G1 X196.96 Y29.586 E0.44513
G1 X196.92 Y29.979 E0.46352
G1 X196.802 Y30.357 E0.48196
G1 X196.611 Y30.703 E0.50037
G1 X196.222 Y31.136 E0.52747
G1 X195.916 Y31.386 E0.54587
G1 X195.565 Y31.569 E0.5643
G1 X195.185 Y31.679 E0.58272
G1 X194.836 Y31.71 E0.59904
G1 X193.164 Y31.71 E0.67689
G1 X192.771 Y31.67 E0.69529
G1 X192.393 Y31.552 E0.71373
G1 X192.047 Y31.361 E0.73213
G1 X191.614 Y30.972 E0.75923
G1 X191.364 Y30.666 E0.77763
G1 X191.181 Y30.315 E0.79606
G1 X191.071 Y29.935 E0.81449
G1 X191.04 Y29.586 E0.8308
G1 X191.04 Y27.914 E0.90866
G1 X191.08 Y27.521 E0.92705
M204 S3000
M205 X10 Y10
G0 F3000 X191.64 Y27.582
M204 S1800
M205 X8 Y8
G1 F2400 X191.757 Y27.27 E0.94257
G1 X192.01 Y26.924 E0.96252
G1 X192.174 Y26.76 E0.97332
G1 X192.437 Y26.554 E0.98888
G1 X192.741 Y26.415 E1.00445
G1 X193.164 Y26.35 E1.02437
G1 X194.836 Y26.35 E1.10223
G1 X195.168 Y26.39 E1.1178
G1 X195.48 Y26.507 E1.13332
G1 X195.826 Y26.76 E1.15327
G1 X195.99 Y26.924 E1.16407
G1 X196.196 Y27.187 E1.17963
G1 X196.335 Y27.491 E1.19519
G1 X196.4 Y27.914 E1.21512
G1 X196.4 Y29.586 E1.29298
G1 X196.36 Y29.918 E1.30855
G1 X196.243 Y30.23 E1.32407
G1 X195.99 Y30.576 E1.34402
G1 X195.826 Y30.74 E1.35482
G1 X195.563 Y30.946 E1.37038
G1 X195.259 Y31.085 E1.38594
G1 X194.836 Y31.15 E1.40587
G1 X193.164 Y31.15 E1.48373
G1 X192.832 Y31.11 E1.4993
G1 X192.52 Y30.993 E1.51481
G1 X192.174 Y30.74 E1.53477
G1 X192.01 Y30.576 E1.54557
G1 X191.804 Y30.313 E1.56113
G1 X191.665 Y30.009 E1.57669
G1 X191.6 Y29.586 E1.59662
G1 X191.6 Y27.914 E1.67448
G1 X191.64 Y27.582 E1.69005
M204 S3000
M205 X10 Y10
G0 F3000 X192.2 Y27.659
M204 S1800
M205 X8 Y8
G1 F2400 X192.315 Y27.427 E1.70211
G1 X192.57 Y27.156 E1.71943
G1 X192.779 Y27.004 E1.73147
G1 X193.024 Y26.922 E1.7435
G1 X193.164 Y26.91 E1.75004
G1 X194.836 Y26.91 E1.82789
G1 X195.091 Y26.95 E1.83991
G1 X195.323 Y27.065 E1.85197
G1 X195.594 Y27.32 E1.8693
G1 X195.746 Y27.529 E1.88133
G1 X195.828 Y27.774 E1.89336
G1 X195.84 Y27.914 E1.8999
G1 X195.84 Y29.586 E1.97776
G1 X195.8 Y29.841 E1.98978
G1 X195.685 Y30.073 E2.00184
G1 X195.43 Y30.344 E2.01916
G1 X195.221 Y30.496 E2.0312
G1 X194.976 Y30.578 E2.04323
G1 X194.836 Y30.59 E2.04977
G1 X193.164 Y30.59 E2.12763
G1 X192.909 Y30.55 E2.13964
G1 X192.677 Y30.435 E2.1517
G1 X192.406 Y30.18 E2.16903
G1 X192.254 Y29.971 E2.18106
G1 X192.172 Y29.726 E2.19309
G1 X192.16 Y29.586 E2.19964
G1 X192.16 Y27.914 E2.27749
G1 X192.2 Y27.659 E2.28951
M204 S3000
M205 X10 Y10
G0 F3000 X192.72 Y27.914
M204 S1800
M205 X8 Y8
G1 F2400 X192.802 Y27.716 E2.29949
G1 X192.966 Y27.552 E2.31029
G1 X193.164 Y27.47 E2.32027
G1 X194.836 Y27.47 E2.39812
G1 X195.034 Y27.552 E2.4081
G1 X195.198 Y27.716 E2.4189
G1 X195.28 Y27.914 E2.42888
G1 X195.28 Y29.586 E2.50674
G1 X195.198 Y29.784 E2.51672
G1 X195.034 Y29.948 E2.52751
G1 X194.836 Y30.03 E2.53749
G1 X193.164 Y30.03 E2.61535
G1 X192.966 Y29.948 E2.62533
G1 X192.802 Y29.784 E2.63613
G1 X192.72 Y29.586 E2.64611
G1 X192.72 Y27.914 E2.72396
M204 S3000
M205 X10 Y10
G1 F2400 E-3.27604
G0 F3000 X192.335 Y27.914
G0 X159.6 Y40.406
M204 S1800
M205 X8 Y8
G1 F2400 E2.72396
G1 X159.659 Y40.561 E2.73168
G1 X160.027 Y41.656 E2.78548
G1 X160.061 Y41.768 E2.79093
G1 X160.44 Y43.152 E2.85774
G1 X160.463 Y43.246 E2.86225
G1 X160.791 Y44.702 E2.93175
G1 X160.807 Y44.782 E2.93554
G1 X161.107 Y46.404 E3.01235
G1 X161.115 Y46.478 E3.01582
G1 X161.358 Y48.119 E3.09306
G1 X161.367 Y48.183 E3.09607
G1 X161.573 Y49.957 E3.17923
G1 X161.579 Y50.011 E3.18176
G1 X161.737 Y51.769 E3.26395
G1 X161.741 Y51.826 E3.26661
G1 X161.868 Y53.837 E3.36044
G1 X161.868 Y53.892 E3.363
G1 X161.935 Y55.712 E3.44781
G1 X161.96 Y57.721 E3.54136
G1 X161.96 Y57.773 E3.54378
G1 X161.936 Y59.729 E3.63487
G1 X161.935 Y59.781 E3.63729
G1 X161.867 Y61.605 E3.72228
G1 X161.868 Y61.659 E3.7248
G1 X161.741 Y63.673 E3.81876
G1 X161.737 Y63.728 E3.82133
G1 X161.572 Y65.572 E3.90754
G1 X161.566 Y65.629 E3.91021
G1 X161.358 Y67.4 E3.99324
G1 X161.348 Y67.464 E3.99626
G1 X161.097 Y69.142 E4.07526
G1 X161.081 Y69.239 E4.07984
G1 X160.79 Y70.81 E4.15423
G1 X160.773 Y70.887 E4.15791
G1 X160.45 Y72.315 E4.22608
G1 X160.426 Y72.411 E4.23069
G1 X160.065 Y73.72 E4.29392
G1 X160.032 Y73.829 E4.29922
G1 X159.631 Y75.025 E4.35796
G1 X159.576 Y75.16 E4.36474
G1 X159.174 Y76.125 E4.41342
G1 X159.087 Y76.308 E4.42286
G1 X158.62 Y77.181 E4.46896
G1 X158.492 Y77.391 E4.48041
G1 X158.071 Y77.996 E4.51473
G1 X157.831 Y78.282 E4.53212
G1 X157.375 Y78.738 E4.56214
G1 X157.183 Y78.907 E4.57405
G1 X156.957 Y79.063 E4.58684
G1 X156.511 Y79.327 E4.61097
G1 X156.152 Y79.493 E4.62939
G1 X155.922 Y79.557 E4.64051
G1 X155.421 Y79.664 E4.66436
G1 X154.985 Y79.71 E4.68478
G1 X141.96 Y79.71 E5.29128
G1 X141.96 Y115.79 E6.97131
G1 X142.645 Y115.79 E7.00321
G1 X143.038 Y115.83 E7.0216
G1 X143.416 Y115.948 E7.04004
G1 X143.762 Y116.139 E7.05844
G1 X144.063 Y116.396 E7.07687
G1 X144.374 Y116.827 E7.10162
G1 X144.532 Y117.123 E7.11725
G1 X144.682 Y117.489 E7.13566
G1 X144.756 Y117.878 E7.1541
G1 X144.75 Y118.273 E7.1725
G1 X144.665 Y118.659 E7.1909
G1 X144.434 Y119.133 E7.21546
G1 X136.781 Y130.612 E7.85787
G1 X136.529 Y130.917 E7.87629
G1 X136.222 Y131.166 E7.89469
G1 X135.87 Y131.348 E7.91315
G1 X135.49 Y131.455 E7.93153
G1 X135.15 Y131.485 E7.94742
G1 X134.85 Y131.485 E7.96139
G1 X134.457 Y131.445 E7.97979
G1 X134.079 Y131.327 E7.99822
G1 X133.733 Y131.136 E8.01663
G1 X133.432 Y130.879 E8.03506
G1 X133.219 Y130.612 E8.05096
G1 X125.566 Y119.133 E8.69337
G1 X125.381 Y118.784 E8.71176
G1 X125.27 Y118.404 E8.7302
G1 X125.237 Y118.01 E8.74861
G1 X125.284 Y117.617 E8.76704
G1 X125.468 Y117.123 E8.79158
G1 X125.626 Y116.827 E8.80721
G1 X125.846 Y116.499 E8.8256
G1 X126.128 Y116.221 E8.84404
G1 X126.46 Y116.006 E8.86246
G1 X126.828 Y115.862 E8.88086
G1 X127.355 Y115.79 E8.90562
G1 X128.04 Y115.79 E8.93752
G1 X128.04 Y79.71 E10.61756
G1 X115.018 Y79.71 E11.22392
G1 X114.62 Y79.669 E11.24255
G1 X114.109 Y79.563 E11.26685
G1 X113.732 Y79.444 E11.28526
G1 X113.53 Y79.343 E11.29577
G1 X113.064 Y79.075 E11.3208
G1 X112.787 Y78.883 E11.3365
G1 X112.624 Y78.736 E11.34672
G1 X112.167 Y78.278 E11.37684
G1 X111.934 Y78 E11.39373
G1 X111.491 Y77.367 E11.42971
G1 X111.355 Y77.145 E11.44183
G1 X110.907 Y76.298 E11.48645
G1 X110.829 Y76.131 E11.49503
G1 X110.428 Y75.161 E11.54391
G1 X110.371 Y75.029 E11.5506
G1 X109.973 Y73.844 E11.60881
G1 X109.939 Y73.731 E11.61431
G1 X109.56 Y72.348 E11.68108
G1 X109.537 Y72.253 E11.68563
G1 X109.209 Y70.797 E11.75513
G1 X109.193 Y70.718 E11.75888
G1 X108.893 Y69.097 E11.83564
G1 X108.885 Y69.022 E11.83915
G1 X108.642 Y67.381 E11.9164
G1 X108.633 Y67.317 E11.91941
G1 X108.427 Y65.543 E12.00257
G1 X108.421 Y65.489 E12.0051
G1 X108.263 Y63.731 E12.08729
G1 X108.259 Y63.674 E12.08995
G1 X108.132 Y61.663 E12.18378
G1 X108.132 Y61.608 E12.18634
G1 X108.065 Y59.781 E12.27147
G1 X108.04 Y57.78 E12.36465
G1 X108.04 Y57.725 E12.36721
G1 X108.068 Y55.671 E12.46286
G1 X108.069 Y55.622 E12.46514
G1 X108.133 Y53.891 E12.5458
G1 X108.132 Y53.834 E12.54846
G1 X108.267 Y51.73 E12.64663
G1 X108.271 Y51.676 E12.64915
G1 X108.438 Y49.837 E12.73513
G1 X108.656 Y48.012 E12.82072
G1 X108.665 Y47.944 E12.82391
G1 X108.919 Y46.271 E12.90271
G1 X108.929 Y46.21 E12.90558
G1 X109.195 Y44.766 E12.97395
G1 X109.244 Y44.535 E12.98495
G1 X109.551 Y43.184 E13.04946
G1 X109.573 Y43.089 E13.054
G1 X109.94 Y41.764 E13.11802
G1 X109.976 Y41.648 E13.12368
G1 X110.381 Y40.455 E13.18234
G1 X110.438 Y40.309 E13.18964
G1 X110.827 Y39.375 E13.23675
G1 X110.908 Y39.201 E13.24569
G1 X111.354 Y38.357 E13.29014
G1 X111.491 Y38.131 E13.30245
G1 X111.935 Y37.498 E13.33845
G1 X112.167 Y37.222 E13.35524
G1 X112.624 Y36.764 E13.38537
G1 X112.817 Y36.593 E13.39737
G1 X113.043 Y36.437 E13.41016
G1 X113.489 Y36.173 E13.43429
G1 X113.848 Y36.007 E13.45271
G1 X114.078 Y35.943 E13.46383
G1 X114.579 Y35.836 E13.48768
G1 X115.015 Y35.79 E13.5081
G1 X154.983 Y35.79 E15.36917
G1 X155.109 Y35.794 E15.37504
G1 X155.452 Y35.842 E15.39117
G1 X155.971 Y35.961 E15.41597
G1 X156.346 Y36.087 E15.43439
G1 X156.548 Y36.195 E15.44505
G1 X157.002 Y36.47 E15.46977
G1 X157.375 Y36.762 E15.49183
G1 X157.814 Y37.202 E15.52077
G1 X158.072 Y37.509 E15.53944
G1 X158.535 Y38.18 E15.5774
G1 X158.662 Y38.389 E15.58879
G1 X159.092 Y39.201 E15.63157
G1 X159.171 Y39.369 E15.64022
G1 X159.6 Y40.406 E15.69247
M204 S3000
M205 X10 Y10
G0 F3000 X159.092 Y40.643
M204 S1800
M205 X8 Y8
G1 F2400 X159.128 Y40.739 E15.69725
G1 X159.496 Y41.834 E15.75104
G1 X159.521 Y41.916 E15.75503
G1 X159.9 Y43.3 E15.82185
G1 X159.917 Y43.369 E15.82516
G1 X160.245 Y44.825 E15.89465
G1 X160.257 Y44.883 E15.89741
G1 X160.557 Y46.505 E15.97422
G1 X160.561 Y46.56 E15.97679
G1 X160.804 Y48.201 E16.05403
G1 X160.811 Y48.248 E16.05624
G1 X161.017 Y50.022 E16.1394
G1 X161.021 Y50.061 E16.14123
G1 X161.179 Y51.819 E16.22342
G1 X161.182 Y51.862 E16.22543
G1 X161.309 Y53.873 E16.31925
G1 X161.308 Y53.912 E16.32107
G1 X161.375 Y55.732 E16.40587
G1 X161.376 Y55.788 E16.40848
G1 X161.4 Y57.728 E16.49882
G1 X161.4 Y57.766 E16.50059
G1 X161.376 Y59.722 E16.59168
G1 X161.375 Y59.76 E16.59345
G1 X161.309 Y61.52 E16.67546
G1 X161.309 Y61.624 E16.6803
G1 X161.182 Y63.638 E16.77427
G1 X161.179 Y63.678 E16.77614
G1 X161.014 Y65.522 E16.86235
G1 X161.009 Y65.563 E16.86427
G1 X160.801 Y67.334 E16.9473
G1 X160.795 Y67.381 E16.94951
G1 X160.544 Y69.059 E17.02851
G1 X160.531 Y69.137 E17.03219
G1 X160.24 Y70.708 E17.10659
G1 X160.227 Y70.764 E17.10927
G1 X159.904 Y72.192 E17.17744
G1 X159.887 Y72.262 E17.18079
G1 X159.526 Y73.571 E17.24402
G1 X159.501 Y73.651 E17.24792
G1 X159.1 Y74.847 E17.30666
G1 X159.059 Y74.944 E17.31157
G1 X158.657 Y75.909 E17.36024
G1 X158.593 Y76.043 E17.36716
G1 X158.126 Y76.916 E17.41326
G1 X158.032 Y77.071 E17.4217
G1 X157.611 Y77.676 E17.45602
G1 X157.435 Y77.886 E17.46878
G1 X156.979 Y78.342 E17.49881
G1 X156.672 Y78.581 E17.51692
G1 X156.226 Y78.845 E17.54106
G1 X155.805 Y79.009 E17.5621
G1 X155.304 Y79.116 E17.58595
G1 X154.985 Y79.15 E17.60089
G1 X141.4 Y79.15 E18.23346
G1 X141.4 Y116.35 E19.96565
G1 X142.645 Y116.35 E20.02362
G1 X142.977 Y116.39 E20.0392
G1 X143.289 Y116.507 E20.05471
G1 X143.566 Y116.695 E20.0703
G1 X143.789 Y116.943 E20.08583
G1 X144.038 Y117.387 E20.10953
G1 X144.159 Y117.698 E20.12507
G1 X144.203 Y118.029 E20.14062
G1 X144.167 Y118.361 E20.15617
G1 X144.053 Y118.676 E20.17177
G1 X143.968 Y118.823 E20.17968
G1 X136.315 Y130.302 E20.82209
G1 X136.098 Y130.555 E20.83761
G1 X135.827 Y130.751 E20.85318
G1 X135.517 Y130.876 E20.86874
G1 X135.15 Y130.925 E20.88598
G1 X134.85 Y130.925 E20.89995
G1 X134.518 Y130.885 E20.91553
G1 X134.206 Y130.768 E20.93104
G1 X133.929 Y130.58 E20.94663
G1 X133.685 Y130.302 E20.96385
G1 X126.032 Y118.823 E21.60626
G1 X125.881 Y118.525 E21.62182
G1 X125.805 Y118.199 E21.63741
G1 X125.809 Y117.865 E21.65296
G1 X125.891 Y117.541 E21.66852
G1 X126.12 Y117.091 E21.69203
G1 X126.311 Y116.817 E21.70759
G1 X126.562 Y116.596 E21.72316
G1 X126.858 Y116.441 E21.73872
G1 X127.182 Y116.361 E21.75426
G1 X127.355 Y116.35 E21.76233
G1 X128.6 Y116.35 E21.8203
G1 X128.6 Y79.15 E23.55249
G1 X115.018 Y79.15 E24.18492
G1 X114.734 Y79.121 E24.19822
G1 X114.223 Y79.015 E24.22252
G1 X113.809 Y78.858 E24.24313
G1 X113.343 Y78.59 E24.26817
G1 X113.136 Y78.445 E24.27993
G1 X113.02 Y78.341 E24.28719
G1 X112.563 Y77.883 E24.31732
G1 X112.393 Y77.679 E24.32968
G1 X111.95 Y77.046 E24.36566
G1 X111.85 Y76.884 E24.37452
G1 X111.402 Y76.037 E24.41914
G1 X111.346 Y75.917 E24.42531
G1 X110.991 Y75.059 E24.46854
G1 X110.902 Y74.851 E24.47908
G1 X110.504 Y73.666 E24.53728
G1 X110.479 Y73.583 E24.54132
G1 X110.1 Y72.2 E24.60809
G1 X110.083 Y72.13 E24.61145
G1 X109.755 Y70.674 E24.68094
G1 X109.743 Y70.616 E24.6837
G1 X109.443 Y68.995 E24.76046
G1 X109.439 Y68.94 E24.76303
G1 X109.196 Y67.299 E24.84028
G1 X109.189 Y67.252 E24.84249
G1 X108.983 Y65.478 E24.92565
G1 X108.979 Y65.439 E24.92748
G1 X108.821 Y63.681 E25.00967
G1 X108.818 Y63.638 E25.01167
G1 X108.691 Y61.627 E25.1055
G1 X108.692 Y61.587 E25.10736
G1 X108.625 Y59.76 E25.19249
G1 X108.624 Y59.705 E25.19505
G1 X108.6 Y57.773 E25.28502
G1 X108.6 Y57.733 E25.28689
G1 X108.628 Y55.679 E25.38254
G1 X108.629 Y55.642 E25.38426
G1 X108.693 Y53.911 E25.46492
G1 X108.691 Y53.87 E25.46683
G1 X108.826 Y51.766 E25.565
G1 X108.829 Y51.726 E25.56687
G1 X108.996 Y49.887 E25.65285
G1 X109.212 Y48.078 E25.73769
G1 X109.222 Y48.008 E25.74098
G1 X109.473 Y46.355 E25.81883
G1 X109.48 Y46.311 E25.82091
G1 X109.746 Y44.867 E25.88928
G1 X109.79 Y44.659 E25.89918
G1 X110.097 Y43.308 E25.96369
G1 X110.113 Y43.238 E25.96703
G1 X110.48 Y41.913 E26.03105
G1 X110.506 Y41.828 E26.03519
G1 X110.911 Y40.635 E26.09386
G1 X110.972 Y40.484 E26.10144
G1 X111.344 Y39.591 E26.14649
G1 X111.403 Y39.463 E26.15305
G1 X111.849 Y38.619 E26.1975
G1 X111.95 Y38.453 E26.20655
G1 X112.394 Y37.82 E26.24255
G1 X112.563 Y37.617 E26.25485
G1 X113.02 Y37.159 E26.28498
G1 X113.328 Y36.919 E26.30316
G1 X113.774 Y36.655 E26.32729
G1 X114.195 Y36.491 E26.34833
G1 X114.696 Y36.384 E26.37218
G1 X115.015 Y36.35 E26.38712
G1 X154.983 Y36.35 E28.2482
G1 X155.073 Y36.353 E28.25239
G1 X155.327 Y36.387 E28.26433
G1 X155.846 Y36.506 E28.28912
G1 X156.258 Y36.674 E28.30984
G1 X156.712 Y36.949 E28.33455
G1 X156.978 Y37.157 E28.35028
G1 X157.417 Y37.597 E28.37922
G1 X157.611 Y37.827 E28.39323
G1 X158.074 Y38.498 E28.43119
G1 X158.167 Y38.651 E28.43953
G1 X158.597 Y39.463 E28.48231
G1 X158.654 Y39.583 E28.4885
G1 X159.092 Y40.643 E28.5419
M204 S3000
M205 X10 Y10
G0 F3000 X158.57 Y40.847
M204 S1800
M205 X8 Y8
G1 F2400 X158.597 Y40.917 E28.5454
G1 X158.965 Y42.012 E28.59919
G1 X158.981 Y42.064 E28.60172
G1 X159.36 Y43.448 E28.66854
G1 X159.698 Y44.948 E28.74014
G1 X159.706 Y44.985 E28.7419
G1 X160.006 Y46.607 E28.81871
G1 X160.007 Y46.642 E28.82034
G1 X160.25 Y48.283 E28.89758
G1 X160.254 Y48.312 E28.89895
G1 X160.46 Y50.086 E28.98211
G1 X160.464 Y50.111 E28.98328
G1 X160.622 Y51.869 E29.06547
G1 X160.623 Y51.897 E29.06678
G1 X160.75 Y53.908 E29.16061
G1 X160.748 Y53.933 E29.16177
G1 X160.815 Y55.753 E29.24658
G1 X160.816 Y55.788 E29.24821
G1 X160.84 Y57.735 E29.33888
G1 X160.84 Y57.759 E29.33999
G1 X160.816 Y59.715 E29.43108
G1 X160.815 Y59.739 E29.4322
G1 X160.748 Y61.544 E29.5163
G1 X160.75 Y61.589 E29.5184
G1 X160.623 Y63.603 E29.61237
G1 X160.622 Y63.628 E29.61353
G1 X160.457 Y65.472 E29.69974
G1 X160.453 Y65.498 E29.70097
G1 X160.245 Y67.269 E29.784
G1 X160.241 Y67.298 E29.78536
G1 X159.99 Y68.976 E29.86436
G1 X159.98 Y69.035 E29.86715
G1 X159.689 Y70.606 E29.94155
G1 X159.68 Y70.64 E29.94319
G1 X159.357 Y72.068 E30.01136
G1 X159.347 Y72.113 E30.01351
G1 X158.986 Y73.422 E30.07673
G1 X158.97 Y73.473 E30.07922
G1 X158.569 Y74.669 E30.13796
G1 X158.542 Y74.729 E30.14102
G1 X158.14 Y75.694 E30.1897
G1 X158.1 Y75.779 E30.19408
G1 X157.633 Y76.652 E30.24018
