;FLAVOR:Marlin
;TIME:1308
;Filament used: 0.491678m
;Layer height: 0.1
;MINX:78.1
;MINY:90.6
;MINZ:0.1
;MAXX:131.9
;MAXY:119.4
;MAXZ:10.075
;Generated with Cura_SteamEngine 4.8.0
M140 S60
M105
M190 S60
M104 S200
M105
M109 S200
M82 ;absolute extrusion mode
G21 ;metric values
G90 ;absolute positioning
M82 ;set extruder to absolute mode
M107 ;start with the fan off
G28 X0 Y0 ;move X/Y to min endstops
G28 Z0 ;move Z to min endstops
G1 Z15.0 F50 ;move the platform down 15mm
G92 E0 ;zero the extruded length
G1 F200 E3 ;extrude 3mm of feed stock
G92 E0 ;zero the extruded length again
G1 F50
G0 Y20 F50
M117 Printing...
G5
G92 E0
G92 E0
G1 F2400 E-6
;LAYER_COUNT:100
;LAYER:0
M106 S255
M204 S3000
M205 X10 Y10
G1 F600 Z0.175
G0 F1500 X80.571 Y91.964 Z0.175
M204 S1800
M205 X8 Y8
;TYPE:SKIRT
G1 F600 Z0.1
G1 F2400 E0
G1 X81.159 Y91.556 E0.01666
G1 X81.788 Y91.216 E0.03331
G1 X82.452 Y90.949 E0.04997
G1 X83.141 Y90.757 E0.06662
G1 X83.847 Y90.643 E0.08327
G1 X84.651 Y90.603 E0.10202
G1 X84.83 Y90.6 E0.10618
G1 X124.793 Y90.6 E1.03661
G1 X125.583 Y90.611 E1.055
G1 X126.296 Y90.661 E1.07164
G1 X127 Y90.79 E1.08831
G1 X127.684 Y90.998 E1.10495
G1 X128.341 Y91.28 E1.1216
G1 X128.963 Y91.634 E1.13826
G1 X129.541 Y92.055 E1.15491
G1 X130.069 Y92.538 E1.17157
G1 X130.539 Y93.076 E1.1882
G1 X130.947 Y93.664 E1.20486
G1 X131.286 Y94.294 E1.22152
G1 X131.553 Y94.957 E1.23816
G1 X131.744 Y95.647 E1.25483
G1 X131.857 Y96.353 E1.27148
G1 X131.897 Y97.15 E1.29005
G1 X131.9 Y97.33 E1.29425
G1 X131.9 Y112.343 E1.64378
G1 X131.891 Y113.07 E1.66071
G1 X131.842 Y113.784 E1.67737
G1 X131.714 Y114.488 E1.69403
G1 X131.508 Y115.173 E1.71068
G1 X131.227 Y115.83 E1.72732
G1 X130.874 Y116.453 E1.74399
G1 X130.454 Y117.032 E1.76064
G1 X129.972 Y117.56 E1.77729
G1 X129.435 Y118.032 E1.79393
G1 X128.847 Y118.44 E1.8106
G1 X128.218 Y118.781 E1.82726
G1 X127.555 Y119.049 E1.84391
G1 X126.866 Y119.241 E1.86056
G1 X126.16 Y119.356 E1.87721
G1 X125.349 Y119.397 E1.89612
G1 X125.17 Y119.4 E1.90029
G1 X85.124 Y119.399 E2.83264
G1 X84.426 Y119.39 E2.84889
G1 X83.713 Y119.341 E2.86553
G1 X83.009 Y119.213 E2.88219
G1 X82.324 Y119.007 E2.89884
G1 X81.667 Y118.725 E2.91549
G1 X81.045 Y118.372 E2.93214
G1 X80.466 Y117.952 E2.9488
G1 X79.937 Y117.47 E2.96546
G1 X79.466 Y116.932 E2.9821
G1 X79.058 Y116.345 E2.99875
G1 X78.718 Y115.715 E3.01542
G1 X78.45 Y115.052 E3.03207
G1 X78.258 Y114.363 E3.04872
G1 X78.144 Y113.657 E3.06537
G1 X78.102 Y112.831 E3.08462
G1 X78.1 Y112.658 E3.08865
G1 X78.101 Y97.587 E3.43954
G1 X78.11 Y96.922 E3.45502
G1 X78.159 Y96.209 E3.47166
G1 X78.288 Y95.505 E3.48832
G1 X78.495 Y94.821 E3.50496
G1 X78.777 Y94.163 E3.52163
G1 X79.13 Y93.541 E3.53828
G1 X79.55 Y92.963 E3.55491
G1 X80.033 Y92.435 E3.57157
G1 X80.571 Y91.964 E3.58822
M204 S3000
M205 X10 Y10
G0 F1500 X81.112 Y92.259
M204 S1800
M205 X8 Y8
G1 F2400 X81.69 Y91.894 E3.60414
G1 X82.307 Y91.6 E3.62005
G1 X82.953 Y91.38 E3.63594
G1 X83.621 Y91.237 E3.65184
G1 X84.345 Y91.171 E3.66877
G1 X84.83 Y91.16 E3.68006
G1 X124.793 Y91.16 E4.61049
G1 X125.575 Y91.171 E4.6287
G1 X126.256 Y91.22 E4.64459
G1 X126.927 Y91.349 E4.6605
G1 X127.578 Y91.556 E4.6764
G1 X128.201 Y91.837 E4.69232
G1 X128.787 Y92.189 E4.70823
G1 X129.327 Y92.607 E4.72413
G1 X129.815 Y93.085 E4.74003
G1 X130.244 Y93.617 E4.75595
G1 X130.608 Y94.195 E4.77185
G1 X130.902 Y94.812 E4.78776
G1 X131.121 Y95.459 E4.80366
G1 X131.264 Y96.127 E4.81957
G1 X131.329 Y96.846 E4.83638
G1 X131.34 Y97.33 E4.84765
G1 X131.34 Y112.336 E5.19702
G1 X131.331 Y113.063 E5.21395
G1 X131.282 Y113.745 E5.22987
G1 X131.154 Y114.416 E5.24577
G1 X130.949 Y115.068 E5.26168
G1 X130.669 Y115.691 E5.27759
G1 X130.319 Y116.277 E5.29348
G1 X129.902 Y116.819 E5.3094
G1 X129.425 Y117.308 E5.3253
G1 X128.894 Y117.737 E5.3412
G1 X128.316 Y118.102 E5.35711
G1 X127.7 Y118.397 E5.37301
G1 X127.053 Y118.618 E5.38893
G1 X126.385 Y118.762 E5.40484
G1 X125.655 Y118.829 E5.42191
G1 X125.17 Y118.84 E5.4332
G1 X85.132 Y118.84 E6.36537
G1 X84.434 Y118.831 E6.38162
G1 X83.752 Y118.782 E6.39754
G1 X83.081 Y118.654 E6.41345
G1 X82.43 Y118.448 E6.42935
G1 X81.806 Y118.168 E6.44527
G1 X81.22 Y117.817 E6.46117
G1 X80.679 Y117.4 E6.47708
G1 X80.19 Y116.922 E6.493
G1 X79.761 Y116.391 E6.50889
G1 X79.396 Y115.813 E6.52481
G1 X79.102 Y115.197 E6.5407
G1 X78.881 Y114.55 E6.55661
G1 X78.737 Y113.882 E6.57252
G1 X78.671 Y113.149 E6.58966
G1 X78.66 Y112.658 E6.60109
G1 X78.661 Y97.595 E6.95179
G1 X78.67 Y96.93 E6.96728
G1 X78.719 Y96.249 E6.98317
G1 X78.847 Y95.577 E6.9991
G1 X79.053 Y94.926 E7.015
G1 X79.334 Y94.303 E7.03091
G1 X79.685 Y93.717 E7.04681
G1 X80.103 Y93.176 E7.06273
G1 X80.58 Y92.688 E7.07862
G1 X81.112 Y92.259 E7.09453
M204 S3000
M205 X10 Y10
G0 F1500 X81.126 Y92.955
M204 S1800
M205 X8 Y8
G1 F2400 X81.649 Y92.571 E7.10963
G1 X82.216 Y92.253 E7.12477
G1 X82.817 Y92.007 E7.13989
G1 X83.444 Y91.837 E7.15501
G1 X84.361 Y91.731 E7.17651
G1 X84.83 Y91.72 E7.18743
G1 X124.793 Y91.72 E8.11785
G1 X125.567 Y91.731 E8.13587
G1 X126.214 Y91.78 E8.15098
G1 X126.851 Y91.908 E8.16611
G1 X127.467 Y92.114 E8.18123
G1 X128.054 Y92.394 E8.19637
G1 X128.601 Y92.743 E8.21148
G1 X129.102 Y93.157 E8.22661
G1 X129.547 Y93.63 E8.24173
G1 X129.932 Y94.154 E8.25687
G1 X130.249 Y94.721 E8.27199
G1 X130.494 Y95.322 E8.2871
G1 X130.663 Y95.949 E8.30222
G1 X130.769 Y96.862 E8.32362
G1 X130.78 Y97.33 E8.33452
G1 X130.78 Y112.329 E8.68373
G1 X130.771 Y113.056 E8.70065
G1 X130.723 Y113.704 E8.71578
G1 X130.595 Y114.341 E8.73091
G1 X130.391 Y114.958 E8.74604
G1 X130.112 Y115.545 E8.76117
G1 X129.764 Y116.093 E8.77629
G1 X129.351 Y116.594 E8.7914
G1 X128.879 Y117.041 E8.80654
G1 X128.356 Y117.426 E8.82166
G1 X127.79 Y117.744 E8.83677
G1 X127.188 Y117.991 E8.85192
G1 X126.562 Y118.161 E8.86702
G1 X125.639 Y118.269 E8.88866
G1 X125.17 Y118.28 E8.89958
G1 X85.139 Y118.28 E9.83159
G1 X84.441 Y118.271 E9.84784
G1 X83.793 Y118.222 E9.86297
G1 X83.156 Y118.095 E9.87809
G1 X82.54 Y117.89 E9.89321
G1 X81.953 Y117.611 E9.90834
G1 X81.405 Y117.262 E9.92347
G1 X80.904 Y116.849 E9.93858
G1 X80.457 Y116.377 E9.95372
G1 X80.072 Y115.854 E9.96884
G1 X79.754 Y115.287 E9.98397
G1 X79.508 Y114.686 E9.99909
G1 X79.338 Y114.059 E10.01422
G1 X79.231 Y113.134 E10.0359
G1 X79.22 Y112.658 E10.04698
G1 X79.22 Y97.603 E10.39749
G1 X79.229 Y96.938 E10.41298
G1 X79.278 Y96.29 E10.42811
G1 X79.406 Y95.653 E10.44324
G1 X79.611 Y95.036 E10.45837
G1 X79.891 Y94.45 E10.47349
G1 X80.24 Y93.902 E10.48862
G1 X80.654 Y93.401 E10.50375
G1 X81.126 Y92.955 E10.51887
M204 S3000
M205 X10 Y10
G1 F2400 E4.51887
;MESH:hall_cover.obj
G0 F1500 X85.354 Y96.335
G0 X85.354 Y97.854
G0 X124.1 Y111.6
M204 S1800
M205 X8 Y8
;TYPE:WALL-INNER
G1 F2400 E10.51887
G1 F1500 X85.9 Y111.6 E11.40825
G1 X85.9 Y98.4 E11.71557
G1 X124.1 Y98.4 E12.60495
G1 X124.1 Y111.6 E12.91227
M204 S3000
M205 X10 Y10
G0 X124.66 Y112.16
M204 S1800
M205 X8 Y8
G1 X85.34 Y112.16 E13.82772
G1 X85.34 Y97.84 E14.16112
G1 X124.66 Y97.84 E15.07657
G1 X124.66 Y112.16 E15.40997
M204 S3000
M205 X10 Y10
G0 X125.22 Y112.72
M204 S1800
M205 X8 Y8
;TYPE:WALL-OUTER
G1 X84.78 Y112.72 E16.3515
G1 X84.78 Y97.28 E16.71098
G1 X125.22 Y97.28 E17.6525
G1 X125.22 Y112.72 E18.01198
M204 S3000
M205 X10 Y10
G0 X125.02 Y112.72
G0 X124.59 Y112.09
G0 X123.55 Y111.05
M204 S1800
M205 X8 Y8
;TYPE:SKIN
G1 X86.45 Y111.05 E18.87574
G1 X86.45 Y98.95 E19.15746
G1 X123.55 Y98.95 E20.02122
G1 X123.55 Y111.05 E20.30294
M204 S3000
M205 X10 Y10
G0 X123.289 Y99.53
M204 S1800
M205 X8 Y8
G1 X122.968 Y99.209 E20.31351
M204 S3000
M205 X10 Y10
G0 X122.176 Y99.209
M204 S1800
M205 X8 Y8
G1 X123.289 Y100.322 E20.35015
M204 S3000
M205 X10 Y10
G0 X123.289 Y101.114
M204 S1800
M205 X8 Y8
G1 X121.384 Y99.209 E20.41288
M204 S3000
M205 X10 Y10
G0 X120.592 Y99.209
M204 S1800
M205 X8 Y8
G1 X123.289 Y101.906 E20.50168
M204 S3000
M205 X10 Y10
G0 X123.289 Y102.698
M204 S1800
M205 X8 Y8
G1 X119.8 Y99.209 E20.61656
M204 S3000
M205 X10 Y10
G0 X119.008 Y99.209
M204 S1800
M205 X8 Y8
G1 X123.289 Y103.49 E20.75751
M204 S3000
M205 X10 Y10
G0 X123.289 Y104.282
M204 S1800
M205 X8 Y8
G1 X118.216 Y99.209 E20.92454
M204 S3000
M205 X10 Y10
G0 X117.424 Y99.209
M204 S1800
M205 X8 Y8
G1 X123.289 Y105.074 E21.11765
M204 S3000
M205 X10 Y10
G0 X123.289 Y105.866
M204 S1800
M205 X8 Y8
G1 X116.633 Y99.209 E21.33683
M204 S3000
M205 X10 Y10
G0 X115.841 Y99.209
M204 S1800
M205 X8 Y8
G1 X123.289 Y106.658 E21.58207
M204 S3000
M205 X10 Y10
G0 X123.289 Y107.45
M204 S1800
M205 X8 Y8
G1 X115.049 Y99.209 E21.8534
M204 S3000
M205 X10 Y10
G0 X114.257 Y99.209
M204 S1800
M205 X8 Y8
G1 X123.289 Y108.242 E22.1508
M204 S3000
M205 X10 Y10
G0 X123.289 Y109.034
M204 S1800
M205 X8 Y8
G1 X113.465 Y99.209 E22.47428
M204 S3000
M205 X10 Y10
G0 X112.673 Y99.209
M204 S1800
M205 X8 Y8
G1 X123.289 Y109.826 E22.82384
M204 S3000
M205 X10 Y10
G0 X123.289 Y110.618
M204 S1800
M205 X8 Y8
G1 X111.881 Y99.209 E23.19947
M204 S3000
M205 X10 Y10
G0 X111.089 Y99.209
M204 S1800
M205 X8 Y8
G1 X122.668 Y110.789 E23.58074
M204 S3000
M205 X10 Y10
G0 X121.876 Y110.789
M204 S1800
M205 X8 Y8
G1 X110.297 Y99.209 E23.962
M204 S3000
M205 X10 Y10
G0 X109.505 Y99.209
M204 S1800
M205 X8 Y8
G1 X121.084 Y110.789 E24.34327
M204 S3000
M205 X10 Y10
G0 X120.293 Y110.789
M204 S1800
M205 X8 Y8
G1 X108.713 Y99.209 E24.72455
M204 S3000
M205 X10 Y10
G0 X107.921 Y99.209
M204 S1800
M205 X8 Y8
G1 X119.501 Y110.789 E25.10583
M204 S3000
M205 X10 Y10
G0 X118.709 Y110.789
M204 S1800
M205 X8 Y8
G1 X107.129 Y99.209 E25.48711
M204 S3000
M205 X10 Y10
G0 X106.337 Y99.209
M204 S1800
M205 X8 Y8
G1 X117.917 Y110.789 E25.86839
M204 S3000
M205 X10 Y10
G0 X117.125 Y110.789
M204 S1800
M205 X8 Y8
G1 X105.545 Y99.209 E26.24968
M204 S3000
M205 X10 Y10
G0 X104.753 Y99.209
M204 S1800
M205 X8 Y8
G1 X116.333 Y110.789 E26.63096
M204 S3000
M205 X10 Y10
G0 X115.541 Y110.789
M204 S1800
M205 X8 Y8
G1 X103.961 Y99.209 E27.01224
M204 S3000
M205 X10 Y10
G0 X103.169 Y99.209
M204 S1800
M205 X8 Y8
G1 X114.749 Y110.789 E27.39352
M204 S3000
M205 X10 Y10
G0 X113.957 Y110.789
M204 S1800
M205 X8 Y8
G1 X102.377 Y99.209 E27.7748
M204 S3000
M205 X10 Y10
G0 X101.585 Y99.209
M204 S1800
M205 X8 Y8
G1 X113.165 Y110.789 E28.15608
M204 S3000
M205 X10 Y10
G0 X112.373 Y110.789
M204 S1800
M205 X8 Y8
G1 X100.793 Y99.209 E28.53736
M204 S3000
M205 X10 Y10
G0 X100.001 Y99.209
M204 S1800
M205 X8 Y8
G1 X111.581 Y110.789 E28.91865
M204 S3000
M205 X10 Y10
G0 X110.789 Y110.789
M204 S1800
M205 X8 Y8
G1 X99.209 Y99.209 E29.29993
M204 S3000
M205 X10 Y10
G0 X98.417 Y99.209
M204 S1800
M205 X8 Y8
G1 X109.997 Y110.789 E29.68121
M204 S3000
M205 X10 Y10
G0 X109.205 Y110.789
M204 S1800
M205 X8 Y8
G1 X97.625 Y99.209 E30.06249
M204 S3000
M205 X10 Y10
G0 X96.834 Y99.209
M204 S1800
M205 X8 Y8
G1 X108.413 Y110.789 E30.44375
M204 S3000
M205 X10 Y10
G0 X107.621 Y110.789
M204 S1800
M205 X8 Y8
G1 X96.042 Y99.209 E30.82502
M204 S3000
M205 X10 Y10
G0 X95.25 Y99.209
M204 S1800
M205 X8 Y8
G1 X106.829 Y110.789 E31.20628
M204 S3000
M205 X10 Y10
G0 X106.037 Y110.789
M204 S1800
M205 X8 Y8
G1 X94.458 Y99.209 E31.58755
M204 S3000
M205 X10 Y10
G0 X93.666 Y99.209
M204 S1800
M205 X8 Y8
G1 X105.245 Y110.789 E31.96881
M204 S3000
M205 X10 Y10
G0 X104.453 Y110.789
M204 S1800
M205 X8 Y8
G1 X92.874 Y99.209 E32.35008
M204 S3000
M205 X10 Y10
G0 X92.082 Y99.209
M204 S1800
M205 X8 Y8
G1 X103.661 Y110.789 E32.73134
M204 S3000
M205 X10 Y10
G0 X102.869 Y110.789
M204 S1800
M205 X8 Y8
G1 X91.29 Y99.209 E33.11261
M204 S3000
M205 X10 Y10
G0 X90.498 Y99.209
M204 S1800
M205 X8 Y8
G1 X102.077 Y110.789 E33.49387
M204 S3000
M205 X10 Y10
G0 X101.285 Y110.789
M204 S1800
M205 X8 Y8
G1 X89.706 Y99.209 E33.87514
M204 S3000
M205 X10 Y10
G0 X88.914 Y99.209
M204 S1800
M205 X8 Y8
G1 X100.494 Y110.789 E34.25642
M204 S3000
M205 X10 Y10
G0 X99.702 Y110.789
M204 S1800
M205 X8 Y8
G1 X88.122 Y99.209 E34.6377
M204 S3000
M205 X10 Y10
G0 X87.33 Y99.209
M204 S1800
M205 X8 Y8
G1 X98.91 Y110.789 E35.01898
M204 S3000
M205 X10 Y10
G0 X98.118 Y110.789
M204 S1800
M205 X8 Y8
G1 X86.709 Y99.381 E35.39462
M204 S3000
M205 X10 Y10
G0 X86.709 Y100.172
M204 S1800
M205 X8 Y8
G1 X97.326 Y110.789 E35.74419
M204 S3000
M205 X10 Y10
G0 X96.534 Y110.789
M204 S1800
M205 X8 Y8
G1 X86.709 Y100.964 E36.06769
M204 S3000
M205 X10 Y10
G0 X86.709 Y101.756
M204 S1800
M205 X8 Y8
G1 X95.742 Y110.789 E36.36511
M204 S3000
M205 X10 Y10
G0 X94.95 Y110.789
M204 S1800
M205 X8 Y8
G1 X86.709 Y102.548 E36.63645
M204 S3000
M205 X10 Y10
G0 X86.709 Y103.34
M204 S1800
M205 X8 Y8
G1 X94.158 Y110.789 E36.88171
M204 S3000
M205 X10 Y10
G0 X93.366 Y110.789
M204 S1800
M205 X8 Y8
G1 X86.709 Y104.132 E37.1009
M204 S3000
M205 X10 Y10
G0 X86.709 Y104.924
M204 S1800
M205 X8 Y8
G1 X92.574 Y110.789 E37.29401
M204 S3000
M205 X10 Y10
G0 X91.782 Y110.789
M204 S1800
M205 X8 Y8
G1 X86.709 Y105.716 E37.46104
M204 S3000
M205 X10 Y10
G0 X86.709 Y106.508
M204 S1800
M205 X8 Y8
G1 X90.99 Y110.789 E37.602
M204 S3000
M205 X10 Y10
G0 X90.198 Y110.789
M204 S1800
M205 X8 Y8
G1 X86.709 Y107.3 E37.71688
M204 S3000
M205 X10 Y10
G0 X86.709 Y108.092
M204 S1800
M205 X8 Y8
G1 X89.406 Y110.789 E37.80568
M204 S3000
M205 X10 Y10
G0 X88.614 Y110.789
M204 S1800
M205 X8 Y8
G1 X86.709 Y108.884 E37.8684
M204 S3000
M205 X10 Y10
G0 X86.709 Y109.676
M204 S1800
M205 X8 Y8
G1 X87.822 Y110.789 E37.90505
M204 S3000
M205 X10 Y10
G0 X87.03 Y110.789
M204 S1800
M205 X8 Y8
G1 X86.709 Y110.468 E37.91562
M204 S3000
M205 X10 Y10
;MESH:NONMESH
G0 F600 X86.709 Y110.468 Z0.2
G0 F1500 X124.5 Y112
;TIME_ELAPSED:71.761226
;LAYER:1
M204 S1800
M205 X8 Y8
;TYPE:WALL-INNER
;MESH:hall_cover.obj
G1 F2250 X85.5 Y112 E38.56419
G1 X85.5 Y98 E38.79701
G1 X124.5 Y98 E39.44558
G1 X124.5 Y112 E39.67841
M204 S3000
M205 X10 Y10
G0 X124.9 Y112.4
M204 S1800
M205 X8 Y8
G1 X85.1 Y112.4 E40.34028
G1 X85.1 Y97.6 E40.58641
G1 X124.9 Y97.6 E41.24828
G1 X124.9 Y112.4 E41.49441
M204 S3000
M205 X10 Y10
G0 X125.3 Y112.8
M204 S1800
M205 X8 Y8
;TYPE:WALL-OUTER
G1 X84.7 Y112.8 E42.16959
G1 X84.7 Y97.2 E42.42902
G1 X125.3 Y97.2 E43.1042
G1 X125.3 Y112.8 E43.36363
M204 S3000
M205 X10 Y10
G0 X125.1 Y112.8
G0 X124.83 Y112.33
G0 X124.11 Y111.61
M204 S1800
M205 X8 Y8
;TYPE:SKIN
G1 F1350 X85.89 Y111.61 E43.99923
G1 X85.89 Y98.39 E44.21908
G1 X124.11 Y98.39 E44.85468
G1 X124.11 Y111.61 E45.07453
M204 S3000
M205 X10 Y10
G0 F2250 X123.928 Y110.83
M204 S1800
M205 X8 Y8
G1 F1350 X123.329 Y111.43 E45.08863
M204 S3000
M205 X10 Y10
G0 F2250 X122.763 Y111.43
M204 S1800
M205 X8 Y8
G1 F1350 X123.928 Y110.264 E45.11604
M204 S3000
M205 X10 Y10
G0 F2250 X123.928 Y109.699
M204 S1800
M205 X8 Y8
G1 F1350 X122.197 Y111.43 E45.15675
M204 S3000
M205 X10 Y10
G0 F2250 X121.632 Y111.43
M204 S1800
M205 X8 Y8
G1 F1350 X123.928 Y109.133 E45.21076
M204 S3000
M205 X10 Y10
G0 F2250 X123.928 Y108.567
M204 S1800
M205 X8 Y8
G1 F1350 X121.066 Y111.43 E45.27808
M204 S3000
M205 X10 Y10
G0 F2250 X120.5 Y111.43
M204 S1800
M205 X8 Y8
G1 F1350 X123.928 Y108.002 E45.3587
M204 S3000
M205 X10 Y10
G0 F2250 X123.928 Y107.436
M204 S1800
M205 X8 Y8
G1 F1350 X119.935 Y111.43 E45.45262
M204 S3000
M205 X10 Y10
G0 F2250 X119.369 Y111.43
M204 S1800
M205 X8 Y8
G1 F1350 X123.928 Y106.87 E45.55986
M204 S3000
M205 X10 Y10
G0 F2250 X123.928 Y106.305
M204 S1800
M205 X8 Y8
G1 F1350 X118.803 Y111.43 E45.68039
M204 S3000
M205 X10 Y10
G0 F2250 X118.238 Y111.43
M204 S1800
M205 X8 Y8
G1 F1350 X123.928 Y105.739 E45.81422
M204 S3000
M205 X10 Y10
G0 F2250 X123.928 Y105.173
M204 S1800
M205 X8 Y8
G1 F1350 X117.672 Y111.43 E45.96136
M204 S3000
M205 X10 Y10
G0 F2250 X117.106 Y111.43
M204 S1800
M205 X8 Y8
G1 F1350 X123.928 Y104.607 E46.12182
M204 S3000
M205 X10 Y10
G0 F2250 X123.928 Y104.042
M204 S1800
M205 X8 Y8
G1 F1350 X116.541 Y111.43 E46.29556
M204 S3000
M205 X10 Y10
G0 F2250 X115.975 Y111.43
M204 S1800
M205 X8 Y8
G1 F1350 X123.928 Y103.476 E46.48262
M204 S3000
M205 X10 Y10
G0 F2250 X123.928 Y102.91
M204 S1800
M205 X8 Y8
G1 F1350 X115.409 Y111.43 E46.68298
M204 S3000
M205 X10 Y10
G0 F2250 X114.844 Y111.43
M204 S1800
M205 X8 Y8
G1 F1350 X123.928 Y102.345 E46.89664
M204 S3000
M205 X10 Y10
G0 F2250 X123.928 Y101.779
M204 S1800
M205 X8 Y8
G1 F1350 X114.278 Y111.43 E47.1236
M204 S3000
M205 X10 Y10
G0 F2250 X113.712 Y111.43
M204 S1800
M205 X8 Y8
