;FLAVOR:Marlin
;TIME:1599
;Filament used: 1.53335m
;Layer height: 0.2
;MINX:62.168
;MINY:87.888
;MINZ:0.2
;MAXX:122.134
;MAXY:126.13
;MAXZ:24.8
;Generated with Cura_SteamEngine 4.6.1
M140 S65
M105
M190 S65
M104 S200
M105
M109 S200
M82 ;absolute extrusion mode
G21 ;metric values
G90 ;absolute positioning
M82 ;set extruder to absolute mode
M107 ;start with the fan off
G28 X0 Y0 ;move X/Y to min endstops
G28 Z0 ;move Z to min endstops
G1 Z15.0 F100 ;move the platform down 15mm
G92 E0 ;zero the extruded length
G1 F200 E3 ;extrude 3mm of feed stock
G92 E0 ;zero the extruded length again
G1 F100
G0 Y20 F100
M117 Printing...
G5
G92 E0
G92 E0
G1 F2400 E-6
;LAYER_COUNT:124
;LAYER:0
M106 S255
M204 S3000
M205 X10 Y10
G1 F600 Z0.275
G0 F3000 X96.049 Y89.588 Z0.275
M204 S1800
M205 X8 Y8
;TYPE:SKIRT
G1 F600 Z0.2
G1 F2400 E0
G1 X96.584 Y89.64 E0.02503
G1 X100.129 Y90.17 E0.19193
G1 X100.881 Y90.294 E0.22742
G1 X101.788 Y90.528 E0.27104
G1 X102.304 Y90.719 E0.29666
G1 X106.357 Y92.396 E0.5009
G1 X107.034 Y92.687 E0.53521
G1 X107.613 Y92.98 E0.56543
G1 X108.084 Y93.29 E0.59169
G1 X108.826 Y93.838 E0.63464
G1 X111.875 Y96.176 E0.81355
G1 X112.447 Y96.626 E0.84744
G1 X112.932 Y97.059 E0.87771
G1 X113.319 Y97.493 E0.90479
G1 X113.894 Y98.217 E0.94784
G1 X116.235 Y101.268 E1.12691
G1 X116.675 Y101.857 E1.16114
G1 X117.03 Y102.401 E1.19139
G1 X117.28 Y102.903 E1.2175
G1 X117.626 Y103.698 E1.25788
G1 X119.125 Y107.315 E1.44019
G1 X119.386 Y107.965 E1.4728
G1 X119.59 Y108.582 E1.50306
G1 X119.729 Y109.237 E1.53424
G1 X120.301 Y112.989 E1.71097
G1 X120.409 Y113.782 E1.74824
G1 X120.457 Y114.43 E1.77849
G1 X120.427 Y115.05 E1.8074
G1 X120.297 Y115.898 E1.84734
G1 X120.111 Y116.52 E1.87757
G1 X119.85 Y117.115 E1.90783
G1 X119.518 Y117.673 E1.93806
G1 X119.158 Y118.147 E1.96578
G1 X118.722 Y118.629 E1.99604
G1 X118.23 Y119.053 E2.02629
G1 X117.689 Y119.413 E2.05654
G1 X117.109 Y119.705 E2.08678
G1 X116.497 Y119.923 E2.11703
G1 X115.863 Y120.064 E2.14728
G1 X115.14 Y120.128 E2.18107
G1 X114.139 Y120.148 E2.22769
G1 X100.706 Y120.151 E2.85319
G1 X98.035 Y120.189 E2.97757
G1 X95.36 Y120.303 E3.10225
G1 X92.667 Y120.494 E3.22796
G1 X90 Y120.76 E3.35276
G1 X87.365 Y121.097 E3.47646
G1 X84.702 Y121.515 E3.60198
G1 X82.061 Y122.006 E3.72706
G1 X79.493 Y122.56 E3.84939
G1 X74.996 Y123.686 E4.06525
G1 X70.965 Y124.308 E4.25517
G1 X70.258 Y124.405 E4.2884
G1 X69.611 Y124.453 E4.31861
G1 X69.045 Y124.429 E4.34499
G1 X68.142 Y124.302 E4.38745
G1 X67.518 Y124.123 E4.41768
G1 X66.92 Y123.868 E4.44795
G1 X66.108 Y123.364 E4.49245
G1 X65.489 Y122.847 E4.53001
G1 X65.051 Y122.367 E4.56027
G1 X64.675 Y121.837 E4.59052
G1 X64.367 Y121.265 E4.62077
G1 X64.131 Y120.66 E4.65101
G1 X63.972 Y120.03 E4.68127
G1 X63.885 Y119.269 E4.71693
G1 X63.853 Y118.489 E4.75329
G1 X63.848 Y100.212 E5.60434
G1 X63.859 Y99.435 E5.64052
G1 X63.908 Y98.787 E5.67078
G1 X64.036 Y98.15 E5.70104
G1 X64.199 Y97.632 E5.72632
G1 X64.444 Y97.03 E5.75659
G1 X64.761 Y96.463 E5.78684
G1 X65.145 Y95.939 E5.81709
G1 X65.554 Y95.501 E5.84499
G1 X66.164 Y94.973 E5.88256
G1 X66.708 Y94.617 E5.91283
G1 X67.581 Y94.221 E5.95747
G1 X68.411 Y93.975 E5.99778
G1 X69.263 Y93.863 E6.03779
G1 X71.499 Y93.754 E6.14203
G1 X74.203 Y93.562 E6.26826
G1 X76.856 Y93.299 E6.3924
G1 X79.496 Y92.961 E6.51633
G1 X82.16 Y92.543 E6.6419
G1 X84.781 Y92.055 E6.76604
G1 X87.415 Y91.489 E6.89149
G1 X89.965 Y90.863 E7.01375
G1 X93.755 Y89.797 E7.19708
G1 X94.582 Y89.614 E7.23652
G1 X95.229 Y89.561 E7.26675
G1 X96.049 Y89.588 E7.30495
M204 S3000
M205 X10 Y10
G0 F3000 X96.075 Y89.028
M204 S1800
M205 X8 Y8
G1 F2400 X96.667 Y89.086 E7.33265
G1 X100.212 Y89.616 E7.49955
G1 X100.973 Y89.742 E7.53547
G1 X101.639 Y89.892 E7.56726
G1 X102.243 Y90.096 E7.59694
G1 X106.571 Y91.879 E7.81491
G1 X107.255 Y92.172 E7.84956
G1 X107.866 Y92.479 E7.8814
G1 X108.416 Y92.839 E7.912
G1 X109.158 Y93.387 E7.95496
G1 X112.215 Y95.732 E8.13436
G1 X112.794 Y96.186 E8.16862
G1 X113.305 Y96.639 E8.20042
G1 X113.757 Y97.145 E8.23201
G1 X114.332 Y97.869 E8.27506
G1 X116.679 Y100.927 E8.45456
G1 X117.124 Y101.523 E8.48919
G1 X117.499 Y102.094 E8.521
G1 X117.794 Y102.679 E8.55151
G1 X118.14 Y103.474 E8.59188
G1 X119.643 Y107.1 E8.77466
G1 X119.906 Y107.757 E8.80761
G1 X120.123 Y108.405 E8.83943
G1 X120.279 Y109.129 E8.87392
G1 X120.855 Y112.905 E9.05178
G1 X120.964 Y113.707 E9.08946
G1 X121.016 Y114.388 E9.12127
G1 X120.984 Y115.109 E9.15487
G1 X120.85 Y115.99 E9.19637
G1 X120.661 Y116.647 E9.2282
G1 X120.396 Y117.276 E9.25998
G1 X120.059 Y117.871 E9.29182
G1 X119.715 Y118.347 E9.31917
G1 X119.138 Y119.005 E9.35992
G1 X118.625 Y119.456 E9.39173
G1 X118.062 Y119.843 E9.42354
G1 X117.458 Y120.163 E9.45537
G1 X116.821 Y120.409 E9.48716
G1 X116.159 Y120.58 E9.519
G1 X115.152 Y120.688 E9.56616
G1 X114.151 Y120.708 E9.61278
G1 X100.714 Y120.711 E10.23846
G1 X98.067 Y120.748 E10.36173
G1 X95.353 Y120.865 E10.48822
G1 X92.725 Y121.051 E10.6109
G1 X90.091 Y121.313 E10.73415
G1 X87.42 Y121.655 E10.85954
G1 X84.816 Y122.064 E10.98228
G1 X82.178 Y122.554 E11.10722
G1 X79.598 Y123.111 E11.23012
G1 X75.097 Y124.237 E11.44617
G1 X71.049 Y124.862 E11.63689
G1 X70.334 Y124.96 E11.6705
G1 X69.653 Y125.012 E11.7023
G1 X68.991 Y124.986 E11.73315
G1 X68.055 Y124.857 E11.77715
G1 X67.397 Y124.674 E11.80895
G1 X66.764 Y124.415 E11.84079
G1 X66.166 Y124.084 E11.87262
G1 X65.645 Y123.716 E11.90232
G1 X65.125 Y123.274 E11.9341
G1 X64.659 Y122.773 E11.96596
G1 X64.256 Y122.222 E11.99775
G1 X63.919 Y121.627 E12.02959
G1 X63.654 Y120.998 E12.06137
G1 X63.465 Y120.341 E12.0932
G1 X63.353 Y119.667 E12.12502
G1 X63.294 Y118.512 E12.17887
G1 X63.288 Y100.212 E13.031
G1 X63.299 Y99.427 E13.06755
G1 X63.348 Y98.745 E13.09939
G1 X63.477 Y98.074 E13.13121
G1 X63.668 Y97.453 E13.16146
G1 X63.924 Y96.819 E13.1933
G1 X64.252 Y96.22 E13.2251
G1 X64.647 Y95.663 E13.25689
G1 X65.167 Y95.096 E13.29272
G1 X65.802 Y94.544 E13.3319
G1 X66.37 Y94.166 E13.36367
G1 X66.979 Y93.856 E13.39549
G1 X67.601 Y93.622 E13.42643
G1 X68.259 Y93.435 E13.45828
G1 X69.236 Y93.304 E13.50418
G1 X71.479 Y93.194 E13.60875
G1 X74.108 Y93.008 E13.73148
G1 X76.8 Y92.741 E13.85744
G1 X79.447 Y92.402 E13.9817
G1 X82.04 Y91.995 E14.10392
G1 X84.698 Y91.501 E14.22981
G1 X87.274 Y90.947 E14.3525
G1 X89.83 Y90.319 E14.47506
G1 X93.604 Y89.258 E14.65761
G1 X94.467 Y89.064 E14.69879
G1 X95.148 Y89.003 E14.73063
G1 X96.075 Y89.028 E14.77381
M204 S3000
M205 X10 Y10
G0 F3000 X96.102 Y88.469
M204 S1800
M205 X8 Y8
G1 F2400 X96.749 Y88.532 E14.80408
G1 X100.294 Y89.062 E14.97099
G1 X101.064 Y89.189 E15.00732
G1 X101.762 Y89.345 E15.04063
G1 X102.43 Y89.568 E15.07342
G1 X106.785 Y91.361 E15.29272
G1 X107.476 Y91.658 E15.32774
G1 X108.116 Y91.977 E15.36104
G1 X108.749 Y92.389 E15.39621
G1 X109.491 Y92.937 E15.43916
G1 X112.556 Y95.288 E15.61903
G1 X113.14 Y95.746 E15.65359
G1 X113.676 Y96.219 E15.68688
G1 X114.196 Y96.797 E15.72308
G1 X114.771 Y97.521 E15.76613
G1 X117.124 Y100.586 E15.94606
G1 X117.573 Y101.189 E15.98106
G1 X117.967 Y101.785 E16.01433
G1 X118.307 Y102.456 E16.04936
G1 X118.653 Y103.251 E16.08973
G1 X120.16 Y106.886 E16.27296
G1 X120.426 Y107.549 E16.30623
G1 X120.654 Y108.226 E16.33949
G1 X120.829 Y109.022 E16.37744
G1 X121.408 Y112.821 E16.55638
G1 X121.519 Y113.632 E16.5945
G1 X121.575 Y114.345 E16.6278
G1 X121.541 Y115.168 E16.66615
G1 X121.404 Y116.081 E16.70914
G1 X121.211 Y116.77 E16.74246
G1 X120.942 Y117.433 E16.77578
G1 X120.601 Y118.061 E16.80905
G1 X120.153 Y118.697 E16.84528
G1 X119.555 Y119.38 E16.88755
G1 X119.021 Y119.856 E16.92086
G1 X118.438 Y120.269 E16.95413
G1 X117.812 Y120.615 E16.98743
G1 X117.151 Y120.889 E17.02075
G1 X116.464 Y121.087 E17.05404
G1 X115.759 Y121.208 E17.08735
G1 X115.163 Y121.248 E17.11516
G1 X114.162 Y121.268 E17.16178
G1 X100.723 Y121.271 E17.78756
G1 X98.064 Y121.309 E17.91139
G1 X95.418 Y121.422 E18.03471
G1 X92.785 Y121.609 E18.15762
G1 X90.109 Y121.875 E18.28284
G1 X87.508 Y122.208 E18.40494
G1 X84.896 Y122.618 E18.52806
G1 X82.295 Y123.101 E18.65124
G1 X79.759 Y123.648 E18.77204
G1 X76.071 Y124.573 E18.94909
G1 X75.197 Y124.787 E18.99099
G1 X71.133 Y125.416 E19.18248
G1 X70.409 Y125.515 E19.21651
G1 X69.696 Y125.571 E19.24981
G1 X68.938 Y125.544 E19.28513
G1 X67.97 Y125.411 E19.33062
G1 X67.279 Y125.225 E19.36395
G1 X66.614 Y124.963 E19.39723
G1 X65.981 Y124.628 E19.43058
G1 X65.434 Y124.258 E19.46133
G1 X64.762 Y123.701 E19.50197
G1 X64.271 Y123.181 E19.53527
G1 X63.841 Y122.61 E19.56855
G1 X63.477 Y121.994 E19.60187
G1 X63.184 Y121.341 E19.6352
G1 X62.966 Y120.66 E19.66849
G1 X62.825 Y119.959 E19.70179
G1 X62.766 Y119.315 E19.7319
G1 X62.734 Y118.535 E19.76825
G1 X62.728 Y100.212 E20.62145
G1 X62.739 Y99.419 E20.65838
G1 X62.789 Y98.705 E20.69171
G1 X62.918 Y98.002 E20.72499
G1 X63.073 Y97.467 E20.75092
G1 X63.404 Y96.61 E20.7937
G1 X63.742 Y95.98 E20.82699
G1 X64.148 Y95.391 E20.8603
G1 X64.78 Y94.691 E20.90422
G1 X65.438 Y94.118 E20.94485
G1 X66.03 Y93.717 E20.97814
G1 X66.663 Y93.384 E21.01145
G1 X67.213 Y93.164 E21.03903
G1 X68.105 Y92.896 E21.0824
G1 X68.81 Y92.777 E21.11569
G1 X71.41 Y92.637 E21.23693
G1 X74.086 Y92.448 E21.36185
G1 X76.743 Y92.184 E21.48618
G1 X79.358 Y91.85 E21.60893
G1 X81.954 Y91.442 E21.7313
G1 X84.561 Y90.957 E21.85477
G1 X87.151 Y90.4 E21.97813
G1 X89.694 Y89.776 E22.10006
G1 X93.452 Y88.719 E22.28184
G1 X94.351 Y88.516 E22.32475
G1 X95.063 Y88.446 E22.35806
G1 X96.102 Y88.469 E22.40646
M204 S3000
M205 X10 Y10
G0 F3000 X96.832 Y87.979
M204 S1800
M205 X8 Y8
G1 F2400 X100.377 Y88.509 E22.57336
G1 X101.156 Y88.637 E22.61012
G1 X101.884 Y88.798 E22.64484
G1 X102.618 Y89.041 E22.68084
G1 X106.999 Y90.844 E22.90144
G1 X107.698 Y91.144 E22.93686
G1 X108.366 Y91.475 E22.97157
G1 X109.082 Y91.938 E23.01128
G1 X109.824 Y92.486 E23.05423
G1 X112.897 Y94.844 E23.23459
G1 X113.486 Y95.306 E23.26945
G1 X114.047 Y95.797 E23.30416
G1 X114.634 Y96.448 E23.34498
G1 X115.209 Y97.172 E23.38803
G1 X117.568 Y100.245 E23.56842
G1 X118.022 Y100.854 E23.60379
G1 X118.435 Y101.476 E23.63856
G1 X118.821 Y102.233 E23.67813
G1 X119.167 Y103.028 E23.7185
G1 X120.677 Y106.672 E23.90217
G1 X120.946 Y107.34 E23.9357
G1 X121.186 Y108.047 E23.97047
G1 X121.316 Y108.597 E23.99678
G1 X121.429 Y109.208 E24.02572
G1 X121.962 Y112.738 E24.19195
G1 X122.074 Y113.556 E24.2304
G1 X122.134 Y114.3 E24.26515
G1 X122.098 Y115.228 E24.3084
G1 X121.958 Y116.171 E24.35279
G1 X121.761 Y116.891 E24.38755
G1 X121.488 Y117.585 E24.42227
G1 X121.143 Y118.246 E24.45699
G1 X120.59 Y119.047 E24.50231
G1 X119.973 Y119.754 E24.54601
G1 X119.42 Y120.254 E24.58072
G1 X118.816 Y120.692 E24.61547
G1 X118.169 Y121.063 E24.65019
G1 X117.486 Y121.363 E24.68493
G1 X116.775 Y121.588 E24.71966
G1 X116.044 Y121.735 E24.75438
G1 X115.174 Y121.808 E24.79503
G1 X114.173 Y121.828 E24.84165
G1 X100.73 Y121.831 E25.46761
G1 X98.096 Y121.868 E25.59027
G1 X95.444 Y121.982 E25.71388
G1 X92.81 Y122.169 E25.83683
G1 X90.201 Y122.428 E25.95892
G1 X87.597 Y122.761 E26.08116
G1 X84.982 Y123.172 E26.20442
G1 X82.406 Y123.651 E26.32642
G1 X79.863 Y124.199 E26.44755
G1 X76.254 Y125.105 E26.62082
G1 X75.298 Y125.338 E26.66664
G1 X74.793 Y125.427 E26.69051
G1 X71.217 Y125.969 E26.85893
G1 X70.484 Y126.07 E26.89338
G1 X69.741 Y126.13 E26.92809
G1 X68.884 Y126.101 E26.96802
G1 X67.886 Y125.965 E27.01492
G1 X67.164 Y125.776 E27.04967
G1 X66.467 Y125.511 E27.0844
G1 X65.802 Y125.173 E27.11913
G1 X65.097 Y124.705 E27.15853
G1 X64.4 Y124.13 E27.20061
G1 X63.884 Y123.591 E27.23535
G1 X63.429 Y123.001 E27.27005
G1 X63.039 Y122.365 E27.30479
G1 X62.72 Y121.69 E27.33955
G1 X62.475 Y120.986 E27.37426
G1 X62.306 Y120.259 E27.40901
G1 X62.207 Y119.338 E27.45215
G1 X62.175 Y118.558 E27.4885
G1 X62.168 Y100.212 E28.34276
G1 X62.179 Y99.411 E28.38007
G1 X62.229 Y98.667 E28.41479
G1 X62.359 Y97.932 E28.44954
G1 X62.542 Y97.289 E28.48067
G1 X62.883 Y96.402 E28.52492
G1 X63.231 Y95.743 E28.55962
G1 X63.648 Y95.124 E28.59438
G1 X64.128 Y94.554 E28.62908
G1 X64.507 Y94.177 E28.65397
G1 X65.073 Y93.692 E28.68868
G1 X65.688 Y93.269 E28.72343
G1 X66.344 Y92.915 E28.75814
G1 X67.029 Y92.635 E28.7926
G1 X67.95 Y92.357 E28.8374
G1 X68.684 Y92.227 E28.87211
G1 X69.181 Y92.185 E28.89533
G1 X71.392 Y92.077 E28.99841
G1 X74.062 Y91.888 E29.12305
G1 X76.647 Y91.631 E29.24401
G1 X79.274 Y91.295 E29.36733
G1 X81.874 Y90.887 E29.48988
G1 X84.478 Y90.403 E29.61321
G1 X87.011 Y89.858 E29.73385
G1 X89.552 Y89.234 E29.85569
G1 X93.3 Y88.18 E30.03698
G1 X94.234 Y87.967 E30.08159
G1 X94.976 Y87.889 E30.11633
G1 X95.657 Y87.888 E30.14804
G1 X96.832 Y87.979 E30.20292
M204 S3000
M205 X10 Y10
G1 F2400 E24.20292
;MESH:HOEKDEEL-R.STL
G0 F3000 X88.245 Y98.464
G0 X88.246 Y99.981
G0 X70.529 Y117.618
M204 S1800
M205 X8 Y8
;TYPE:WALL-INNER
G1 F2400 E30.20292
G1 F1500 X70.528 Y100.807 E30.98571
G1 X70.528 Y100.528 E30.9987
G1 X70.807 Y100.528 E31.0071
G1 X87.287 Y100.528 E31.77448
G1 X87.288 Y100.528 E31.77453
G1 X87.611 Y100.528 E31.78957
G1 X87.564 Y100.848 E31.79893
G1 X87.143 Y103.673 E31.93193
G1 X85.238 Y108.271 E32.16368
G1 X82.214 Y112.214 E32.39506
G1 X78.271 Y115.238 E32.62644
G1 X73.673 Y117.143 E32.85819
G1 X70.529 Y117.618 E33.00625
M204 S3000
M205 X10 Y10
G0 F3000 X69.969 Y117.945
M204 S1800
M205 X8 Y8
G1 F1500 X69.968 Y100.247 E33.83034
G1 X69.968 Y99.968 E33.84333
G1 X70.247 Y99.968 E33.85174
G1 X87.937 Y99.968 E34.67546
G1 X87.938 Y99.968 E34.6755
G1 X88.261 Y99.968 E34.69055
G1 X88.214 Y100.288 E34.69991
G1 X87.687 Y103.821 E34.86624
G1 X85.726 Y108.554 E35.10479
G1 X82.613 Y112.613 E35.34298
G1 X78.554 Y115.726 E35.58117
G1 X78.486 Y115.754 E35.5846
G1 X73.888 Y117.659 E35.81635
G1 X73.821 Y117.687 E35.81973
G1 X70.289 Y118.221 E35.98606
G1 X69.969 Y118.269 E36.00113
G1 X69.969 Y117.946 E36.01048
G1 X69.969 Y117.945 E36.01052
M204 S3000
M205 X10 Y10
G0 F3000 X69.409 Y118.626
M204 S1800
M205 X8 Y8
;TYPE:WALL-OUTER
G1 F1500 X69.408 Y99.731 E36.89035
G1 X69.408 Y99.55 E36.89878
G1 X69.437 Y99.467 E36.90288
G1 X69.475 Y99.432 E36.90528
G1 X69.547 Y99.408 E36.90882
G1 X69.728 Y99.408 E36.91724
G1 X88.597 Y99.408 E37.79586
G1 X88.893 Y99.408 E37.80965
G1 X88.904 Y99.456 E37.81194
G1 X88.861 Y99.748 E37.82093
G1 X88.231 Y103.969 E38.01966
G1 X86.214 Y108.837 E38.26502
G1 X83.012 Y113.012 E38.51002
G1 X78.837 Y116.214 E38.75501
G1 X73.969 Y118.231 E39.00038
G1 X69.771 Y118.866 E39.19808
G1 X69.505 Y118.906 E39.2106
G1 X69.409 Y118.895 E39.2151
G1 X69.409 Y118.626 E39.2237
M204 S3000
M205 X10 Y10
G0 F3000 X69.409 Y118.426
G0 X69.992 Y118.209
G0 X70.069 Y118.21
G0 X71.079 Y116.978
M204 S1800
M205 X8 Y8
;TYPE:SKIN
G1 F1500 X71.078 Y101.078 E39.96407
G1 X86.973 Y101.078 E40.70421
G1 X86.609 Y103.526 E40.81945
G1 X84.757 Y107.996 E41.04475
G1 X81.823 Y111.823 E41.2693
G1 X77.996 Y114.757 E41.49384
G1 X73.526 Y116.609 E41.71914
G1 X71.079 Y116.978 E41.83437
M204 S3000
M205 X10 Y10
G0 F3000 X71.506 Y116.648
M204 S1800
M205 X8 Y8
G1 F1500 X71.337 Y116.479 E41.8455
M204 S3000
M205 X10 Y10
G0 F3000 X71.337 Y115.687
M204 S1800
M205 X8 Y8
G1 F1500 X72.194 Y116.544 E41.90193
M204 S3000
M205 X10 Y10
G0 F3000 X72.882 Y116.44
M204 S1800
M205 X8 Y8
G1 F1500 X71.337 Y114.895 E42.00368
M204 S3000
M205 X10 Y10
G0 F3000 X71.337 Y114.103
M204 S1800
M205 X8 Y8
G1 F1500 X73.549 Y116.315 E42.14934
M204 S3000
M205 X10 Y10
G0 F3000 X74.109 Y116.083
M204 S1800
M205 X8 Y8
G1 F1500 X71.337 Y113.311 E42.33188
M204 S3000
M205 X10 Y10
G0 F3000 X71.337 Y112.519
M204 S1800
M205 X8 Y8
G1 F1500 X74.669 Y115.851 E42.5513
M204 S3000
M205 X10 Y10
G0 F3000 X75.229 Y115.619
M204 S1800
M205 X8 Y8
G1 F1500 X71.337 Y111.727 E42.80759
M204 S3000
M205 X10 Y10
G0 F3000 X71.337 Y110.935
M204 S1800
M205 X8 Y8
G1 F1500 X75.789 Y115.387 E43.10076
M204 S3000
M205 X10 Y10
G0 F3000 X76.349 Y115.155
M204 S1800
M205 X8 Y8
G1 F1500 X71.337 Y110.143 E43.43081
M204 S3000
M205 X10 Y10
G0 F3000 X71.337 Y109.351
M204 S1800
M205 X8 Y8
G1 F1500 X76.909 Y114.923 E43.79774
M204 S3000
M205 X10 Y10
G0 F3000 X77.469 Y114.691
M204 S1800
M205 X8 Y8
G1 F1500 X71.337 Y108.559 E44.20154
M204 S3000
M205 X10 Y10
G0 F3000 X71.337 Y107.768
M204 S1800
M205 X8 Y8
G1 F1500 X77.996 Y114.426 E44.64002
M204 S3000
M205 X10 Y10
