;FLAVOR:Marlin
;TIME:2266
;Filament used: 1.05976m
;Layer height: 0.1
;MINX:85.698
;MINY:85.698
;MINZ:0.1
;MAXX:124.302
;MAXY:124.302
;MAXZ:10
;Generated with Cura_SteamEngine 5.3.0
M140 S65
M105
M190 S65
M104 S200
M105
M109 S200
M82 ;absolute extrusion mode
G21 ;metric values
G90 ;absolute positioning
M82 ;set extruder to absolute mode
M107 ;start with the fan off
G28 X0 Y0 ;move X/Y to min endstops
G28 Z0 ;move Z to min endstops
G1 Z15.0 F50 ;move the platform down 15mm
G92 E0 ;zero the extruded length
G1 F200 E3 ;extrude 3mm of feed stock
G92 E0 ;zero the extruded length again
G1 F50
G0 Y20 F50
M117 Printing...
G5
G92 E0
G92 E0
G1 F2400 E-6
;LAYER_COUNT:100
;LAYER:0
M107
M204 S3000
M205 X10 Y10
G1 F600 Z0.175
G0 F1500 X92.902 Y92.959 Z0.175
M204 S1800
M205 X8 Y8
;TYPE:SKIRT
G1 F600 Z0.1
G1 F2400 E0
G1 X93.511 Y92.388 E0.01944
G1 X94.041 Y91.923 E0.03585
G1 X95.264 Y90.985 E0.07174
G1 X96.412 Y90.262 E0.10332
G1 X96.868 Y90.006 E0.1155
G1 X97.9 Y89.491 E0.14235
G1 X98.373 Y89.283 E0.15438
G1 X99.354 Y88.908 E0.17883
G1 X99.89 Y88.721 E0.19205
G1 X100.625 Y88.51 E0.20985
G1 X101.493 Y88.302 E0.23063
G1 X102.572 Y88.119 E0.25611
G1 X103.292 Y88.018 E0.27304
G1 X103.979 Y87.97 E0.28908
G1 X104.812 Y87.938 E0.30848
G1 X105.924 Y87.97 E0.33438
G1 X106.648 Y88.013 E0.35127
G1 X107.433 Y88.114 E0.3697
G1 X108.173 Y88.234 E0.38715
G1 X109.203 Y88.471 E0.41176
G1 X109.781 Y88.622 E0.42567
G1 X110.367 Y88.803 E0.43995
G1 X111.35 Y89.163 E0.46432
G1 X112.544 Y89.699 E0.49479
G1 X113.37 Y90.195 E0.51722
G1 X114.594 Y91.074 E0.55231
G1 X114.975 Y91.357 E0.56336
G1 X116.343 Y92.323 E0.60235
G1 X116.94 Y92.803 E0.62018
G1 X117.61 Y93.515 E0.64294
G1 X118.161 Y94.135 E0.66226
G1 X118.551 Y94.635 E0.67702
G1 X119.043 Y95.309 E0.69645
G1 X119.74 Y96.418 E0.72694
G1 X119.993 Y96.866 E0.73892
G1 X120.508 Y97.896 E0.76573
G1 X120.716 Y98.37 E0.77778
G1 X121.158 Y99.534 E0.80677
G1 X121.429 Y100.369 E0.82721
G1 X121.698 Y101.494 E0.85414
G1 X121.881 Y102.572 E0.8796
G1 X121.982 Y103.29 E0.89648
G1 X122.03 Y103.981 E0.91261
G1 X122.062 Y104.808 E0.93188
G1 X122.03 Y105.923 E0.95785
G1 X121.987 Y106.648 E0.97476
G1 X121.886 Y107.433 E0.99318
G1 X121.766 Y108.173 E1.01064
G1 X121.529 Y109.203 E1.03524
G1 X121.341 Y109.927 E1.05266
G1 X121.115 Y110.6 E1.06919
G1 X120.828 Y111.372 E1.08836
G1 X120.273 Y112.591 E1.11955
G1 X120.038 Y113.047 E1.13149
G1 X119.347 Y114.242 E1.16363
G1 X118.566 Y115.341 E1.19502
G1 X118.248 Y115.745 E1.20699
G1 X117.311 Y116.82 E1.24019
G1 X116.729 Y117.39 E1.25916
G1 X116.101 Y117.886 E1.27779
G1 X115.336 Y118.413 E1.29942
G1 X114.466 Y118.994 E1.32377
G1 X113.122 Y119.935 E1.36197
G1 X112.352 Y120.396 E1.38287
G1 X111.444 Y120.798 E1.40599
G1 X110.889 Y121.011 E1.41983
G1 X109.941 Y121.337 E1.44317
G1 X109.186 Y121.538 E1.46136
G1 X108.501 Y121.699 E1.47774
G1 X107.428 Y121.881 E1.50308
G1 X106.716 Y121.981 E1.51982
G1 X106.021 Y122.03 E1.53604
G1 X105.188 Y122.062 E1.55545
G1 X104.076 Y122.03 E1.58135
G1 X103.352 Y121.987 E1.59823
G1 X102.567 Y121.886 E1.61666
G1 X101.827 Y121.766 E1.63411
G1 X100.797 Y121.529 E1.65872
G1 X100.063 Y121.336 E1.67639
G1 X99.432 Y121.127 E1.69187
G1 X98.637 Y120.832 E1.71161
G1 X97.161 Y120.158 E1.74939
G1 X95.762 Y119.349 E1.78701
G1 X94.658 Y118.564 E1.81855
G1 X94.257 Y118.249 E1.83042
G1 X93.335 Y117.446 E1.85889
G1 X92.843 Y116.976 E1.87473
G1 X92.493 Y116.604 E1.88662
G1 X91.936 Y115.977 E1.90615
G1 X90.982 Y114.732 E1.94267
G1 X90.257 Y113.578 E1.9744
G1 X90.003 Y113.126 E1.98647
G1 X89.49 Y112.098 E2.01322
G1 X89.282 Y111.624 E2.02527
G1 X88.908 Y110.645 E2.04967
G1 X88.721 Y110.11 E2.06286
G1 X88.51 Y109.375 E2.08067
G1 X88.302 Y108.507 E2.10145
G1 X88.119 Y107.428 E2.12693
G1 X88.018 Y106.703 E2.14397
G1 X87.97 Y106.02 E2.15991
G1 X87.938 Y105.192 E2.1792
G1 X87.97 Y104.077 E2.20517
G1 X88.013 Y103.352 E2.22208
G1 X88.114 Y102.567 E2.24051
G1 X88.234 Y101.827 E2.25796
G1 X88.471 Y100.797 E2.28257
G1 X88.666 Y100.05 E2.30054
G1 X88.873 Y99.432 E2.31572
G1 X89.169 Y98.634 E2.33553
G1 X89.828 Y97.188 E2.37253
G1 X90.484 Y96.041 E2.4033
G1 X90.761 Y95.607 E2.41528
G1 X91.433 Y94.66 E2.44232
G1 X91.753 Y94.253 E2.45437
G1 X92.435 Y93.468 E2.47858
G1 X92.902 Y92.959 E2.49466
M204 S3000
M205 X10 Y10
G0 F1500 X92.489 Y92.58
M204 S1800
M205 X8 Y8
G1 F2400 X93.142 Y91.967 E2.51552
G1 X93.7 Y91.479 E2.53278
G1 X94.966 Y90.511 E2.56988
G1 X96.138 Y89.774 E2.60211
G1 X96.618 Y89.505 E2.61492
G1 X97.675 Y88.978 E2.64242
G1 X98.173 Y88.76 E2.65508
G1 X99.17 Y88.379 E2.67993
G1 X99.706 Y88.192 E2.69315
G1 X100.495 Y87.965 E2.71226
G1 X101.363 Y87.757 E2.73304
G1 X102.494 Y87.564 E2.75975
G1 X103.253 Y87.459 E2.77759
G1 X103.958 Y87.41 E2.79405
G1 X104.828 Y87.378 E2.81432
G1 X105.957 Y87.411 E2.84061
G1 X106.681 Y87.454 E2.8575
G1 X107.523 Y87.561 E2.87726
G1 X108.299 Y87.688 E2.89557
G1 X109.345 Y87.929 E2.92056
G1 X109.946 Y88.087 E2.93503
G1 X110.56 Y88.277 E2.94999
G1 X111.543 Y88.637 E2.97436
G1 X112.773 Y89.188 E3.00574
G1 X113.697 Y89.74 E3.0308
G1 X114.928 Y90.624 E3.06609
G1 X115.309 Y90.908 E3.07715
G1 X116.694 Y91.887 E3.11664
G1 X117.348 Y92.419 E3.13627
G1 X118.029 Y93.143 E3.15941
G1 X118.58 Y93.763 E3.17872
G1 X119.003 Y94.305 E3.19473
G1 X119.517 Y95.011 E3.21506
G1 X120.228 Y96.143 E3.24618
G1 X120.494 Y96.616 E3.25881
G1 X121.021 Y97.671 E3.28627
G1 X121.24 Y98.171 E3.29898
G1 X121.691 Y99.361 E3.32861
G1 X121.962 Y100.196 E3.34905
G1 X122.243 Y101.364 E3.37702
G1 X122.436 Y102.494 E3.40371
G1 X122.541 Y103.251 E3.4215
G1 X122.59 Y103.959 E3.43802
G1 X122.622 Y104.824 E3.45818
G1 X122.589 Y105.956 E3.48454
G1 X122.546 Y106.681 E3.50145
G1 X122.439 Y107.523 E3.52121
G1 X122.312 Y108.299 E3.53952
G1 X122.071 Y109.344 E3.56449
G1 X121.872 Y110.105 E3.5828
G1 X121.64 Y110.795 E3.59975
G1 X121.338 Y111.604 E3.61985
G1 X120.771 Y112.848 E3.65168
G1 X120.523 Y113.327 E3.66424
G1 X119.832 Y114.522 E3.69638
G1 X119.006 Y115.687 E3.72963
G1 X118.67 Y116.113 E3.74226
G1 X117.703 Y117.22 E3.77648
G1 X117.121 Y117.79 E3.79545
G1 X116.419 Y118.347 E3.81631
G1 X115.647 Y118.879 E3.83814
G1 X114.777 Y119.46 E3.8625
G1 X113.443 Y120.394 E3.90041
G1 X112.579 Y120.908 E3.92382
G1 X111.645 Y121.321 E3.9476
G1 X111.071 Y121.541 E3.96191
G1 X110.123 Y121.867 E3.98525
G1 X109.314 Y122.083 E4.00474
G1 X108.595 Y122.251 E4.02193
G1 X107.506 Y122.436 E4.04765
G1 X106.755 Y122.54 E4.0653
G1 X106.042 Y122.59 E4.08194
G1 X105.209 Y122.622 E4.10135
G1 X104.043 Y122.589 E4.12851
G1 X103.319 Y122.546 E4.1454
G1 X102.477 Y122.439 E4.16516
G1 X101.701 Y122.312 E4.18346
G1 X100.655 Y122.071 E4.20846
G1 X99.887 Y121.868 E4.22695
G1 X99.237 Y121.652 E4.2429
G1 X98.442 Y121.357 E4.26264
G1 X96.881 Y120.643 E4.3026
G1 X95.482 Y119.834 E4.34023
G1 X94.312 Y119.004 E4.37363
G1 X93.889 Y118.671 E4.38616
G1 X92.948 Y117.851 E4.41522
G1 X92.435 Y117.36 E4.43175
G1 X92.074 Y116.976 E4.44403
G1 X91.491 Y116.318 E4.46449
G1 X90.537 Y115.073 E4.50101
G1 X89.769 Y113.852 E4.53459
G1 X89.502 Y113.376 E4.5473
G1 X88.977 Y112.323 E4.57469
G1 X88.759 Y111.824 E4.58737
G1 X88.379 Y110.83 E4.61215
G1 X88.192 Y110.295 E4.62534
G1 X87.965 Y109.505 E4.64448
G1 X87.757 Y108.637 E4.66526
G1 X87.564 Y107.505 E4.692
G1 X87.459 Y106.742 E4.70993
G1 X87.41 Y106.042 E4.72627
G1 X87.378 Y105.176 E4.74644
G1 X87.411 Y104.044 E4.77281
G1 X87.454 Y103.319 E4.78972
G1 X87.561 Y102.477 E4.80948
G1 X87.688 Y101.701 E4.82779
G1 X87.929 Y100.656 E4.85275
G1 X88.135 Y99.872 E4.87163
G1 X88.348 Y99.237 E4.88722
G1 X88.659 Y98.402 E4.90797
G1 X89.318 Y96.956 E4.94496
G1 X90.012 Y95.74 E4.97756
G1 X90.304 Y95.283 E4.99019
G1 X90.976 Y94.336 E5.01722
G1 X91.33 Y93.886 E5.03055
G1 X92.022 Y93.089 E5.05513
G1 X92.489 Y92.58 E5.07121
M204 S3000
M205 X10 Y10
G0 F1500 X92.076 Y92.201
M204 S1800
M205 X8 Y8
G1 F2400 X92.773 Y91.545 E5.09349
G1 X93.331 Y91.057 E5.11075
G1 X94.626 Y90.066 E5.14872
G1 X95.864 Y89.285 E5.1828
G1 X96.344 Y89.016 E5.19561
G1 X97.45 Y88.465 E5.22438
G1 X97.973 Y88.237 E5.23766
G1 X98.986 Y87.85 E5.26291
G1 X99.522 Y87.663 E5.27612
G1 X100.365 Y87.42 E5.29655
G1 X101.233 Y87.212 E5.31733
G1 X102.417 Y87.009 E5.3453
G1 X103.214 Y86.9 E5.36403
G1 X103.937 Y86.85 E5.3809
G1 X104.844 Y86.818 E5.40203
G1 X105.99 Y86.852 E5.42872
G1 X106.752 Y86.898 E5.4465
G1 X107.613 Y87.008 E5.46671
G1 X108.425 Y87.142 E5.48587
G1 X109.487 Y87.387 E5.51124
G1 X110.112 Y87.552 E5.52629
G1 X110.753 Y87.751 E5.54192
G1 X111.736 Y88.111 E5.56629
G1 X113.06 Y88.707 E5.6001
G1 X114.024 Y89.285 E5.62627
G1 X115.263 Y90.175 E5.66178
G1 X115.644 Y90.459 E5.67285
G1 X117.017 Y91.43 E5.712
G1 X117.756 Y92.035 E5.73423
G1 X118.448 Y92.771 E5.75776
G1 X118.999 Y93.391 E5.77707
G1 X119.456 Y93.975 E5.79433
G1 X119.97 Y94.681 E5.81466
G1 X120.716 Y95.869 E5.84732
G1 X120.995 Y96.366 E5.86059
G1 X121.534 Y97.446 E5.8887
G1 X121.764 Y97.973 E5.90208
G1 X122.224 Y99.188 E5.93233
G1 X122.495 Y100.023 E5.95277
G1 X122.795 Y101.27 E5.98263
G1 X122.991 Y102.417 E6.00972
G1 X123.1 Y103.212 E6.0284
G1 X123.15 Y103.938 E6.04535
G1 X123.182 Y104.84 E6.06636
G1 X123.148 Y105.989 E6.09312
G1 X123.102 Y106.752 E6.11092
G1 X122.992 Y107.613 E6.13113
G1 X122.858 Y108.425 E6.15029
G1 X122.613 Y109.486 E6.17564
G1 X122.414 Y110.247 E6.19396
G1 X122.165 Y110.991 E6.21222
G1 X121.848 Y111.836 E6.23323
G1 X121.281 Y113.08 E6.26506
G1 X121.008 Y113.607 E6.27888
G1 X120.289 Y114.846 E6.31223
G1 X119.446 Y116.034 E6.34615
G1 X119.11 Y116.46 E6.35878
G1 X118.095 Y117.62 E6.39467
G1 X117.469 Y118.229 E6.415
G1 X116.737 Y118.808 E6.43673
G1 X115.958 Y119.345 E6.45876
G1 X115.088 Y119.926 E6.48312
G1 X113.764 Y120.853 E6.52075
G1 X112.805 Y121.42 E6.54668
G1 X111.845 Y121.844 E6.57112
G1 X111.253 Y122.071 E6.58588
G1 X110.305 Y122.397 E6.60922
G1 X109.441 Y122.628 E6.63004
G1 X108.689 Y122.803 E6.64802
G1 X107.583 Y122.991 E6.67414
G1 X106.794 Y123.099 E6.69268
G1 X106.063 Y123.15 E6.70974
G1 X105.193 Y123.182 E6.73001
G1 X104.01 Y123.148 E6.75756
G1 X103.248 Y123.102 E6.77533
G1 X102.387 Y122.992 E6.79554
G1 X101.575 Y122.858 E6.8147
G1 X100.529 Y122.617 E6.83969
G1 X99.71 Y122.399 E6.85943
G1 X99.042 Y122.177 E6.87582
G1 X98.247 Y121.882 E6.89556
G1 X96.601 Y121.128 E6.93771
G1 X95.158 Y120.291 E6.97655
G1 X93.988 Y119.461 E7.00995
G1 X93.521 Y119.093 E7.02379
G1 X92.561 Y118.256 E7.05344
G1 X92.027 Y117.744 E7.07067
G1 X91.655 Y117.347 E7.08333
G1 X91.046 Y116.659 E7.10473
G1 X90.092 Y115.414 E7.14124
G1 X89.281 Y114.126 E7.17668
G1 X89.001 Y113.626 E7.19002
G1 X88.464 Y112.547 E7.21808
G1 X88.236 Y112.024 E7.23137
G1 X87.85 Y111.015 E7.25652
G1 X87.663 Y110.48 E7.26971
G1 X87.42 Y109.635 E7.29018
G1 X87.212 Y108.767 E7.31096
G1 X87.009 Y107.581 E7.33898
G1 X86.9 Y106.781 E7.35778
G1 X86.85 Y106.063 E7.37453
G1 X86.818 Y105.16 E7.39557
G1 X86.852 Y104.011 E7.42233
G1 X86.898 Y103.248 E7.44013
G1 X87.008 Y102.387 E7.46034
G1 X87.142 Y101.575 E7.4795
G1 X87.387 Y100.514 E7.50485
G1 X87.593 Y99.73 E7.52372
G1 X87.823 Y99.042 E7.54061
G1 X88.149 Y98.17 E7.56229
G1 X88.808 Y96.724 E7.59929
G1 X89.54 Y95.438 E7.63374
G1 X89.847 Y94.959 E7.64698
G1 X90.519 Y94.012 E7.67402
G1 X90.907 Y93.519 E7.68862
G1 X91.609 Y92.71 E7.71356
G1 X92.076 Y92.201 E7.72964
M204 S3000
M205 X10 Y10
G0 F1500 X91.663 Y91.822
M204 S1800
M205 X8 Y8
G1 F2400 X92.404 Y91.123 E7.75336
G1 X92.962 Y90.635 E7.77062
G1 X94.327 Y89.592 E7.81062
G1 X95.59 Y88.796 E7.84537
G1 X96.07 Y88.527 E7.85818
G1 X97.226 Y87.952 E7.88824
G1 X97.773 Y87.714 E7.90213
G1 X98.802 Y87.321 E7.92778
G1 X99.338 Y87.134 E7.94099
G1 X100.235 Y86.875 E7.96273
G1 X101.103 Y86.667 E7.98351
G1 X102.341 Y86.454 E8.01276
G1 X103.175 Y86.341 E8.03235
G1 X103.917 Y86.29 E8.04967
G1 X104.861 Y86.258 E8.07166
G1 X106.024 Y86.293 E8.09875
G1 X106.786 Y86.339 E8.11652
G1 X107.704 Y86.455 E8.13807
G1 X108.551 Y86.596 E8.15806
G1 X109.613 Y86.841 E8.18343
G1 X110.278 Y87.017 E8.19945
G1 X110.946 Y87.225 E8.21574
G1 X111.966 Y87.6 E8.24104
G1 X113.29 Y88.196 E8.27484
G1 X114.351 Y88.83 E8.30362
G1 X115.598 Y89.726 E8.33937
G1 X115.979 Y90.01 E8.35043
G1 X117.372 Y90.997 E8.39018
G1 X118.164 Y91.651 E8.4141
G1 X118.867 Y92.399 E8.438
G1 X119.418 Y93.019 E8.45731
G1 X119.909 Y93.645 E8.47583
G1 X120.423 Y94.351 E8.49616
G1 X121.204 Y95.595 E8.53036
G1 X121.496 Y96.116 E8.54426
G1 X122.047 Y97.222 E8.57303
G1 X122.288 Y97.775 E8.58708
G1 X122.757 Y99.015 E8.61794
G1 X123.028 Y99.85 E8.63838
G1 X123.347 Y101.176 E8.67013
G1 X123.546 Y102.341 E8.69765
G1 X123.659 Y103.174 E8.71722
G1 X123.71 Y103.918 E8.73459
G1 X123.742 Y104.857 E8.75646
G1 X123.707 Y106.023 E8.78362
G1 X123.661 Y106.786 E8.80142
G1 X123.545 Y107.704 E8.82296
G1 X123.404 Y108.551 E8.84295
G1 X123.155 Y109.628 E8.86869
G1 X122.956 Y110.389 E8.887
G1 X122.689 Y111.188 E8.90661
G1 X122.358 Y112.068 E8.9285
G1 X121.791 Y113.312 E8.96033
G1 X121.492 Y113.888 E8.97544
G1 X120.746 Y115.17 E9.00998
G1 X119.886 Y116.381 E9.04456
G1 X119.55 Y116.807 E9.05719
G1 X118.516 Y117.989 E9.09375
G1 X117.816 Y118.668 E9.11646
G1 X117.055 Y119.269 E9.13903
G1 X116.269 Y119.811 E9.16126
G1 X115.399 Y120.392 E9.18562
G1 X114.085 Y121.312 E9.22296
G1 X113.09 Y121.902 E9.2499
G1 X112.045 Y122.367 E9.27653
G1 X111.435 Y122.601 E9.29174
G1 X110.487 Y122.927 E9.31508
G1 X109.568 Y123.173 E9.33723
G1 X108.783 Y123.355 E9.35599
G1 X107.659 Y123.546 E9.38253
G1 X106.833 Y123.658 E9.40194
G1 X106.084 Y123.71 E9.41942
G1 X105.214 Y123.742 E9.43969
G1 X103.976 Y123.707 E9.46852
G1 X103.214 Y123.661 E9.4863
G1 X102.296 Y123.545 E9.50784
G1 X101.449 Y123.404 E9.52783
G1 X100.385 Y123.158 E9.55326
G1 X99.566 Y122.94 E9.57299
G1 X98.847 Y122.702 E9.59062
G1 X98.052 Y122.407 E9.61036
G1 X96.368 Y121.637 E9.65348
G1 X94.834 Y120.748 E9.69475
G1 X93.641 Y119.901 E9.72882
G1 X93.174 Y119.533 E9.74266
G1 X92.173 Y118.66 E9.77358
G1 X91.618 Y118.127 E9.7915
G1 X91.236 Y117.718 E9.80453
G1 X90.601 Y117 E9.82685
G1 X89.647 Y115.755 E9.86336
G1 X88.792 Y114.4 E9.90067
G1 X88.512 Y113.9 E9.91401
G1 X87.951 Y112.771 E9.94336
G1 X87.713 Y112.224 E9.95725
G1 X87.321 Y111.2 E9.98278
G1 X87.134 Y110.665 E9.99597
G1 X86.875 Y109.765 E10.01778
G1 X86.667 Y108.897 E10.03856
G1 X86.454 Y107.657 E10.06785
G1 X86.341 Y106.82 E10.08751
G1 X86.29 Y106.083 E10.10471
G1 X86.258 Y105.143 E10.12661
G1 X86.293 Y103.977 E10.15377
G1 X86.339 Y103.214 E10.17157
G1 X86.455 Y102.296 E10.19311
G1 X86.596 Y101.449 E10.2131
G1 X86.845 Y100.372 E10.23884
G1 X87.051 Y99.588 E10.25771
G1 X87.298 Y98.846 E10.27592
G1 X87.639 Y97.938 E10.2985
G1 X88.321 Y96.447 E10.33667
G1 X89.053 Y95.161 E10.37112
G1 X89.39 Y94.635 E10.38567
G1 X90.062 Y93.688 E10.4127
G1 X90.484 Y93.152 E10.42859
G1 X91.196 Y92.331 E10.45389
G1 X91.663 Y91.822 E10.46997
M204 S3000
M205 X10 Y10
G0 F1500 X91.25 Y91.443
M204 S1800
M205 X8 Y8
G1 F2400 X92.035 Y90.701 E10.49512
G1 X92.593 Y90.213 E10.51238
G1 X94.028 Y89.118 E10.5544
G1 X95.316 Y88.307 E10.58984
G1 X95.796 Y88.038 E10.60265
G1 X97.003 Y87.439 E10.63402
G1 X97.573 Y87.191 E10.64849
G1 X98.618 Y86.792 E10.67454
G1 X99.154 Y86.605 E10.68775
G1 X100.105 Y86.33 E10.7108
G1 X100.973 Y86.122 E10.73158
G1 X102.266 Y85.899 E10.76213
G1 X103.137 Y85.782 E10.78259
G1 X103.898 Y85.73 E10.80035
G1 X104.878 Y85.698 E10.82318
G1 X106.058 Y85.734 E10.85067
G1 X106.856 Y85.783 E10.86928
G1 X107.774 Y85.899 E10.89082
G1 X108.677 Y86.05 E10.91214
G1 X109.739 Y86.295 E10.93751
G1 X110.444 Y86.482 E10.95449
G1 X111.139 Y86.699 E10.97145
G1 X112.196 Y87.089 E10.99768
G1 X113.52 Y87.685 E11.03148
G1 X114.678 Y88.375 E11.06287
G1 X115.933 Y89.277 E11.09885
G1 X116.303 Y89.553 E11.1096
G1 X117.729 Y90.565 E11.15031
G1 X118.521 Y91.219 E11.17422
G1 X119.286 Y92.027 E11.20013
G1 X119.859 Y92.673 E11.22023
G1 X120.362 Y93.315 E11.23922
G1 X120.876 Y94.021 E11.25955
G1 X121.693 Y95.321 E11.2953
G1 X121.985 Y95.842 E11.3092
G1 X122.56 Y96.998 E11.33926
G1 X122.812 Y97.577 E11.35397
G1 X123.29 Y98.842 E11.38545
G1 X123.561 Y99.677 E11.40589
G1 X123.899 Y101.082 E11.43953
G1 X124.101 Y102.266 E11.4675
G1 X124.218 Y103.136 E11.48793
G1 X124.27 Y103.899 E11.50574
G1 X124.302 Y104.874 E11.52845
G1 X124.266 Y106.057 E11.55601
