;FLAVOR:Marlin
;TIME:2924
;Filament used: 1.17865m
;Layer height: 0.1
;MINX:85.116
;MINY:85.109
;MINZ:0.1
;MAXX:124.88
;MAXY:124.898
;MAXZ:9.3
;Generated with Cura_SteamEngine 5.3.0
M140 S65
M105
M190 S65
M104 S200
M105
M109 S200
M82 ;absolute extrusion mode
G21 ;metric values
G90 ;absolute positioning
M82 ;set extruder to absolute mode
M107 ;start with the fan off
G28 X0 Y0 ;move X/Y to min endstops
G28 Z0 ;move Z to min endstops
G1 Z15.0 F50 ;move the platform down 15mm
G92 E0 ;zero the extruded length
G1 F200 E3 ;extrude 3mm of feed stock
G92 E0 ;zero the extruded length again
G1 F50
G0 Y20 F50
M117 Printing...
G5
G92 E0
G92 E0
G1 F2400 E-6
;LAYER_COUNT:93
;LAYER:0
M107
M204 S3000
M205 X10 Y10
G1 F600 Z0.175
G0 F1500 X92.119 Y91.885 Z0.175
M204 S1800
M205 X8 Y8
;TYPE:SKIRT
G1 F600 Z0.1
G1 F2400 E0
G1 X92.599 Y91.448 E0.01511
G1 X93.159 Y91.056 E0.03103
G1 X94.662 Y90.142 E0.07198
G1 X96.511 Y88.98 E0.12283
G1 X96.948 Y88.698 E0.13494
G1 X97.617 Y88.323 E0.15279
G1 X98.521 Y87.972 E0.17537
G1 X99.189 Y87.732 E0.1919
G1 X100.033 Y87.463 E0.21252
G1 X100.844 Y87.263 E0.23197
G1 X101.7 Y87.083 E0.25233
G1 X102.601 Y86.943 E0.27356
G1 X103.563 Y86.839 E0.29609
G1 X104.314 Y86.786 E0.31362
G1 X106.119 Y86.811 E0.35565
G1 X107.391 Y86.942 E0.38542
G1 X108.008 Y87.03 E0.39993
G1 X108.522 Y87.123 E0.41209
G1 X109.237 Y87.279 E0.42913
G1 X109.986 Y87.478 E0.44717
G1 X111.111 Y87.825 E0.47458
G1 X112.985 Y88.617 E0.52195
G1 X113.902 Y89.104 E0.54612
G1 X114.793 Y89.624 E0.57014
G1 X116.216 Y90.636 E0.61079
G1 X117.052 Y91.327 E0.63605
G1 X117.608 Y91.849 E0.6538
G1 X118.067 Y92.304 E0.66885
G1 X118.582 Y92.854 E0.68639
G1 X119.19 Y93.582 E0.70847
G1 X119.607 Y94.113 E0.72419
G1 X120.079 Y94.773 E0.74309
G1 X120.415 Y95.286 E0.75736
G1 X120.884 Y96.076 E0.77875
G1 X121.646 Y97.575 E0.8179
G1 X121.908 Y98.212 E0.83394
G1 X122.17 Y98.908 E0.85125
G1 X122.426 Y99.672 E0.87001
G1 X122.644 Y100.504 E0.89004
G1 X122.947 Y101.843 E0.922
G1 X123.118 Y103.203 E0.95391
G1 X123.206 Y104.229 E0.97789
G1 X123.204 Y105.832 E1.01521
G1 X123.106 Y106.918 E1.0406
G1 X122.96 Y108.079 E1.06784
G1 X122.745 Y109.126 E1.09273
G1 X122.327 Y110.664 E1.12983
G1 X121.977 Y111.611 E1.15334
G1 X121.692 Y112.324 E1.17122
G1 X121.387 Y112.964 E1.18772
G1 X121.028 Y113.655 E1.20585
G1 X120.405 Y114.732 E1.23482
G1 X119.705 Y115.744 E1.26347
G1 X119.323 Y116.258 E1.27838
G1 X118.797 Y116.904 E1.29777
G1 X118.29 Y117.463 E1.31534
G1 X117.716 Y118.04 E1.33429
G1 X116.698 Y118.976 E1.36649
G1 X116.026 Y119.504 E1.38639
G1 X115.394 Y119.962 E1.40456
G1 X114.677 Y120.437 E1.42458
G1 X113.84 Y120.926 E1.44715
G1 X113.189 Y121.277 E1.46437
G1 X112.524 Y121.591 E1.48149
G1 X111.652 Y121.958 E1.50352
G1 X110.977 Y122.208 E1.52028
G1 X109.926 Y122.547 E1.54599
G1 X108.308 Y122.92 E1.58465
G1 X106.979 Y123.099 E1.61587
G1 X105.966 Y123.195 E1.63956
G1 X105.295 Y123.218 E1.65519
G1 X104.374 Y123.215 E1.67663
G1 X102.501 Y123.061 E1.72039
G1 X101.561 Y122.895 E1.74261
G1 X100.769 Y122.724 E1.76148
G1 X100.005 Y122.517 E1.7799
G1 X99.342 Y122.315 E1.79604
G1 X98.514 Y122.028 E1.81644
G1 X97.782 Y121.741 E1.83475
G1 X97.103 Y121.42 E1.85224
G1 X95.843 Y120.608 E1.88714
G1 X94.048 Y119.472 E1.93659
G1 X93.072 Y118.867 E1.96333
G1 X92.542 Y118.492 E1.97844
G1 X92.093 Y118.085 E1.99255
G1 X91.703 Y117.685 E2.00556
G1 X91.001 Y116.913 E2.02985
G1 X90.552 Y116.375 E2.04617
G1 X90.1 Y115.761 E2.06392
G1 X89.372 Y114.406 E2.09973
G1 X89.236 Y114.168 E2.10611
G1 X88.519 Y112.784 E2.1424
G1 X88.207 Y112.077 E2.16039
G1 X87.811 Y111.107 E2.18479
G1 X87.5 Y110.078 E2.20982
G1 X87.303 Y109.359 E2.22717
G1 X87.122 Y108.469 E2.24832
G1 X86.952 Y107.455 E2.27225
G1 X86.839 Y106.587 E2.29263
G1 X86.796 Y105.576 E2.31619
G1 X86.796 Y104.189 E2.34849
G1 X86.931 Y102.639 E2.38471
G1 X87.157 Y101.37 E2.41472
G1 X87.309 Y100.661 E2.4316
G1 X87.436 Y100.158 E2.44368
G1 X87.629 Y99.518 E2.45924
G1 X87.992 Y98.486 E2.48471
G1 X88.251 Y97.834 E2.50105
G1 X88.597 Y97.073 E2.52051
G1 X88.943 Y96.389 E2.53836
G1 X89.695 Y95.023 E2.57466
G1 X89.976 Y94.498 E2.58852
G1 X90.377 Y93.848 E2.60631
G1 X90.941 Y93.167 E2.62689
G1 X91.516 Y92.513 E2.64717
G1 X92.119 Y91.885 E2.66744
M204 S3000
M205 X10 Y10
G0 F1500 X91.715 Y91.497
M204 S1800
M205 X8 Y8
G1 F2400 X92.278 Y90.989 E2.68509
G1 X92.838 Y90.597 E2.70101
G1 X94.364 Y89.668 E2.7426
G1 X96.644 Y88.227 E2.8054
G1 X97.414 Y87.801 E2.82589
G1 X98.332 Y87.445 E2.84881
G1 X99.019 Y87.198 E2.86581
G1 X99.899 Y86.919 E2.8873
G1 X100.729 Y86.715 E2.9072
G1 X101.585 Y86.535 E2.92757
G1 X102.541 Y86.386 E2.95009
G1 X103.524 Y86.28 E2.97311
G1 X104.275 Y86.227 E2.99064
G1 X106.127 Y86.251 E3.03376
G1 X107.47 Y86.388 E3.06519
G1 X108.108 Y86.479 E3.0802
G1 X108.641 Y86.576 E3.09281
G1 X109.381 Y86.738 E3.11045
G1 X110.151 Y86.943 E3.129
G1 X111.329 Y87.309 E3.15772
G1 X113.248 Y88.122 E3.20624
G1 X114.184 Y88.62 E3.23092
G1 X115.075 Y89.14 E3.25494
G1 X116.573 Y90.204 E3.29772
G1 X117.409 Y90.895 E3.32297
G1 X118.002 Y91.451 E3.3419
G1 X118.476 Y91.921 E3.35744
G1 X118.991 Y92.471 E3.37498
G1 X119.63 Y93.236 E3.39819
G1 X120.063 Y93.787 E3.41451
G1 X120.535 Y94.447 E3.4334
G1 X120.897 Y95 E3.44878
G1 X121.366 Y95.79 E3.47017
G1 X122.164 Y97.362 E3.51122
G1 X122.432 Y98.015 E3.52765
G1 X122.701 Y98.73 E3.54544
G1 X122.968 Y99.53 E3.56508
G1 X123.19 Y100.38 E3.58553
G1 X123.503 Y101.773 E3.61877
G1 X123.676 Y103.155 E3.6512
G1 X123.764 Y104.181 E3.67517
G1 X123.762 Y105.882 E3.71477
G1 X123.662 Y106.988 E3.74063
G1 X123.509 Y108.192 E3.76889
G1 X123.294 Y109.239 E3.79377
G1 X122.852 Y110.858 E3.83284
G1 X122.497 Y111.819 E3.8567
G1 X122.198 Y112.565 E3.87541
G1 X121.884 Y113.222 E3.89236
G1 X121.513 Y113.935 E3.91107
G1 X120.866 Y115.051 E3.94111
G1 X120.166 Y116.063 E3.96976
G1 X119.757 Y116.612 E3.9857
G1 X119.212 Y117.28 E4.00577
G1 X118.687 Y117.858 E4.02395
G1 X118.095 Y118.452 E4.04347
G1 X117.044 Y119.416 E4.07668
G1 X116.355 Y119.957 E4.09707
G1 X115.703 Y120.429 E4.11581
G1 X114.959 Y120.921 E4.13658
G1 X114.106 Y121.419 E4.15957
G1 X113.455 Y121.77 E4.17679
G1 X112.741 Y122.107 E4.19518
G1 X111.846 Y122.483 E4.21778
G1 X111.149 Y122.741 E4.23508
G1 X110.052 Y123.093 E4.2619
G1 X108.434 Y123.466 E4.30056
G1 X107.032 Y123.657 E4.33351
G1 X106.019 Y123.753 E4.3572
G1 X105.314 Y123.778 E4.37362
G1 X104.372 Y123.775 E4.39555
G1 X102.455 Y123.619 E4.44033
G1 X101.443 Y123.442 E4.46425
G1 X100.623 Y123.265 E4.48378
G1 X99.842 Y123.053 E4.50262
G1 X99.159 Y122.844 E4.51925
G1 X98.31 Y122.549 E4.54018
G1 X97.543 Y122.247 E4.55937
G1 X96.8 Y121.891 E4.57855
G1 X95.54 Y121.079 E4.61345
G1 X93.753 Y119.948 E4.66269
G1 X92.777 Y119.343 E4.68942
G1 X92.166 Y118.907 E4.7069
G1 X91.692 Y118.476 E4.72182
G1 X91.289 Y118.062 E4.73527
G1 X90.571 Y117.272 E4.76012
G1 X90.122 Y116.734 E4.77644
G1 X89.627 Y116.063 E4.79585
G1 X88.879 Y114.671 E4.83264
G1 X88.739 Y114.426 E4.83921
G1 X88.022 Y113.042 E4.8755
G1 X87.689 Y112.289 E4.89467
G1 X87.275 Y111.269 E4.9203
G1 X86.96 Y110.226 E4.94567
G1 X86.754 Y109.471 E4.96389
G1 X86.57 Y108.562 E4.98548
G1 X86.397 Y107.527 E5.00991
G1 X86.284 Y106.659 E5.03029
G1 X86.236 Y105.576 E5.05553
G1 X86.238 Y104.14 E5.08896
G1 X86.373 Y102.59 E5.12519
G1 X86.609 Y101.253 E5.1568
G1 X86.766 Y100.524 E5.17416
G1 X86.9 Y99.996 E5.18684
G1 X87.101 Y99.332 E5.20299
G1 X87.472 Y98.279 E5.22898
G1 X87.741 Y97.602 E5.24595
G1 X88.097 Y96.82 E5.26595
G1 X88.452 Y96.119 E5.28424
G1 X89.499 Y94.204 E5.33506
G1 X89.9 Y93.554 E5.35284
G1 X90.52 Y92.797 E5.37562
G1 X91.112 Y92.125 E5.39647
G1 X91.715 Y91.497 E5.41674
M204 S3000
M205 X10 Y10
G0 F1500 X91.311 Y91.109
M204 S1800
M205 X8 Y8
G1 F2400 X91.903 Y90.573 E5.43533
G1 X92.517 Y90.138 E5.45285
G1 X94.073 Y89.19 E5.49527
G1 X96.373 Y87.737 E5.55861
G1 X97.143 Y87.311 E5.5791
G1 X98.143 Y86.918 E5.60412
G1 X98.85 Y86.664 E5.62161
G1 X99.765 Y86.375 E5.64395
G1 X100.614 Y86.167 E5.6643
G1 X101.47 Y85.987 E5.68467
G1 X102.481 Y85.829 E5.70849
G1 X103.485 Y85.721 E5.732
G1 X104.236 Y85.668 E5.74953
G1 X106.134 Y85.691 E5.79372
G1 X107.549 Y85.834 E5.82683
G1 X108.208 Y85.928 E5.84233
G1 X108.761 Y86.029 E5.85542
G1 X109.525 Y86.197 E5.87363
G1 X110.317 Y86.408 E5.89271
G1 X111.547 Y86.793 E5.92272
G1 X113.466 Y87.606 E5.97124
G1 X114.466 Y88.136 E5.99759
G1 X115.399 Y88.683 E6.02277
G1 X116.93 Y89.772 E6.06652
G1 X117.766 Y90.463 E6.09177
G1 X118.396 Y91.053 E6.11186
G1 X118.885 Y91.538 E6.1279
G1 X119.4 Y92.088 E6.14544
G1 X120.07 Y92.89 E6.16977
G1 X120.519 Y93.461 E6.18668
G1 X121.004 Y94.14 E6.20611
G1 X121.379 Y94.714 E6.22207
G1 X121.848 Y95.504 E6.24346
G1 X122.682 Y97.149 E6.2864
G1 X122.956 Y97.818 E6.30323
G1 X123.232 Y98.553 E6.32151
G1 X123.51 Y99.388 E6.342
G1 X123.736 Y100.257 E6.36291
G1 X124.059 Y101.703 E6.3974
G1 X124.234 Y103.107 E6.43035
G1 X124.322 Y104.133 E6.45432
G1 X124.32 Y105.932 E6.4962
G1 X124.218 Y107.059 E6.52255
G1 X124.058 Y108.305 E6.5518
G1 X123.843 Y109.352 E6.57668
G1 X123.377 Y111.052 E6.61772
G1 X123.017 Y112.027 E6.64192
G1 X122.718 Y112.773 E6.66063
G1 X122.381 Y113.48 E6.67887
G1 X121.997 Y114.216 E6.6982
G1 X121.327 Y115.37 E6.72926
G1 X120.615 Y116.398 E6.75838
G1 X120.191 Y116.966 E6.77488
G1 X119.627 Y117.657 E6.79565
G1 X119.102 Y118.235 E6.81383
G1 X118.474 Y118.865 E6.83454
G1 X117.423 Y119.829 E6.86774
G1 X116.683 Y120.411 E6.88966
G1 X116.012 Y120.896 E6.90893
G1 X115.241 Y121.405 E6.93044
G1 X114.372 Y121.912 E6.95387
G1 X113.721 Y122.263 E6.97109
G1 X112.958 Y122.623 E6.99073
G1 X112.04 Y123.008 E7.01391
G1 X111.32 Y123.274 E7.03178
G1 X110.178 Y123.639 E7.05969
G1 X108.56 Y124.012 E7.09835
G1 X107.085 Y124.215 E7.13301
G1 X106.072 Y124.311 E7.1567
G1 X105.312 Y124.338 E7.17441
G1 X104.37 Y124.335 E7.19634
G1 X102.359 Y124.171 E7.24332
G1 X101.347 Y123.994 E7.26724
G1 X100.476 Y123.805 E7.28799
G1 X99.678 Y123.588 E7.30724
G1 X98.975 Y123.373 E7.32436
G1 X98.105 Y123.07 E7.3458
G1 X97.301 Y122.752 E7.36593
G1 X96.497 Y122.362 E7.38674
G1 X95.237 Y121.55 E7.42164
G1 X93.458 Y120.424 E7.47066
G1 X92.452 Y119.799 E7.49823
G1 X91.789 Y119.321 E7.51726
G1 X91.291 Y118.867 E7.53295
G1 X90.875 Y118.439 E7.54685
G1 X90.141 Y117.631 E7.57226
G1 X89.692 Y117.093 E7.58858
G1 X89.154 Y116.365 E7.60965
G1 X88.386 Y114.936 E7.64742
G1 X88.242 Y114.684 E7.65418
G1 X87.525 Y113.3 E7.69047
G1 X87.17 Y112.5 E7.71085
G1 X86.756 Y111.48 E7.73647
G1 X86.42 Y110.373 E7.76341
G1 X86.205 Y109.582 E7.78249
G1 X86.018 Y108.654 E7.80453
G1 X85.842 Y107.599 E7.82944
G1 X85.725 Y106.684 E7.85091
G1 X85.676 Y105.575 E7.87676
G1 X85.68 Y104.091 E7.91131
G1 X85.815 Y102.541 E7.94753
G1 X86.062 Y101.135 E7.98077
G1 X86.223 Y100.386 E7.9986
G1 X86.364 Y99.834 E8.01187
G1 X86.573 Y99.146 E8.02861
G1 X86.952 Y98.072 E8.05513
G1 X87.231 Y97.37 E8.07271
G1 X87.597 Y96.567 E8.09326
G1 X87.961 Y95.85 E8.11198
G1 X89.022 Y93.91 E8.16346
G1 X89.423 Y93.26 E8.18124
G1 X90.1 Y92.427 E8.20623
G1 X90.708 Y91.737 E8.22765
G1 X91.311 Y91.109 E8.24792
M204 S3000
M205 X10 Y10
G0 F1500 X90.907 Y90.721
M204 S1800
M205 X8 Y8
G1 F2400 X91.579 Y90.116 E8.26897
G1 X92.193 Y89.681 E8.28649
G1 X93.782 Y88.712 E8.32982
G1 X96.102 Y87.247 E8.3937
G1 X96.938 Y86.79 E8.41588
G1 X97.954 Y86.391 E8.4413
G1 X98.681 Y86.13 E8.45928
G1 X99.632 Y85.831 E8.48249
G1 X100.499 Y85.619 E8.50327
G1 X101.355 Y85.439 E8.52364
G1 X102.421 Y85.272 E8.54876
G1 X103.446 Y85.162 E8.57276
G1 X104.197 Y85.109 E8.59029
G1 X106.141 Y85.131 E8.63555
G1 X107.628 Y85.28 E8.67034
G1 X108.309 Y85.377 E8.68636
G1 X108.881 Y85.482 E8.6999
G1 X109.669 Y85.656 E8.71869
G1 X110.484 Y85.874 E8.73833
G1 X111.765 Y86.277 E8.76959
G1 X113.684 Y87.09 E8.81812
G1 X114.749 Y87.653 E8.84616
G1 X115.724 Y88.227 E8.87251
G1 X117.287 Y89.34 E8.91718
G1 X118.123 Y90.031 E8.94243
G1 X118.79 Y90.655 E8.9637
G1 X119.294 Y91.155 E8.98022
G1 X119.809 Y91.705 E8.99777
G1 X120.51 Y92.544 E9.02322
G1 X120.975 Y93.136 E9.04075
G1 X121.473 Y93.834 E9.06071
G1 X121.861 Y94.428 E9.07723
G1 X122.33 Y95.218 E9.09862
G1 X123.2 Y96.937 E9.14348
G1 X123.48 Y97.621 E9.16068
G1 X123.763 Y98.376 E9.17946
G1 X124.052 Y99.247 E9.20082
G1 X124.283 Y100.135 E9.22218
G1 X124.606 Y101.581 E9.25668
G1 X124.792 Y103.059 E9.29136
G1 X124.88 Y104.085 E9.31534
G1 X124.878 Y105.982 E9.3595
G1 X124.776 Y107.109 E9.38585
G1 X124.607 Y108.418 E9.41658
G1 X124.392 Y109.465 E9.44146
G1 X123.917 Y111.2 E9.48334
G1 X123.537 Y112.235 E9.50901
G1 X123.224 Y113.014 E9.52856
G1 X122.887 Y113.721 E9.54679
G1 X122.481 Y114.497 E9.56719
G1 X121.787 Y115.689 E9.5993
G1 X121.064 Y116.733 E9.62886
G1 X120.625 Y117.32 E9.64593
G1 X120.042 Y118.034 E9.66739
G1 X119.517 Y118.612 E9.68557
G1 X118.853 Y119.278 E9.70747
G1 X117.802 Y120.242 E9.74067
G1 X117.011 Y120.865 E9.76411
G1 X116.321 Y121.363 E9.78392
G1 X115.523 Y121.889 E9.80618
G1 X114.638 Y122.405 E9.83003
G1 X113.987 Y122.756 E9.84725
G1 X113.175 Y123.139 E9.86815
G1 X112.234 Y123.533 E9.8919
G1 X111.49 Y123.807 E9.91036
G1 X110.304 Y124.185 E9.93934
G1 X108.686 Y124.558 E9.978
G1 X107.138 Y124.773 E10.01439
G1 X106.125 Y124.869 E10.03808
G1 X105.31 Y124.898 E10.05706
G1 X104.368 Y124.895 E10.079
G1 X102.263 Y124.723 E10.12817
G1 X101.228 Y124.541 E10.15263
G1 X100.329 Y124.345 E10.17406
G1 X99.514 Y124.124 E10.19372
G1 X98.791 Y123.902 E10.21133
G1 X97.899 Y123.591 E10.23332
G1 X97.095 Y123.273 E10.25345
G1 X96.194 Y122.833 E10.27679
G1 X94.934 Y122.021 E10.31169
G1 X93.162 Y120.9 E10.36051
G1 X92.156 Y120.275 E10.38809
G1 X91.412 Y119.735 E10.40949
G1 X90.889 Y119.257 E10.42598
G1 X90.46 Y118.816 E10.44031
G1 X89.711 Y117.99 E10.46627
G1 X89.262 Y117.452 E10.48258
G1 X88.68 Y116.666 E10.50535
G1 X87.893 Y115.201 E10.54407
G1 X87.745 Y114.942 E10.55102
G1 X87.013 Y113.527 E10.58811
G1 X86.651 Y112.711 E10.60889
G1 X86.22 Y111.643 E10.63571
G1 X85.88 Y110.52 E10.66302
G1 X85.656 Y109.693 E10.68297
G1 X85.466 Y108.746 E10.70546
G1 X85.287 Y107.67 E10.73086
G1 X85.166 Y106.709 E10.75341
G1 X85.116 Y105.573 E10.77988
G1 X85.122 Y104.042 E10.81553
G1 X85.263 Y102.444 E10.85287
G1 X85.51 Y101.038 E10.88611
G1 X85.68 Y100.247 E10.90495
G1 X85.828 Y99.671 E10.91879
G1 X86.045 Y98.96 E10.9361
G1 X86.432 Y97.865 E10.96314
G1 X86.721 Y97.138 E10.98135
G1 X87.087 Y96.335 E11.0019
G1 X87.47 Y95.581 E11.02159
G1 X88.545 Y93.616 E11.07374
G1 X88.988 Y92.907 E11.0932
G1 X89.68 Y92.057 E11.11872
G1 X90.304 Y91.349 E11.14069
G1 X90.907 Y90.721 E11.16096
M204 S3000
M205 X10 Y10
G1 F2400 E5.16096
G0 F1500 X99.623 Y97.733
M204 S1800
M205 X8 Y8
;TYPE:SUPPORT
G1 F2400 E11.16096
G1 F2100 X99.39 Y98.603 E11.17594
G1 X99.225 Y98.923 E11.18193
G1 X99.03 Y99.12 E11.18654
G1 X98.721 Y99.299 E11.19248
G1 X97.909 Y99.482 E11.20632
G1 X97.512 Y99.701 E11.21386
G1 X96.938 Y100.644 E11.23222
G1 X96.456 Y101.686 E11.25131
G1 X96.094 Y102.837 E11.27138
G1 X95.885 Y104.034 E11.29158
G1 X95.848 Y105.013 E11.30788
G1 X95.89 Y106.016 E11.32457
G1 X96.102 Y107.192 E11.34444
G1 X96.395 Y108.119 E11.36061
G1 X96.744 Y108.956 E11.37569
G1 X97.123 Y109.661 E11.389
G1 X97.517 Y110.301 E11.4015
G1 X97.905 Y110.52 E11.40891
G1 X98.634 Y110.689 E11.42136
G1 X98.913 Y110.807 E11.42639
G1 X99.201 Y111.045 E11.43261
G1 X99.412 Y111.459 E11.44033
G1 X99.615 Y112.231 E11.45361
G1 X99.982 Y112.673 E11.46316
G1 X100.968 Y113.233 E11.48202
G1 X101.86 Y113.598 E11.49805
G1 X102.816 Y113.901 E11.51473
G1 X104.034 Y114.115 E11.53529
G1 X104.992 Y114.152 E11.55123
G1 X106.029 Y114.108 E11.5685
G1 X107.186 Y113.899 E11.58805
G1 X108.124 Y113.603 E11.60441
G1 X108.941 Y113.263 E11.61912
G1 X109.814 Y112.798 E11.63557
G1 X110.572 Y112.264 E11.65099
G1 X111.244 Y111.695 E11.66563
G1 X111.742 Y111.191 E11.67742
G1 X112.413 Y110.392 E11.69477
G1 X113.052 Y109.381 E11.71466
G1 X113.543 Y108.316 E11.73416
G1 X113.903 Y107.175 E11.75406
G1 X114.117 Y105.954 E11.77467
G1 X114.153 Y104.991 E11.7907
G1 X114.109 Y103.976 E11.80759
G1 X113.898 Y102.807 E11.82735
G1 X113.602 Y101.873 E11.84364
G1 X113.263 Y101.059 E11.85831
G1 X112.798 Y100.186 E11.87476
G1 X112.257 Y99.418 E11.89038
G1 X111.695 Y98.756 E11.90482
G1 X111.191 Y98.258 E11.9166
G1 X110.394 Y97.589 E11.93391
