;FLAVOR:Marlin
;TIME:2545
;Filament used: 1.06877m
;Layer height: 0.1
;MINX:7.48
;MINY:6.98
;MINZ:0.1
;MAXX:202.52
;MAXY:203.02
;MAXZ:0.4
;Generated with Cura_SteamEngine 4.10.0
M140 S65
M105
M190 S65
M104 S200
M105
M109 S200
M82 ;absolute extrusion mode
G21 ;metric values
G90 ;absolute positioning
M82 ;set extruder to absolute mode
M107 ;start with the fan off
G28 X0 Y0 ;move X/Y to min endstops
G28 Z0 ;move Z to min endstops
G1 Z15.0 F50 ;move the platform down 15mm
G92 E0 ;zero the extruded length
G1 F200 E3 ;extrude 3mm of feed stock
G92 E0 ;zero the extruded length again
G1 F50
G0 Y20 F50
M117 Printing...
G5
G92 E0
G92 E0
G1 F2400 E-6
;LAYER_COUNT:4
;LAYER:0
M107
M204 S3000
M205 X10 Y10
G1 F600 Z0.175
G0 F1500 X9.433 Y9.463 Z0.175
M204 S1800
M205 X8 Y8
;TYPE:SKIRT
G1 F600 Z0.1
G1 F2400 E0
G1 X9.983 Y8.916 E0.01806
G1 X10.585 Y8.428 E0.0361
G1 X11.235 Y8.005 E0.05416
G1 X11.925 Y7.65 E0.07222
G1 X12.648 Y7.369 E0.09028
G1 X13.395 Y7.164 E0.10832
G1 X14.16 Y7.037 E0.12637
G1 X14.798 Y6.992 E0.14126
G1 X15.33 Y6.98 E0.15365
G1 X44.293 Y6.98 E0.82797
G1 X45.115 Y6.992 E0.84711
G1 X45.889 Y7.044 E0.86517
G1 X46.653 Y7.175 E0.88322
G1 X47.4 Y7.385 E0.90129
G1 X48.121 Y7.67 E0.91934
G1 X48.808 Y8.028 E0.93737
G1 X49.466 Y8.462 E0.95572
G1 X50.006 Y8.861 E0.97136
G1 X52.164 Y10.409 E1.03319
G1 X54.34 Y11.879 E1.09433
G1 X56.544 Y13.278 E1.15511
G1 X58.782 Y14.61 E1.21574
G1 X61.078 Y15.893 E1.27698
G1 X63.398 Y17.103 E1.3379
G1 X65.73 Y18.237 E1.39827
G1 X68.14 Y19.325 E1.45983
G1 X70.555 Y20.335 E1.52078
G1 X72.99 Y21.274 E1.58154
G1 X75.456 Y22.143 E1.64241
G1 X77.927 Y22.936 E1.70283
G1 X80.462 Y23.674 E1.7643
G1 X83.007 Y24.335 E1.82552
G1 X85.497 Y24.908 E1.88501
G1 X88.128 Y25.437 E1.94749
G1 X90.67 Y25.871 E2.00753
G1 X93.273 Y26.242 E2.06875
G1 X95.863 Y26.536 E2.12943
G1 X98.466 Y26.757 E2.19026
G1 X101.081 Y26.905 E2.25124
G1 X103.696 Y26.979 E2.31214
G1 X106.31 Y26.979 E2.373
G1 X108.924 Y26.905 E2.43389
G1 X111.535 Y26.757 E2.49477
G1 X114.148 Y26.535 E2.55583
G1 X116.733 Y26.241 E2.6164
G1 X119.332 Y25.871 E2.67752
G1 X121.916 Y25.428 E2.73856
G1 X124.443 Y24.922 E2.79856
G1 X127.02 Y24.328 E2.86013
G1 X129.561 Y23.667 E2.92126
G1 X132.06 Y22.94 E2.98186
G1 X134.561 Y22.136 E3.04302
G1 X137.026 Y21.265 E3.10389
G1 X139.441 Y20.334 E3.16415
G1 X141.876 Y19.317 E3.22558
G1 X144.259 Y18.241 E3.28646
G1 X146.607 Y17.099 E3.34725
G1 X148.931 Y15.887 E3.40827
G1 X151.205 Y14.618 E3.4689
G1 X153.489 Y13.255 E3.53083
G1 X155.65 Y11.884 E3.59041
G1 X157.853 Y10.397 E3.65229
G1 X159.959 Y8.886 E3.71264
G1 X160.39 Y8.565 E3.72515
G1 X160.614 Y8.404 E3.73157
G1 X161.266 Y7.984 E3.74963
G1 X161.958 Y7.634 E3.76768
G1 X162.682 Y7.357 E3.78573
G1 X163.431 Y7.156 E3.80379
G1 X164.197 Y7.033 E3.82185
G1 X164.773 Y6.994 E3.83529
G1 X165.33 Y6.98 E3.84826
G1 X194.39 Y6.981 E4.52484
G1 X195.088 Y6.99 E4.54109
G1 X195.862 Y7.04 E4.55915
G1 X196.626 Y7.169 E4.57719
G1 X197.373 Y7.376 E4.59524
G1 X198.095 Y7.66 E4.6133
G1 X198.784 Y8.016 E4.63136
G1 X199.432 Y8.441 E4.6494
G1 X200.034 Y8.93 E4.66746
G1 X200.581 Y9.479 E4.6855
G1 X201.069 Y10.082 E4.70356
G1 X201.493 Y10.731 E4.72161
G1 X201.848 Y11.421 E4.73968
G1 X202.129 Y12.143 E4.75771
G1 X202.335 Y12.891 E4.77578
G1 X202.462 Y13.655 E4.79381
G1 X202.508 Y14.298 E4.80882
G1 X202.52 Y14.83 E4.82121
G1 X202.519 Y43.878 E5.4975
G1 X202.509 Y44.601 E5.51434
G1 X202.459 Y45.375 E5.5324
G1 X202.329 Y46.139 E5.55044
G1 X202.12 Y46.886 E5.5685
G1 X201.837 Y47.608 E5.58655
G1 X201.48 Y48.296 E5.6046
G1 X201.037 Y48.968 E5.62334
G1 X200.478 Y49.724 E5.64523
G1 X200.368 Y49.869 E5.64947
G1 X198.804 Y52.028 E5.71154
G1 X197.342 Y54.175 E5.77201
G1 X195.937 Y56.365 E5.83259
G1 X194.576 Y58.629 E5.89409
G1 X193.297 Y60.896 E5.95469
G1 X192.076 Y63.215 E6.01571
G1 X190.933 Y65.54 E6.07603
G1 X189.833 Y67.95 E6.13771
G1 X188.819 Y70.345 E6.19826
G1 X187.855 Y72.811 E6.25991
G1 X186.997 Y75.217 E6.31938
G1 X186.175 Y77.737 E6.38109
G1 X185.431 Y80.255 E6.44222
G1 X184.772 Y82.749 E6.50228
G1 X184.164 Y85.336 E6.56415
G1 X183.641 Y87.88 E6.62462
G1 X183.189 Y90.468 E6.68579
G1 X182.81 Y93.048 E6.7465
G1 X182.504 Y95.639 E6.80724
G1 X182.273 Y98.234 E6.8679
G1 X182.114 Y100.852 E6.92896
G1 X182.029 Y103.467 E6.98988
G1 X182.017 Y106.081 E7.05074
G1 X182.08 Y108.694 E7.11159
G1 X182.217 Y111.306 E7.17249
G1 X182.429 Y113.921 E7.23357
G1 X182.715 Y116.542 E7.29495
G1 X183.069 Y119.108 E7.35526
G1 X183.5 Y121.684 E7.41607
G1 X184.007 Y124.267 E7.47735
G1 X184.576 Y126.789 E7.53755
G1 X185.23 Y129.349 E7.59906
G1 X185.946 Y131.852 E7.65968
G1 X186.74 Y134.353 E7.72077
G1 X187.599 Y136.822 E7.78163
G1 X188.518 Y139.236 E7.84177
G1 X189.53 Y141.69 E7.90357
G1 X190.598 Y144.079 E7.9645
G1 X191.718 Y146.409 E8.02469
G1 X192.921 Y148.738 E8.08572
G1 X194.207 Y151.065 E8.14762
G1 X195.518 Y153.286 E8.20766
G1 X196.913 Y155.505 E8.26869
G1 X198.372 Y157.685 E8.32976
G1 X199.451 Y159.217 E8.37339
G1 X200.092 Y160.108 E8.39894
G1 X200.512 Y160.759 E8.41698
G1 X200.863 Y161.451 E8.43505
G1 X201.141 Y162.175 E8.4531
G1 X201.342 Y162.923 E8.47113
G1 X201.466 Y163.689 E8.4892
G1 X201.507 Y164.273 E8.50283
G1 X201.52 Y164.83 E8.5158
G1 X201.519 Y193.867 E9.19184
G1 X201.509 Y194.594 E9.20877
G1 X201.459 Y195.368 E9.22683
G1 X201.329 Y196.133 E9.2449
G1 X201.121 Y196.879 E9.26293
G1 X200.837 Y197.601 E9.28099
G1 X200.48 Y198.29 E9.29906
G1 X200.054 Y198.938 E9.31711
G1 X199.564 Y199.538 E9.33515
G1 X199.015 Y200.086 E9.35321
G1 X198.412 Y200.573 E9.37125
G1 X197.762 Y200.996 E9.38931
G1 X197.073 Y201.35 E9.40734
G1 X196.35 Y201.631 E9.4254
G1 X195.602 Y201.836 E9.44346
G1 X194.837 Y201.963 E9.46152
G1 X194.201 Y202.008 E9.47636
G1 X193.67 Y202.02 E9.48873
G1 X164.6 Y202.019 E10.16554
G1 X163.899 Y202.009 E10.18186
G1 X163.125 Y201.958 E10.19992
G1 X162.361 Y201.828 E10.21796
G1 X161.614 Y201.619 E10.23602
G1 X160.892 Y201.335 E10.25408
G1 X160.204 Y200.978 E10.27213
G1 X159.72 Y200.669 E10.2855
G1 X159.019 Y200.182 E10.30537
G1 X157.983 Y199.44 E10.33504
G1 X155.808 Y197.973 E10.39612
G1 X153.603 Y196.573 E10.45693
G1 X151.359 Y195.237 E10.51774
G1 X149.066 Y193.959 E10.57885
G1 X146.763 Y192.758 E10.63932
G1 X144.415 Y191.617 E10.7001
G1 X142.016 Y190.534 E10.76139
G1 X139.555 Y189.505 E10.82349
G1 X137.177 Y188.593 E10.88279
G1 X134.704 Y187.721 E10.94384
G1 X132.184 Y186.911 E11.00546
G1 X129.691 Y186.188 E11.0659
G1 X127.176 Y185.535 E11.12639
G1 X124.587 Y184.938 E11.18825
G1 X122.037 Y184.429 E11.24879
G1 X119.477 Y183.991 E11.30926
G1 X116.869 Y183.621 E11.37059
G1 X114.291 Y183.329 E11.431
G1 X111.672 Y183.107 E11.49219
G1 X109.063 Y182.96 E11.55303
G1 X106.452 Y182.887 E11.61384
G1 X103.838 Y182.889 E11.6747
G1 X101.217 Y182.964 E11.73575
G1 X98.614 Y183.112 E11.79645
G1 X95.979 Y183.337 E11.85802
G1 X93.423 Y183.629 E11.91792
G1 X90.794 Y184.003 E11.97974
G1 X88.249 Y184.441 E12.03987
G1 X85.654 Y184.962 E12.10149
G1 X83.171 Y185.534 E12.16081
G1 X80.581 Y186.209 E12.22313
G1 X78.072 Y186.939 E12.28396
G1 X75.597 Y187.736 E12.3445
G1 X73.109 Y188.616 E12.40594
G1 X70.675 Y189.554 E12.46668
G1 X68.29 Y190.552 E12.52687
G1 X65.861 Y191.651 E12.58894
G1 X63.556 Y192.772 E12.64862
G1 X61.221 Y193.991 E12.70994
G1 X58.919 Y195.278 E12.77134
G1 X56.694 Y196.605 E12.83166
G1 X54.477 Y198.013 E12.89281
G1 X52.294 Y199.489 E12.95416
G1 X50.173 Y201.012 E13.01495
G1 X49.551 Y201.477 E13.03303
G1 X49.384 Y201.597 E13.03782
G1 X48.732 Y202.016 E13.05586
G1 X48.04 Y202.366 E13.07392
G1 X47.316 Y202.643 E13.09197
G1 X46.567 Y202.844 E13.11002
G1 X45.801 Y202.967 E13.12809
G1 X45.227 Y203.006 E13.14148
G1 X44.67 Y203.02 E13.15445
G1 X15.61 Y203.019 E13.83103
G1 X14.912 Y203.01 E13.84728
G1 X14.138 Y202.96 E13.86534
G1 X13.374 Y202.831 E13.88338
G1 X12.627 Y202.624 E13.90143
G1 X11.905 Y202.34 E13.91949
G1 X11.216 Y201.984 E13.93755
G1 X10.568 Y201.559 E13.95559
G1 X9.966 Y201.07 E13.97365
G1 X9.419 Y200.521 E13.99169
G1 X8.931 Y199.918 E14.00975
G1 X8.507 Y199.269 E14.0278
G1 X8.152 Y198.579 E14.04586
G1 X7.871 Y197.857 E14.0639
G1 X7.665 Y197.109 E14.08197
G1 X7.538 Y196.345 E14.1
G1 X7.492 Y195.694 E14.11519
G1 X7.48 Y195.158 E14.12767
G1 X7.481 Y166.1 E14.80421
G1 X7.491 Y165.397 E14.82057
G1 X7.542 Y164.623 E14.83863
G1 X7.672 Y163.859 E14.85668
G1 X7.881 Y163.112 E14.87474
G1 X8.165 Y162.391 E14.89278
G1 X8.522 Y161.702 E14.91084
G1 X8.962 Y161.035 E14.92945
G1 X9.717 Y160.013 E14.95903
G1 X11.286 Y157.827 E15.02168
G1 X12.743 Y155.672 E15.08224
G1 X14.136 Y153.477 E15.14277
G1 X15.481 Y151.22 E15.20394
G1 X16.76 Y148.931 E15.26499
G1 X17.973 Y146.607 E15.32602
G1 X19.105 Y144.279 E15.38629
G1 X20.196 Y141.863 E15.44801
G1 X21.193 Y139.481 E15.50813
G1 X22.152 Y136.995 E15.57017
G1 X23.014 Y134.55 E15.63053
G1 X23.807 Y132.083 E15.69086
G1 X24.545 Y129.548 E15.75233
G1 X25.201 Y127.025 E15.81302
G1 X25.79 Y124.466 E15.87416
G1 X26.307 Y121.9 E15.9351
G1 X26.744 Y119.34 E15.99556
G1 X27.114 Y116.748 E16.05652
G1 X27.411 Y114.14 E16.11764
G1 X27.632 Y111.538 E16.17843
G1 X27.78 Y108.931 E16.23923
G1 X27.855 Y106.312 E16.30023
G1 X27.855 Y103.696 E16.36113
G1 X27.782 Y101.088 E16.42188
G1 X27.633 Y98.465 E16.48304
G1 X27.414 Y95.873 E16.54361
G1 X27.117 Y93.257 E16.6049
G1 X26.753 Y90.696 E16.66513
G1 X26.306 Y88.089 E16.72671
G1 X25.797 Y85.544 E16.78714
G1 X25.214 Y83.012 E16.84763
G1 X24.547 Y80.452 E16.90922
G1 X23.819 Y77.944 E16.97002
G1 X23.019 Y75.453 E17.03094
G1 X22.148 Y72.985 E17.09187
G1 X21.209 Y70.547 E17.1527
G1 X20.21 Y68.154 E17.21307
G1 X19.117 Y65.732 E17.27494
G1 X17.983 Y63.399 E17.33533
G1 X16.764 Y61.061 E17.39672
G1 X15.503 Y58.802 E17.45695
G1 X14.151 Y56.534 E17.51843
G1 X12.764 Y54.349 E17.57868
G1 X11.293 Y52.169 E17.63991
G1 X9.75 Y50.016 E17.70158
G1 X8.995 Y49.01 E17.73086
G1 X8.562 Y48.367 E17.74891
G1 X8.198 Y47.682 E17.76697
G1 X7.906 Y46.964 E17.78502
G1 X7.69 Y46.219 E17.80308
G1 X7.551 Y45.456 E17.82114
G1 X7.494 Y44.727 E17.83816
G1 X7.48 Y44.17 E17.85113
G1 X7.481 Y15.072 E18.52859
G1 X7.49 Y14.407 E18.54408
G1 X7.54 Y13.634 E18.56211
G1 X7.67 Y12.869 E18.58018
G1 X7.878 Y12.122 E18.59823
G1 X8.162 Y11.4 E18.6163
G1 X8.518 Y10.712 E18.63433
G1 X8.944 Y10.064 E18.65239
G1 X9.433 Y9.463 E18.67043
M204 S3000
M205 X10 Y10
G0 F1500 X9.984 Y9.693
M204 S1800
M205 X8 Y8
G1 F2400 X10.528 Y9.183 E18.68779
G1 X11.124 Y8.734 E18.70516
G1 X11.764 Y8.352 E18.72251
G1 X12.442 Y8.04 E18.73989
G1 X13.149 Y7.802 E18.75726
G1 X13.877 Y7.642 E18.77461
G1 X14.814 Y7.552 E18.79653
G1 X15.33 Y7.54 E18.80854
G1 X44.293 Y7.54 E19.48286
G1 X45.107 Y7.552 E19.50182
G1 X45.851 Y7.603 E19.51918
G1 X46.585 Y7.734 E19.53654
G1 X47.301 Y7.943 E19.5539
G1 X47.991 Y8.227 E19.57128
G1 X48.646 Y8.584 E19.58864
G1 X49.133 Y8.913 E19.60233
G1 X49.63 Y9.28 E19.61671
G1 X51.859 Y10.879 E19.68058
G1 X54.029 Y12.345 E19.74155
G1 X56.236 Y13.746 E19.80241
G1 X58.516 Y15.103 E19.86419
G1 X60.824 Y16.393 E19.92574
G1 X63.131 Y17.596 E19.98632
G1 X65.518 Y18.757 E20.04812
G1 X67.901 Y19.832 E20.10898
G1 X70.327 Y20.847 E20.17021
G1 X72.798 Y21.8 E20.23187
G1 X75.276 Y22.673 E20.29304
G1 X77.777 Y23.476 E20.3542
G1 X80.309 Y24.213 E20.41559
G1 X82.843 Y24.872 E20.47655
G1 X85.406 Y25.461 E20.53778
G1 X88.027 Y25.988 E20.60002
G1 X90.607 Y26.428 E20.66096
G1 X93.165 Y26.793 E20.72112
G1 X95.825 Y27.095 E20.78345
G1 X98.419 Y27.315 E20.84406
G1 X101.07 Y27.465 E20.90588
G1 X103.68 Y27.539 E20.96667
G1 X106.326 Y27.539 E21.02827
G1 X108.936 Y27.465 E21.08906
G1 X111.576 Y27.316 E21.15062
G1 X114.188 Y27.093 E21.21166
G1 X116.841 Y26.792 E21.27382
G1 X119.402 Y26.427 E21.33405
G1 X122.011 Y25.98 E21.39568
G1 X124.575 Y25.467 E21.45656
G1 X127.142 Y24.875 E21.51789
G1 X129.723 Y24.203 E21.57998
G1 X132.212 Y23.48 E21.64033
G1 X134.731 Y22.669 E21.70194
G1 X137.237 Y21.784 E21.76382
G1 X139.65 Y20.854 E21.82403
G1 X142.085 Y19.837 E21.88546
G1 X144.499 Y18.747 E21.94713
G1 X146.874 Y17.592 E22.00862
G1 X149.185 Y16.387 E22.0693
G1 X151.487 Y15.101 E22.13069
G1 X153.757 Y13.748 E22.19221
G1 X155.986 Y12.333 E22.25368
G1 X158.157 Y10.867 E22.31467
G1 X160.321 Y9.315 E22.37667
G1 X160.941 Y8.858 E22.39461
G1 X161.569 Y8.456 E22.41197
G1 X162.237 Y8.123 E22.42935
G1 X162.936 Y7.864 E22.4467
G1 X163.659 Y7.681 E22.46406
G1 X164.398 Y7.576 E22.48144
G1 X165.117 Y7.543 E22.4982
G1 X165.33 Y7.54 E22.50316
G1 X194.383 Y7.541 E23.17957
G1 X195.081 Y7.55 E23.19583
G1 X195.825 Y7.599 E23.21319
G1 X196.56 Y7.728 E23.23056
G1 X197.276 Y7.935 E23.24791
G1 X197.967 Y8.217 E23.26529
G1 X198.623 Y8.572 E23.28265
G1 X199.238 Y8.995 E23.30003
G1 X199.803 Y9.481 E23.31738
G1 X200.314 Y10.025 E23.33476
G1 X200.763 Y10.62 E23.35212
G1 X201.146 Y11.26 E23.36948
G1 X201.459 Y11.937 E23.38685
G1 X201.697 Y12.644 E23.40421
G1 X201.858 Y13.373 E23.4216
G1 X201.948 Y14.314 E23.4436
G1 X201.96 Y14.83 E23.45562
G1 X201.959 Y43.87 E24.13173
G1 X201.949 Y44.593 E24.14857
G1 X201.899 Y45.337 E24.16593
G1 X201.769 Y46.072 E24.18331
G1 X201.562 Y46.789 E24.20068
G1 X201.279 Y47.479 E24.21804
G1 X200.924 Y48.135 E24.23541
G1 X200.586 Y48.635 E24.24946
G1 X199.958 Y49.484 E24.27405
G1 X199.886 Y49.578 E24.27681
G1 X198.359 Y51.687 E24.33743
G1 X196.874 Y53.868 E24.39886
G1 X195.457 Y56.076 E24.45994
G1 X194.094 Y58.342 E24.52151
G1 X192.815 Y60.611 E24.58215
G1 X191.579 Y62.957 E24.64388
G1 X190.422 Y65.31 E24.70493
G1 X189.328 Y67.706 E24.76625
G1 X188.297 Y70.144 E24.82788
G1 X187.331 Y72.616 E24.88968
G1 X186.453 Y75.075 E24.95047
G1 X185.647 Y77.549 E25.01105
G1 X184.896 Y80.088 E25.07269
G1 X184.217 Y82.656 E25.13453
G1 X183.628 Y85.165 E25.19454
G1 X183.085 Y87.807 E25.25733
G1 X182.637 Y90.37 E25.31791
G1 X182.256 Y92.966 E25.379
G1 X181.95 Y95.559 E25.43979
G1 X181.713 Y98.224 E25.50208
G1 X181.554 Y100.836 E25.563
G1 X181.469 Y103.445 E25.62378
G1 X181.457 Y106.092 E25.68541
G1 X181.521 Y108.738 E25.74703
G1 X181.658 Y111.344 E25.80779
G1 X181.869 Y113.957 E25.86882
G1 X182.155 Y116.576 E25.93016
G1 X182.518 Y119.203 E25.9919
G1 X182.948 Y121.78 E26.05273
G1 X183.46 Y124.388 E26.11461
G1 X184.039 Y126.949 E26.17574
G1 X184.682 Y129.465 E26.2362
G1 X185.415 Y132.03 E26.29831
G1 X186.208 Y134.53 E26.35937
G1 X187.067 Y136.997 E26.42019
G1 X188.009 Y139.472 E26.48185
G1 X189.003 Y141.882 E26.54254
G1 X190.083 Y144.299 E26.60418
G1 X191.238 Y146.7 E26.66621
G1 X192.419 Y148.987 E26.72614
G1 X193.721 Y151.343 E26.78881
G1 X195.038 Y153.576 E26.84916
G1 X196.45 Y155.821 E26.91091
G1 X197.914 Y158.009 E26.9722
G1 X198.951 Y159.481 E27.01413
G1 X199.638 Y160.435 E27.0415
G1 X200.041 Y161.063 E27.05887
G1 X200.374 Y161.73 E27.07623
G1 X200.634 Y162.429 E27.09359
G1 X200.818 Y163.152 E27.11096
G1 X200.923 Y163.89 E27.12831
G1 X200.957 Y164.618 E27.14528
G1 X200.96 Y164.83 E27.15022
G1 X200.959 Y193.86 E27.8261
G1 X200.949 Y194.587 E27.84303
G1 X200.899 Y195.331 E27.86039
G1 X200.77 Y196.066 E27.87776
G1 X200.562 Y196.782 E27.89512
G1 X200.279 Y197.472 E27.91248
G1 X199.924 Y198.128 E27.92985
G1 X199.501 Y198.742 E27.94721
G1 X199.014 Y199.308 E27.96459
G1 X198.47 Y199.818 E27.98195
G1 X197.874 Y200.266 E27.99931
G1 X197.234 Y200.649 E28.01668
G1 X196.556 Y200.961 E28.03405
G1 X195.849 Y201.198 E28.05141
G1 X195.12 Y201.359 E28.0688
G1 X194.186 Y201.448 E28.09064
G1 X193.67 Y201.46 E28.10266
G1 X164.608 Y201.459 E28.77928
G1 X163.907 Y201.449 E28.7956
G1 X163.163 Y201.399 E28.81296
G1 X162.428 Y201.269 E28.83034
G1 X161.712 Y201.061 E28.8477
G1 X161.022 Y200.778 E28.86507
G1 X160.366 Y200.422 E28.88244
G1 X160.039 Y200.209 E28.89153
G1 X159.345 Y199.726 E28.91121
G1 X158.311 Y198.985 E28.94083
G1 X156.12 Y197.507 E29.00236
G1 X153.912 Y196.105 E29.06326
G1 X151.625 Y194.744 E29.12522
G1 X149.347 Y193.474 E29.18594
G1 X147.002 Y192.252 E29.24751
G1 X144.626 Y191.097 E29.30901
G1 X142.256 Y190.027 E29.36956
G1 X139.775 Y188.99 E29.43216
G1 X137.375 Y188.069 E29.49201
G1 X134.874 Y187.187 E29.55375
G1 X132.345 Y186.374 E29.6156
G1 X129.844 Y185.649 E29.67623
G1 X127.299 Y184.988 E29.73745
G1 X124.726 Y184.395 E29.79892
G1 X122.124 Y183.876 E29.8607
G1 X119.581 Y183.441 E29.92076
G1 X116.942 Y183.066 E29.98282
G1 X114.328 Y182.77 E30.04407
