;FLAVOR:Marlin
;TIME:3042
;Filament used: 3.88907m
;Layer height: 0.2
;MINX:78.481
;MINY:55.98
;MINZ:0.2
;MAXX:131.516
;MAXY:154.02
;MAXZ:5
;Generated with Cura_SteamEngine 4.10.0
M140 S65
M105
M190 S65
M104 S200
M105
M109 S200
M82 ;absolute extrusion mode
G21 ;metric values
G90 ;absolute positioning
M82 ;set extruder to absolute mode
M107 ;start with the fan off
G28 X0 Y0 ;move X/Y to min endstops
G28 Z0 ;move Z to min endstops
G1 Z15.0 F100 ;move the platform down 15mm
G92 E0 ;zero the extruded length
G1 F200 E3 ;extrude 3mm of feed stock
G92 E0 ;zero the extruded length again
G1 F100
G0 Y20 F100
M117 Printing...
G5
G92 E0
G92 E0
G1 F2400 E-6
;LAYER_COUNT:25
;LAYER:0
M107
M204 S3000
M205 X10 Y10
G1 F600 Z0.275
G0 F3000 X79.95 Y59.058 Z0.275
M204 S1800
M205 X8 Y8
;TYPE:SKIRT
G1 F600 Z0.2
G1 F2400 E0
G1 X80.44 Y58.457 E0.03611
G1 X80.99 Y57.911 E0.07219
G1 X81.593 Y57.423 E0.10832
G1 X82.244 Y57.001 E0.14444
G1 X82.934 Y56.647 E0.18055
G1 X83.657 Y56.367 E0.21665
G1 X84.405 Y56.163 E0.25276
G1 X85.17 Y56.036 E0.28887
G1 X85.8 Y55.992 E0.31827
G1 X86.331 Y55.98 E0.343
G1 X95.792 Y55.98 E0.78355
G1 X96.747 Y55.993 E0.82802
G1 X96.941 Y55.998 E0.83706
G1 X97.548 Y56.022 E0.86534
G1 X100.164 Y56.09 E0.9872
G1 X102.77 Y56.083 E1.10854
G1 X104.317 Y56.026 E1.18063
G1 X104.539 Y56.029 E1.19097
G1 X106.111 Y55.983 E1.2642
G1 X106.332 Y55.98 E1.27449
G1 X115.894 Y55.981 E1.71973
G1 X116.705 Y55.992 E1.7575
G1 X117.33 Y56.017 E1.78663
G1 X118.2 Y56.087 E1.82727
G1 X118.856 Y56.18 E1.85812
G1 X119.364 Y56.269 E1.88214
G1 X119.972 Y56.399 E1.91109
G1 X120.308 Y56.485 E1.92724
G1 X120.858 Y56.64 E1.95384
G1 X121.584 Y56.88 E1.98945
G1 X122.312 Y57.164 E2.02584
G1 X122.797 Y57.376 E2.05048
G1 X123.329 Y57.639 E2.07812
G1 X123.789 Y57.883 E2.10236
G1 X124.35 Y58.208 E2.13255
G1 X124.662 Y58.408 E2.14981
G1 X125.106 Y58.707 E2.17473
G1 X125.712 Y59.154 E2.2098
G1 X125.951 Y59.346 E2.22407
G1 X126.353 Y59.683 E2.2485
G1 X126.845 Y60.129 E2.27942
G1 X127.106 Y60.386 E2.29648
G1 X127.486 Y60.779 E2.32193
G1 X127.882 Y61.217 E2.34943
G1 X128.135 Y61.523 E2.36792
G1 X128.477 Y61.959 E2.39372
G1 X128.871 Y62.503 E2.425
G1 X129.073 Y62.809 E2.44207
G1 X129.363 Y63.272 E2.46751
G1 X129.671 Y63.806 E2.49621
G1 X129.843 Y64.134 E2.51346
G1 X130.095 Y64.646 E2.54003
G1 X130.307 Y65.118 E2.56412
G1 X130.53 Y65.678 E2.59219
G1 X130.822 Y66.514 E2.63342
G1 X130.988 Y67.092 E2.66143
G1 X131.116 Y67.601 E2.68587
G1 X131.244 Y68.204 E2.71457
G1 X131.321 Y68.66 E2.7361
G1 X131.398 Y69.207 E2.76183
G1 X131.466 Y69.884 E2.79351
G1 X131.484 Y70.198 E2.80815
G1 X131.506 Y70.764 E2.83453
G1 X131.516 Y71.413 E2.86475
G1 X131.506 Y72.206 E2.90168
G1 X131.48 Y72.842 E2.93132
G1 X131.431 Y73.518 E2.96288
G1 X131.386 Y73.987 E2.98482
G1 X131.161 Y76.717 E3.11237
G1 X131.023 Y79.292 E3.23245
G1 X130.955 Y81.941 E3.35583
G1 X130.963 Y84.556 E3.4776
G1 X131.043 Y87.132 E3.59761
G1 X131.201 Y89.783 E3.72127
G1 X131.323 Y91.179 E3.78652
G1 X131.468 Y92.906 E3.86722
G1 X131.485 Y93.202 E3.88102
G1 X131.507 Y93.794 E3.90861
G1 X131.516 Y94.335 E3.9338
G1 X131.516 Y94.56 E3.94428
G1 X131.503 Y95.361 E3.98158
G1 X131.489 Y95.721 E3.99836
G1 X131.447 Y96.351 E4.02776
G1 X131.231 Y99.135 E4.15778
G1 X131.1 Y101.78 E4.2811
G1 X131.047 Y104.358 E4.40117
G1 X131.066 Y107.004 E4.52438
G1 X131.159 Y109.588 E4.64478
G1 X131.382 Y112.883 E4.79856
G1 X131.46 Y113.795 E4.84118
G1 X131.481 Y114.139 E4.85723
G1 X131.507 Y114.802 E4.88812
G1 X131.516 Y115.337 E4.91304
G1 X131.516 Y115.528 E4.92193
G1 X131.507 Y116.204 E4.95341
G1 X131.482 Y116.841 E4.9831
G1 X131.435 Y117.489 E5.01335
G1 X131.367 Y118.206 E5.04689
G1 X131.152 Y120.878 E5.17171
G1 X131.016 Y123.488 E5.2934
G1 X130.954 Y126.103 E5.4152
G1 X130.966 Y128.717 E5.53692
G1 X131.051 Y131.328 E5.65857
G1 X131.21 Y133.918 E5.7794
G1 X131.323 Y135.114 E5.83533
G1 X131.33 Y135.271 E5.84265
G1 X131.461 Y136.809 E5.91453
G1 X131.482 Y137.159 E5.93085
G1 X131.507 Y137.807 E5.96105
G1 X131.516 Y138.323 E5.98508
G1 X131.516 Y138.536 E5.995
G1 X131.503 Y139.358 E6.03328
G1 X131.488 Y139.735 E6.05085
G1 X131.452 Y140.28 E6.07628
G1 X131.397 Y140.817 E6.10142
G1 X131.319 Y141.351 E6.12655
G1 X131.146 Y142.278 E6.17046
G1 X131.01 Y142.823 E6.19661
G1 X130.857 Y143.364 E6.22279
G1 X130.625 Y144.068 E6.25731
G1 X130.335 Y144.814 E6.29458
G1 X130.133 Y145.278 E6.31814
G1 X129.878 Y145.797 E6.34507
G1 X129.634 Y146.259 E6.3694
G1 X129.294 Y146.844 E6.4009
G1 X129.109 Y147.136 E6.417
G1 X128.803 Y147.593 E6.44261
G1 X128.499 Y148.015 E6.46683
G1 X128.142 Y148.465 E6.49357
G1 X127.813 Y148.857 E6.5174
G1 X127.398 Y149.318 E6.54629
G1 X127.146 Y149.574 E6.56301
G1 X126.732 Y149.976 E6.58988
G1 X126.282 Y150.383 E6.61814
G1 X125.976 Y150.636 E6.63662
G1 X125.54 Y150.978 E6.66243
G1 X124.937 Y151.412 E6.69702
G1 X124.626 Y151.615 E6.71431
G1 X124.197 Y151.881 E6.73782
G1 X123.694 Y152.171 E6.76485
G1 X123.352 Y152.351 E6.78285
G1 X122.871 Y152.588 E6.80782
G1 X122.383 Y152.807 E6.83273
G1 X121.816 Y153.032 E6.86113
G1 X120.985 Y153.323 E6.90213
G1 X120.407 Y153.489 E6.93013
G1 X119.898 Y153.617 E6.95457
G1 X119.295 Y153.745 E6.98327
G1 X118.839 Y153.822 E7.00481
G1 X118.292 Y153.899 E7.03053
G1 X117.611 Y153.967 E7.0624
G1 X117.292 Y153.986 E7.07728
G1 X116.684 Y154.009 E7.10561
G1 X115.91 Y154.02 E7.14165
G1 X106.6 Y154.019 E7.57517
G1 X105.913 Y154.009 E7.60716
G1 X105.309 Y153.986 E7.6353
G1 X102.612 Y153.91 E7.76094
G1 X99.971 Y153.91 E7.88391
G1 X97.789 Y153.967 E7.98555
G1 X96.673 Y154.009 E8.03755
G1 X95.909 Y154.02 E8.07313
G1 X86.599 Y154.019 E8.50664
G1 X85.902 Y154.009 E8.5391
G1 X85.128 Y153.958 E8.57522
G1 X84.364 Y153.828 E8.61131
G1 X83.617 Y153.619 E8.64743
G1 X82.896 Y153.335 E8.68351
G1 X82.208 Y152.978 E8.7196
G1 X81.56 Y152.552 E8.75571
G1 X80.959 Y152.061 E8.79185
G1 X80.412 Y151.512 E8.82794
G1 X79.925 Y150.909 E8.86403
G1 X79.502 Y150.259 E8.90014
G1 X79.149 Y149.568 E8.93627
G1 X78.868 Y148.846 E8.97235
G1 X78.664 Y148.098 E9.00845
G1 X78.537 Y147.333 E9.04456
G1 X78.493 Y146.693 E9.07443
G1 X78.481 Y146.157 E9.09939
G1 X78.482 Y131.101 E9.80047
G1 X78.504 Y129.572 E9.87167
G1 X78.54 Y128.304 E9.93074
G1 X78.54 Y125.652 E10.05422
G1 X78.51 Y124.276 E10.11831
G1 X78.484 Y123.391 E10.15954
G1 X78.481 Y123.17 E10.16983
G1 X78.482 Y108.109 E10.87113
G1 X78.508 Y106.278 E10.9564
G1 X78.508 Y103.547 E11.08357
G1 X78.481 Y102.187 E11.14691
G1 X78.482 Y87.101 E11.84938
G1 X78.504 Y85.572 E11.92058
G1 X78.54 Y84.304 E11.97965
G1 X78.54 Y81.652 E12.10314
G1 X78.51 Y80.276 E12.16722
G1 X78.484 Y79.391 E12.20845
G1 X78.481 Y79.17 E12.21874
G1 X78.482 Y64.089 E12.92098
G1 X78.492 Y63.4 E12.95306
G1 X78.543 Y62.626 E12.98918
G1 X78.674 Y61.862 E13.02528
G1 X78.882 Y61.115 E13.06138
G1 X79.167 Y60.394 E13.09748
G1 X79.524 Y59.706 E13.13357
G1 X79.95 Y59.058 E13.16968
M204 S3000
M205 X10 Y10
G0 F3000 X80.504 Y59.253
M204 S1800
M205 X8 Y8
G1 F2400 X80.991 Y58.689 E13.20438
G1 X81.535 Y58.179 E13.2391
G1 X82.131 Y57.731 E13.27382
G1 X82.772 Y57.349 E13.30857
G1 X83.45 Y57.037 E13.34332
G1 X84.157 Y56.8 E13.37804
G1 X84.886 Y56.641 E13.41279
G1 X85.815 Y56.552 E13.45624
G1 X86.331 Y56.54 E13.48028
G1 X95.792 Y56.54 E13.92082
G1 X96.739 Y56.553 E13.96492
G1 X96.919 Y56.558 E13.9733
G1 X97.447 Y56.579 E13.99791
G1 X100.187 Y56.65 E14.12554
G1 X102.791 Y56.643 E14.24679
G1 X104.337 Y56.586 E14.31883
G1 X104.548 Y56.589 E14.32866
G1 X106.128 Y56.543 E14.40226
G1 X106.332 Y56.54 E14.41176
G1 X115.886 Y56.541 E14.85663
G1 X116.697 Y56.552 E14.8944
G1 X117.293 Y56.576 E14.92217
G1 X118.131 Y56.643 E14.96132
G1 X118.759 Y56.731 E14.99085
G1 X119.267 Y56.82 E15.01486
G1 X119.845 Y56.944 E15.04239
G1 X120.156 Y57.024 E15.05734
G1 X120.706 Y57.179 E15.08395
G1 X121.397 Y57.408 E15.11785
G1 X122.105 Y57.684 E15.15323
G1 X122.824 Y58.011 E15.19001
G1 X123.066 Y58.133 E15.20263
G1 X123.526 Y58.377 E15.22688
G1 X124.061 Y58.688 E15.25569
G1 X124.35 Y58.872 E15.27164
G1 X124.794 Y59.171 E15.29657
G1 X125.37 Y59.597 E15.32993
G1 X125.591 Y59.775 E15.34314
G1 X125.993 Y60.112 E15.36757
G1 X126.462 Y60.537 E15.39704
G1 X126.704 Y60.775 E15.41284
G1 X127.084 Y61.168 E15.4383
G1 X127.46 Y61.586 E15.46448
G1 X127.694 Y61.868 E15.48154
G1 X128.036 Y62.304 E15.50735
G1 X128.411 Y62.823 E15.53716
G1 X128.598 Y63.106 E15.55296
G1 X128.888 Y63.569 E15.57839
G1 X129.182 Y64.078 E15.60577
G1 X129.341 Y64.381 E15.6217
G1 X129.593 Y64.893 E15.64827
G1 X129.902 Y65.606 E15.68445
G1 X130.168 Y66.321 E15.71998
G1 X130.356 Y66.908 E15.74868
G1 X130.445 Y67.229 E15.76419
G1 X130.573 Y67.738 E15.78863
G1 X130.695 Y68.31 E15.81586
G1 X130.766 Y68.738 E15.83606
G1 X130.843 Y69.285 E15.86179
G1 X130.907 Y69.929 E15.89192
G1 X130.925 Y70.22 E15.9055
G1 X130.947 Y70.786 E15.93187
G1 X130.956 Y71.418 E15.9613
G1 X130.946 Y72.198 E15.99763
G1 X130.921 Y72.804 E16.02587
G1 X130.874 Y73.464 E16.05668
G1 X130.828 Y73.941 E16.07899
G1 X130.603 Y76.676 E16.20678
G1 X130.463 Y79.284 E16.32839
G1 X130.395 Y81.928 E16.45155
G1 X130.403 Y84.539 E16.57313
G1 X130.485 Y87.185 E16.69639
G1 X130.642 Y89.828 E16.81968
G1 X130.765 Y91.226 E16.88503
G1 X130.914 Y93.002 E16.96802
G1 X130.925 Y93.223 E16.97832
G1 X130.947 Y93.815 E17.00591
G1 X130.956 Y94.343 E17.0305
G1 X130.956 Y94.551 E17.04018
G1 X130.943 Y95.352 E17.07748
G1 X130.93 Y95.685 E17.093
G1 X130.889 Y96.307 E17.12203
G1 X130.672 Y99.098 E17.25238
G1 X130.54 Y101.775 E17.37718
G1 X130.487 Y104.351 E17.49716
G1 X130.506 Y107.028 E17.62181
G1 X130.6 Y109.615 E17.74235
G1 X130.822 Y112.908 E17.89604
G1 X130.902 Y113.842 E17.93969
G1 X130.922 Y114.161 E17.95457
G1 X130.948 Y114.824 E17.98547
G1 X130.956 Y115.344 E18.00968
G1 X130.956 Y115.521 E18.01793
G1 X130.947 Y116.197 E18.04941
G1 X130.923 Y116.803 E18.07765
G1 X130.877 Y117.437 E18.10725
G1 X130.813 Y118.116 E18.139
G1 X130.594 Y120.839 E18.26621
G1 X130.456 Y123.481 E18.3894
G1 X130.394 Y126.092 E18.51101
G1 X130.406 Y128.737 E18.63417
G1 X130.491 Y131.346 E18.75572
G1 X130.653 Y133.976 E18.87842
G1 X130.765 Y135.167 E18.93412
G1 X130.771 Y135.307 E18.94065
G1 X130.903 Y136.857 E19.01308
G1 X130.923 Y137.181 E19.0282
G1 X130.948 Y137.829 E19.05839
G1 X130.956 Y138.33 E19.08173
G1 X130.956 Y138.527 E19.0909
G1 X130.943 Y139.349 E19.12918
G1 X130.929 Y139.698 E19.14544
G1 X130.893 Y140.243 E19.17088
G1 X130.8 Y141.043 E19.20838
G1 X130.687 Y141.726 E19.24061
G1 X130.549 Y142.371 E19.27133
G1 X130.471 Y142.671 E19.28576
G1 X130.318 Y143.212 E19.31194
G1 X130.097 Y143.882 E19.34479
G1 X129.815 Y144.607 E19.38102
G1 X129.507 Y145.287 E19.41578
G1 X129.382 Y145.535 E19.42871
G1 X129.138 Y145.997 E19.45304
G1 X128.815 Y146.554 E19.48302
G1 X128.643 Y146.824 E19.49792
G1 X128.337 Y147.281 E19.52353
G1 X127.884 Y147.894 E19.55903
G1 X127.713 Y148.105 E19.57167
G1 X127.384 Y148.497 E19.5955
G1 X126.989 Y148.935 E19.62297
G1 X126.756 Y149.172 E19.63844
G1 X126.342 Y149.574 E19.66531
G1 X125.913 Y149.961 E19.69222
G1 X125.631 Y150.195 E19.70928
G1 X125.195 Y150.537 E19.73508
G1 X124.618 Y150.951 E19.76815
G1 X124.331 Y151.139 E19.78413
G1 X123.902 Y151.405 E19.80763
G1 X123.421 Y151.682 E19.83348
G1 X123.104 Y151.848 E19.85014
G1 X122.623 Y152.085 E19.87511
G1 X121.865 Y152.413 E19.91356
G1 X121.189 Y152.665 E19.94716
G1 X120.591 Y152.857 E19.9764
G1 X120.27 Y152.946 E19.99191
G1 X119.761 Y153.074 E20.01635
G1 X119.189 Y153.196 E20.04359
G1 X118.761 Y153.267 E20.06379
G1 X118.214 Y153.344 E20.08951
G1 X117.567 Y153.409 E20.11979
G1 X117.271 Y153.426 E20.1336
G1 X116.663 Y153.449 E20.16193
G1 X115.995 Y153.459 E20.19304
G1 X106.709 Y153.46 E20.62543
G1 X105.921 Y153.449 E20.66213
G1 X105.277 Y153.425 E20.69213
G1 X102.628 Y153.35 E20.81553
G1 X99.994 Y153.35 E20.93818
G1 X97.691 Y153.41 E21.04546
G1 X96.652 Y153.449 E21.09387
G1 X95.996 Y153.459 E21.12442
G1 X86.707 Y153.46 E21.55695
G1 X85.91 Y153.449 E21.59407
G1 X85.166 Y153.399 E21.62879
G1 X84.431 Y153.269 E21.66355
G1 X83.715 Y153.061 E21.69827
G1 X83.025 Y152.777 E21.73301
G1 X82.369 Y152.422 E21.76774
G1 X81.755 Y151.998 E21.80249
G1 X81.19 Y151.511 E21.83722
G1 X80.681 Y150.967 E21.87191
G1 X80.232 Y150.371 E21.90666
G1 X79.85 Y149.73 E21.9414
G1 X79.539 Y149.052 E21.97614
G1 X79.302 Y148.345 E22.01086
G1 X79.142 Y147.616 E22.04561
G1 X79.053 Y146.678 E22.08948
G1 X79.041 Y146.157 E22.11375
G1 X79.042 Y131.109 E22.81445
G1 X79.064 Y129.588 E22.88528
G1 X79.1 Y128.32 E22.94435
G1 X79.1 Y125.64 E23.06914
G1 X79.07 Y124.259 E23.13346
G1 X79.044 Y123.374 E23.17469
G1 X79.041 Y123.17 E23.18419
G1 X79.042 Y108.117 E23.88512
G1 X79.068 Y106.315 E23.96903
G1 X79.068 Y103.536 E24.09844
G1 X79.041 Y102.187 E24.16126
G1 X79.042 Y87.109 E24.86336
G1 X79.064 Y85.588 E24.93419
G1 X79.1 Y84.32 E24.99326
G1 X79.1 Y81.64 E25.11805
G1 X79.07 Y80.259 E25.18237
G1 X79.044 Y79.374 E25.2236
G1 X79.041 Y79.17 E25.2331
G1 X79.042 Y64.097 E25.93496
G1 X79.052 Y63.408 E25.96705
G1 X79.103 Y62.664 E26.00177
G1 X79.233 Y61.929 E26.03653
G1 X79.441 Y61.213 E26.07125
G1 X79.724 Y60.523 E26.10597
G1 X80.08 Y59.867 E26.14073
G1 X80.504 Y59.253 E26.17547
M204 S3000
M205 X10 Y10
G0 F3000 X81.056 Y59.458
M204 S1800
M205 X8 Y8
G1 F2400 X81.539 Y58.93 E26.20879
G1 X82.078 Y58.46 E26.24209
G1 X82.666 Y58.053 E26.27539
G1 X83.296 Y57.713 E26.30873
G1 X83.96 Y57.447 E26.34203
G1 X84.649 Y57.256 E26.37533
G1 X85.355 Y57.143 E26.40862
G1 X86.151 Y57.103 E26.44573
G1 X86.331 Y57.1 E26.45411
G1 X95.882 Y57.101 E26.89885
G1 X96.896 Y57.117 E26.94607
G1 X97.474 Y57.14 E26.973
G1 X100.173 Y57.21 E27.09872
G1 X102.785 Y57.203 E27.22035
G1 X104.358 Y57.145 E27.29364
G1 X104.571 Y57.149 E27.30356
G1 X106.144 Y57.103 E27.37684
G1 X106.332 Y57.1 E27.3856
G1 X115.879 Y57.101 E27.83015
G1 X116.859 Y57.116 E27.87578
G1 X117.704 Y57.164 E27.91519
G1 X118.264 Y57.223 E27.94141
G1 X118.662 Y57.283 E27.96016
G1 X119.17 Y57.372 E27.98417
G1 X119.718 Y57.49 E28.01027
G1 X120.004 Y57.563 E28.02402
G1 X120.554 Y57.718 E28.05062
G1 X121.21 Y57.935 E28.0828
G1 X121.899 Y58.204 E28.11724
G1 X122.581 Y58.516 E28.15216
G1 X122.804 Y58.628 E28.16378
G1 X123.264 Y58.872 E28.18803
G1 X123.771 Y59.167 E28.21534
G1 X124.037 Y59.336 E28.23002
G1 X124.481 Y59.635 E28.25494
G1 X125.028 Y60.041 E28.28666
G1 X125.232 Y60.204 E28.29882
G1 X125.634 Y60.541 E28.32325
G1 X126.079 Y60.946 E28.35126
G1 X126.301 Y61.164 E28.36575
G1 X126.681 Y61.557 E28.39121
G1 X127.038 Y61.954 E28.41607
G1 X127.254 Y62.214 E28.43181
G1 X127.596 Y62.65 E28.45761
G1 X127.952 Y63.143 E28.48593
G1 X128.124 Y63.404 E28.50048
G1 X128.414 Y63.867 E28.52592
G1 X128.692 Y64.349 E28.55183
G1 X128.838 Y64.629 E28.56653
G1 X129.09 Y65.141 E28.59311
G1 X129.384 Y65.818 E28.62747
G1 X129.641 Y66.512 E28.66193
G1 X129.82 Y67.07 E28.68922
G1 X129.902 Y67.365 E28.70348
G1 X130.03 Y67.874 E28.72792
G1 X130.145 Y68.417 E28.75376
G1 X130.212 Y68.816 E28.7726
G1 X130.289 Y69.363 E28.79832
G1 X130.349 Y69.974 E28.82691
G1 X130.365 Y70.241 E28.83937
G1 X130.387 Y70.807 E28.86574
G1 X130.396 Y71.423 E28.89443
G1 X130.386 Y72.19 E28.93015
G1 X130.363 Y72.766 E28.95699
G1 X130.317 Y73.411 E28.9871
G1 X130.262 Y73.983 E29.01386
G1 X130.046 Y76.599 E29.13608
G1 X129.903 Y79.275 E29.26087
G1 X129.835 Y81.915 E29.38384
G1 X129.843 Y84.559 E29.50695
G1 X129.925 Y87.199 E29.62994
G1 X130.084 Y89.875 E29.75477
G1 X130.207 Y91.273 E29.82012
G1 X130.355 Y93.041 E29.90273
G1 X130.366 Y93.243 E29.91215
G1 X130.388 Y93.835 E29.93973
G1 X130.396 Y94.35 E29.96372
G1 X130.396 Y94.542 E29.97266
G1 X130.383 Y95.343 E30.00996
G1 X130.371 Y95.649 E30.02422
G1 X130.331 Y96.264 E30.05292
G1 X130.111 Y99.098 E30.18528
G1 X129.983 Y101.702 E30.30668
G1 X129.927 Y104.378 E30.43131
G1 X129.946 Y107.017 E30.5542
G1 X130.042 Y109.671 E30.67786
G1 X130.261 Y112.917 E30.82935
G1 X130.344 Y113.89 E30.87482
G1 X130.362 Y114.183 E30.88849
G1 X130.388 Y114.846 E30.91939
G1 X130.397 Y115.351 E30.9429
G1 X130.387 Y116.189 E30.98193
G1 X130.364 Y116.765 E31.00877
G1 X130.32 Y117.384 E31.03767
G1 X130.247 Y118.158 E31.07387
G1 X130.034 Y120.799 E31.19724
G1 X129.897 Y123.438 E31.32029
G1 X129.834 Y126.081 E31.44339
G1 X129.846 Y128.724 E31.56646
