;FLAVOR:Marlin
;TIME:949
;Filament used: 0.83428m
;Layer height: 0.2
;MINX:79.435
;MINY:89.48
;MINZ:0.2
;MAXX:126.223
;MAXY:120.52
;MAXZ:16
;Generated with Cura_SteamEngine 4.10.0
M140 S65
M105
M190 S65
M104 S200
M105
M109 S200
M82 ;absolute extrusion mode
G21 ;metric values
G90 ;absolute positioning
M82 ;set extruder to absolute mode
M107 ;start with the fan off
G28 X0 Y0 ;move X/Y to min endstops
G28 Z0 ;move Z to min endstops
G1 Z15.0 F100 ;move the platform down 15mm
G92 E0 ;zero the extruded length
G1 F200 E3 ;extrude 3mm of feed stock
G92 E0 ;zero the extruded length again
G1 F100
G0 Y20 F100
M117 Printing...
G5
G92 E0
G92 E0
G1 F2400 E-6
;LAYER_COUNT:80
;LAYER:0
M107
M204 S3000
M205 X10 Y10
G1 F600 Z0.275
G0 F3000 X84.638 Y93.144 Z0.275
M204 S1800
M205 X8 Y8
;TYPE:SKIRT
G1 F600 Z0.2
G1 F2400 E0
G1 X84.942 Y92.891 E0.01842
G1 X85.397 Y92.532 E0.0454
G1 X85.995 Y92.101 E0.07973
G1 X86.255 Y91.931 E0.09419
G1 X86.717 Y91.641 E0.11959
G1 X87.272 Y91.321 E0.14942
G1 X87.581 Y91.16 E0.16565
G1 X88.094 Y90.907 E0.19228
G1 X88.555 Y90.698 E0.21585
G1 X89.092 Y90.484 E0.24277
G1 X89.577 Y90.307 E0.26681
G1 X90.194 Y90.108 E0.297
G1 X90.525 Y90.017 E0.31298
G1 X91.066 Y89.881 E0.33896
G1 X91.682 Y89.749 E0.36829
G1 X92.062 Y89.685 E0.38623
G1 X92.597 Y89.608 E0.4114
G1 X93.311 Y89.535 E0.44482
G1 X93.655 Y89.514 E0.46087
G1 X94.249 Y89.492 E0.48855
G1 X94.99 Y89.481 E0.52306
G1 X104.245 Y89.48 E0.95401
G1 X105.068 Y89.492 E0.99234
G1 X105.842 Y89.544 E1.02846
G1 X106.606 Y89.675 E1.06455
G1 X107.352 Y89.885 E1.10064
G1 X107.952 Y90.116 E1.13058
G1 X108.55 Y90.376 E1.16094
G1 X111.013 Y91.407 E1.28527
G1 X113.485 Y92.362 E1.40867
G1 X115.938 Y93.226 E1.52977
G1 X118.413 Y94.023 E1.65084
G1 X120.369 Y94.593 E1.74571
G1 X120.775 Y94.717 E1.76548
G1 X121.503 Y94.981 E1.80154
G1 X122.201 Y95.319 E1.83765
G1 X122.861 Y95.728 E1.8738
G1 X123.474 Y96.201 E1.90986
G1 X123.941 Y96.638 E1.93964
G1 X124.055 Y96.754 E1.94721
G1 X124.57 Y97.334 E1.98333
G1 X125.021 Y97.964 E2.01941
G1 X125.406 Y98.638 E2.05555
G1 X125.719 Y99.347 E2.09164
G1 X125.957 Y100.085 E2.12774
G1 X126.119 Y100.843 E2.16384
G1 X126.207 Y101.764 E2.20692
G1 X126.221 Y102.458 E2.23924
G1 X126.223 Y106.094 E2.40855
G1 X126.212 Y106.889 E2.44557
G1 X126.161 Y107.663 E2.48169
G1 X126.03 Y108.427 E2.51778
G1 X125.821 Y109.174 E2.5539
G1 X125.537 Y109.895 E2.58998
G1 X125.18 Y110.583 E2.62608
G1 X124.754 Y111.231 E2.66219
G1 X124.263 Y111.831 E2.69829
G1 X123.713 Y112.378 E2.73441
G1 X123.204 Y112.8 E2.7652
G1 X122.573 Y113.25 E2.80128
G1 X121.898 Y113.632 E2.8374
G1 X121.184 Y113.945 E2.8737
G1 X118.654 Y114.9 E2.99962
G1 X116.219 Y115.898 E3.12216
G1 X113.825 Y116.961 E3.24413
G1 X111.448 Y118.097 E3.3668
G1 X109.371 Y119.159 E3.47542
G1 X108.44 Y119.648 E3.52439
G1 X107.736 Y119.972 E3.56048
G1 X107.002 Y120.223 E3.5966
G1 X106.246 Y120.396 E3.63271
G1 X105.207 Y120.505 E3.68136
G1 X104.539 Y120.52 E3.71247
G1 X95.033 Y120.518 E4.15511
G1 X94.252 Y120.507 E4.19148
G1 X93.592 Y120.48 E4.22224
G1 X92.71 Y120.407 E4.26345
G1 X92.108 Y120.323 E4.29175
G1 X91.246 Y120.162 E4.33258
G1 X90.579 Y119.998 E4.36457
G1 X90.041 Y119.844 E4.39062
G1 X89.45 Y119.651 E4.41957
G1 X89.089 Y119.517 E4.4375
G1 X88.58 Y119.312 E4.46306
G1 X88.097 Y119.097 E4.48767
G1 X87.64 Y118.87 E4.51143
G1 X87.166 Y118.619 E4.53641
G1 X86.589 Y118.284 E4.56748
G1 X86.296 Y118.097 E4.58366
G1 X85.852 Y117.799 E4.60856
G1 X85.237 Y117.345 E4.64416
G1 X84.988 Y117.145 E4.65903
G1 X84.585 Y116.806 E4.68355
G1 X84.119 Y116.385 E4.71279
G1 X83.841 Y116.112 E4.73094
G1 X83.464 Y115.722 E4.75619
G1 X83.055 Y115.267 E4.78468
G1 X82.814 Y114.974 E4.80235
G1 X82.473 Y114.539 E4.82808
G1 X82.08 Y113.997 E4.85926
G1 X81.88 Y113.694 E4.87616
G1 X81.589 Y113.23 E4.90167
G1 X81.273 Y112.682 E4.93112
G1 X81.105 Y112.361 E4.94799
G1 X80.853 Y111.848 E4.97461
G1 X80.642 Y111.377 E4.99864
G1 X80.421 Y110.821 E5.0265
G1 X80.113 Y109.933 E5.07026
G1 X79.958 Y109.388 E5.09665
G1 X79.833 Y108.89 E5.12056
G1 X79.68 Y108.144 E5.15602
G1 X79.63 Y107.834 E5.17064
G1 X79.554 Y107.296 E5.19594
G1 X79.485 Y106.615 E5.22781
G1 X79.466 Y106.29 E5.24297
G1 X79.443 Y105.675 E5.27163
G1 X79.435 Y105.165 E5.29538
G1 X79.435 Y104.972 E5.30436
G1 X79.444 Y104.295 E5.33589
G1 X79.469 Y103.659 E5.36553
G1 X79.548 Y102.732 E5.40885
G1 X79.632 Y102.144 E5.43651
G1 X79.72 Y101.64 E5.46033
G1 X79.823 Y101.146 E5.48383
G1 X79.967 Y100.583 E5.51089
G1 X80.108 Y100.09 E5.53476
G1 X80.301 Y99.498 E5.56376
G1 X80.441 Y99.123 E5.5824
G1 X80.652 Y98.602 E5.60857
G1 X80.959 Y97.93 E5.64297
G1 X81.083 Y97.686 E5.65572
G1 X81.333 Y97.214 E5.68059
G1 X81.678 Y96.621 E5.71253
G1 X81.861 Y96.335 E5.72834
G1 X82.157 Y95.895 E5.75304
G1 X82.592 Y95.304 E5.78721
G1 X82.804 Y95.04 E5.80297
G1 X83.141 Y94.639 E5.82736
G1 X83.581 Y94.154 E5.85786
G1 X83.828 Y93.902 E5.87429
G1 X84.199 Y93.542 E5.89836
G1 X84.638 Y93.144 E5.92595
M204 S3000
M205 X10 Y10
G0 F3000 X85.008 Y93.565
M204 S1800
M205 X8 Y8
G1 F2400 X85.289 Y93.331 E5.94298
G1 X85.744 Y92.972 E5.96997
G1 X86.312 Y92.563 E6.00256
G1 X86.553 Y92.405 E6.01598
G1 X87.015 Y92.115 E6.04138
G1 X87.543 Y91.811 E6.06975
G1 X87.829 Y91.662 E6.08476
G1 X88.342 Y91.409 E6.1114
G1 X89.019 Y91.113 E6.1458
G1 X89.284 Y91.01 E6.15904
G1 X89.769 Y90.833 E6.18308
G1 X90.355 Y90.644 E6.21175
G1 X90.661 Y90.56 E6.22653
G1 X91.202 Y90.424 E6.2525
G1 X91.79 Y90.299 E6.28049
G1 X92.141 Y90.239 E6.29708
G1 X92.676 Y90.162 E6.32224
G1 X93.357 Y90.093 E6.35412
G1 X93.675 Y90.074 E6.36895
G1 X94.269 Y90.052 E6.39663
G1 X94.44 Y90.048 E6.40459
G1 X95.084 Y90.04 E6.43458
G1 X104.245 Y90.04 E6.86116
G1 X105.059 Y90.052 E6.89906
G1 X105.804 Y90.103 E6.93384
G1 X106.538 Y90.234 E6.96855
G1 X107.254 Y90.443 E7.00329
G1 X107.729 Y90.629 E7.02704
G1 X108.386 Y90.915 E7.0604
G1 X110.816 Y91.932 E7.18307
G1 X113.265 Y92.878 E7.30531
G1 X115.768 Y93.76 E7.42889
G1 X118.252 Y94.56 E7.5504
G1 X120.205 Y95.129 E7.64512
G1 X120.611 Y95.253 E7.66489
G1 X121.312 Y95.508 E7.69963
G1 X121.981 Y95.838 E7.73436
G1 X122.611 Y96.237 E7.76908
G1 X123.195 Y96.701 E7.80382
G1 X123.656 Y97.147 E7.83368
G1 X124.15 Y97.706 E7.86842
G1 X124.581 Y98.315 E7.90316
G1 X124.944 Y98.966 E7.93787
G1 X125.235 Y99.653 E7.97261
G1 X125.452 Y100.367 E8.00736
G1 X125.59 Y101.1 E8.04209
G1 X125.648 Y101.783 E8.07401
G1 X125.661 Y102.465 E8.10577
G1 X125.663 Y106.094 E8.27475
G1 X125.652 Y106.881 E8.3114
G1 X125.601 Y107.625 E8.34613
G1 X125.471 Y108.36 E8.38088
G1 X125.263 Y109.076 E8.4156
G1 X124.98 Y109.766 E8.45033
G1 X124.624 Y110.421 E8.48504
G1 X124.2 Y111.035 E8.51979
G1 X123.713 Y111.6 E8.55452
G1 X123.021 Y112.23 E8.59809
G1 X122.856 Y112.361 E8.6079
G1 X122.247 Y112.793 E8.64267
G1 X121.597 Y113.157 E8.67736
G1 X120.986 Y113.421 E8.70835
G1 X118.452 Y114.378 E8.83448
G1 X116 Y115.383 E8.95788
G1 X113.578 Y116.458 E9.08126
G1 X111.201 Y117.594 E9.20394
G1 X109.11 Y118.663 E9.31329
G1 X108.179 Y119.152 E9.36226
G1 X107.501 Y119.463 E9.39699
G1 X106.794 Y119.699 E9.4317
G1 X106.065 Y119.859 E9.46645
G1 X105.187 Y119.946 E9.50753
G1 X104.534 Y119.96 E9.53795
G1 X95.041 Y119.958 E9.97998
G1 X94.26 Y119.947 E10.01635
G1 X93.631 Y119.922 E10.04566
G1 X92.781 Y119.852 E10.08538
G1 X92.204 Y119.771 E10.11251
G1 X91.371 Y119.616 E10.15196
G1 X90.733 Y119.459 E10.18256
G1 X90.195 Y119.305 E10.20861
G1 X89.632 Y119.122 E10.23618
G1 X89.298 Y118.997 E10.25279
G1 X88.789 Y118.792 E10.27834
G1 X88.112 Y118.482 E10.31301
G1 X87.902 Y118.375 E10.32398
G1 X87.428 Y118.124 E10.34896
G1 X86.88 Y117.805 E10.37848
G1 X86.608 Y117.632 E10.39349
G1 X86.164 Y117.334 E10.41839
G1 X85.579 Y116.902 E10.45226
G1 X85.349 Y116.716 E10.46603
G1 X84.946 Y116.377 E10.49055
G1 X84.501 Y115.975 E10.51848
G1 X84.244 Y115.722 E10.53527
G1 X83.867 Y115.332 E10.56053
G1 X83.478 Y114.9 E10.58759
G1 X83.254 Y114.629 E10.60397
G1 X82.913 Y114.194 E10.6297
G1 X82.54 Y113.677 E10.65939
G1 X82.355 Y113.397 E10.67502
G1 X82.064 Y112.933 E10.70052
G1 X81.763 Y112.411 E10.72858
G1 X81.608 Y112.114 E10.74418
G1 X81.356 Y111.601 E10.77079
G1 X81.048 Y110.891 E10.80683
G1 X80.778 Y110.161 E10.84307
G1 X80.581 Y109.541 E10.87336
G1 X80.501 Y109.251 E10.88737
G1 X80.376 Y108.753 E10.91128
G1 X80.231 Y108.042 E10.94507
G1 X80.184 Y107.756 E10.95856
G1 X80.108 Y107.218 E10.98386
G1 X80.044 Y106.57 E11.01418
G1 X80.026 Y106.269 E11.02822
G1 X80.003 Y105.654 E11.05688
G1 X79.995 Y104.979 E11.08831
G1 X80.004 Y104.302 E11.11984
G1 X80.028 Y103.697 E11.14803
G1 X80.103 Y102.805 E11.18972
G1 X80.184 Y102.24 E11.21629
G1 X80.272 Y101.736 E11.24012
G1 X80.436 Y100.997 E11.27537
G1 X80.505 Y100.737 E11.28789
G1 X80.646 Y100.244 E11.31177
G1 X80.83 Y99.68 E11.33939
G1 X80.96 Y99.333 E11.35665
G1 X81.171 Y98.812 E11.38282
G1 X81.463 Y98.174 E11.41549
G1 X81.577 Y97.948 E11.42728
G1 X81.827 Y97.476 E11.45215
G1 X82.156 Y96.912 E11.48255
G1 X82.326 Y96.647 E11.49721
G1 X82.622 Y96.207 E11.52191
G1 X83.037 Y95.644 E11.55448
G1 X83.233 Y95.4 E11.56905
G1 X83.57 Y94.999 E11.59344
G1 X83.989 Y94.537 E11.62248
G1 X84.218 Y94.304 E11.63769
G1 X84.589 Y93.944 E11.66177
G1 X85.008 Y93.565 E11.68807
M204 S3000
M205 X10 Y10
G0 F3000 X85.377 Y93.986
M204 S1800
M205 X8 Y8
G1 F2400 X85.636 Y93.771 E11.70375
G1 X86.091 Y93.412 E11.73073
G1 X86.629 Y93.025 E11.76159
G1 X86.85 Y92.879 E11.77393
G1 X87.312 Y92.589 E11.79933
G1 X87.814 Y92.301 E11.82628
G1 X88.076 Y92.164 E11.84004
G1 X88.589 Y91.911 E11.86668
G1 X89.232 Y91.631 E11.89933
G1 X89.476 Y91.536 E11.91153
G1 X89.961 Y91.359 E11.93557
G1 X90.516 Y91.181 E11.96271
G1 X90.798 Y91.103 E11.97633
G1 X91.339 Y90.967 E12.00231
G1 X91.899 Y90.848 E12.02896
G1 X92.221 Y90.793 E12.04417
G1 X92.756 Y90.716 E12.06934
G1 X93.404 Y90.651 E12.09967
G1 X93.696 Y90.633 E12.11329
G1 X94.29 Y90.611 E12.14097
G1 X95.084 Y90.6 E12.17794
G1 X104.245 Y90.6 E12.60452
G1 X105.051 Y90.612 E12.64205
G1 X105.764 Y90.663 E12.67534
G1 X106.467 Y90.793 E12.70863
G1 X107.152 Y91.001 E12.74196
G1 X107.505 Y91.143 E12.75968
G1 X108.079 Y91.393 E12.78883
G1 X110.618 Y92.456 E12.917
G1 X113.113 Y93.42 E13.04155
G1 X115.554 Y94.28 E13.16206
G1 X118.091 Y95.096 E13.28616
G1 X120.041 Y95.664 E13.38073
G1 X120.447 Y95.788 E13.4005
G1 X121.119 Y96.035 E13.43383
G1 X121.758 Y96.355 E13.46711
G1 X122.358 Y96.745 E13.50043
G1 X123.143 Y97.423 E13.54873
G1 X123.257 Y97.539 E13.55631
G1 X123.729 Y98.076 E13.5896
G1 X124.138 Y98.663 E13.62291
G1 X124.479 Y99.292 E13.65623
G1 X124.748 Y99.955 E13.68954
G1 X124.941 Y100.643 E13.72282
G1 X125.056 Y101.349 E13.75612
G1 X125.093 Y101.947 E13.78402
G1 X125.102 Y102.553 E13.81224
G1 X125.102 Y106.19 E13.9816
G1 X125.092 Y106.873 E14.0134
G1 X125.042 Y107.586 E14.04669
G1 X124.912 Y108.29 E14.08002
G1 X124.705 Y108.974 E14.1133
G1 X124.422 Y109.631 E14.14661
G1 X124.068 Y110.253 E14.17993
G1 X123.647 Y110.831 E14.21323
G1 X123.164 Y111.358 E14.24652
G1 X122.672 Y111.791 E14.27703
G1 X122.507 Y111.922 E14.28684
G1 X121.923 Y112.335 E14.32015
G1 X121.297 Y112.68 E14.35343
G1 X120.789 Y112.897 E14.37916
G1 X118.25 Y113.856 E14.50553
G1 X115.768 Y114.873 E14.63043
G1 X113.346 Y115.948 E14.75382
G1 X110.985 Y117.077 E14.87568
G1 X108.787 Y118.2 E14.99061
G1 X107.919 Y118.656 E15.03627
G1 X107.268 Y118.953 E15.06959
G1 X106.588 Y119.175 E15.1029
G1 X105.888 Y119.32 E15.13618
G1 X105.167 Y119.386 E15.1699
G1 X104.53 Y119.4 E15.19957
G1 X95.049 Y119.398 E15.64104
G1 X94.102 Y119.383 E15.68514
G1 X93.218 Y119.332 E15.72637
G1 X92.591 Y119.263 E15.75575
G1 X91.823 Y119.136 E15.79199
G1 X91.276 Y119.02 E15.81803
G1 X90.887 Y118.921 E15.83672
G1 X90.349 Y118.767 E15.86278
G1 X89.814 Y118.592 E15.88899
G1 X89.507 Y118.478 E15.90424
G1 X88.998 Y118.273 E15.92979
G1 X88.357 Y117.978 E15.96265
G1 X88.164 Y117.88 E15.97273
G1 X87.69 Y117.629 E15.9977
G1 X87.17 Y117.326 E16.02572
G1 X86.92 Y117.167 E16.03952
G1 X86.476 Y116.869 E16.06442
G1 X85.921 Y116.458 E16.09658
G1 X85.709 Y116.288 E16.10923
G1 X85.306 Y115.949 E16.13375
G1 X84.883 Y115.566 E16.16032
G1 X84.646 Y115.333 E16.1758
G1 X84.269 Y114.943 E16.20106
G1 X83.901 Y114.532 E16.22675
G1 X83.695 Y114.283 E16.24179
G1 X83.354 Y113.848 E16.26753
G1 X82.999 Y113.357 E16.29574
G1 X82.829 Y113.099 E16.31013
G1 X82.538 Y112.635 E16.33563
G1 X82.253 Y112.141 E16.36219
G1 X82.111 Y111.867 E16.37656
G1 X81.859 Y111.354 E16.40317
G1 X81.567 Y110.68 E16.43738
G1 X81.304 Y109.97 E16.47263
G1 X81.118 Y109.381 E16.50139
G1 X81.045 Y109.115 E16.51424
G1 X80.92 Y108.617 E16.53815
G1 X80.782 Y107.941 E16.57027
G1 X80.739 Y107.677 E16.58273
G1 X80.663 Y107.139 E16.60803
G1 X80.602 Y106.525 E16.63676
G1 X80.585 Y106.248 E16.64968
G1 X80.562 Y105.633 E16.67834
G1 X80.555 Y104.987 E16.70842
G1 X80.568 Y104.138 E16.74796
G1 X80.618 Y103.281 E16.78793
G1 X80.695 Y102.599 E16.81989
G1 X80.735 Y102.336 E16.83228
G1 X80.823 Y101.832 E16.8561
G1 X80.98 Y101.13 E16.8896
G1 X81.044 Y100.891 E16.90112
G1 X81.185 Y100.398 E16.925
G1 X81.36 Y99.862 E16.95125
G1 X81.479 Y99.544 E16.96706
G1 X81.69 Y99.023 E16.99323
G1 X81.967 Y98.418 E17.02422
G1 X82.072 Y98.21 E17.03507
G1 X82.322 Y97.738 E17.05994
G1 X82.635 Y97.203 E17.0888
G1 X82.791 Y96.96 E17.10225
G1 X83.087 Y96.52 E17.12694
G1 X83.481 Y95.985 E17.15788
G1 X83.661 Y95.76 E17.17129
G1 X83.998 Y95.359 E17.19569
G1 X84.398 Y94.92 E17.22334
G1 X84.608 Y94.706 E17.2373
G1 X84.979 Y94.346 E17.26137
G1 X85.377 Y93.986 E17.28636
M204 S3000
M205 X10 Y10
G0 F3000 X85.747 Y94.407
M204 S1800
M205 X8 Y8
G1 F2400 X85.983 Y94.21 E17.30068
G1 X86.438 Y93.851 E17.32766
G1 X86.947 Y93.486 E17.35683
G1 X87.148 Y93.354 E17.36803
G1 X87.61 Y93.064 E17.39343
G1 X88.084 Y92.791 E17.4189
G1 X88.324 Y92.666 E17.4315
G1 X88.837 Y92.413 E17.45813
G1 X89.445 Y92.148 E17.48901
G1 X89.668 Y92.062 E17.50014
G1 X90.153 Y91.885 E17.52418
G1 X90.677 Y91.717 E17.54981
G1 X90.934 Y91.646 E17.56222
G1 X91.475 Y91.51 E17.5882
G1 X92.007 Y91.398 E17.61351
G1 X92.301 Y91.348 E17.6274
G1 X92.836 Y91.271 E17.65257
G1 X93.45 Y91.209 E17.6813
G1 X93.717 Y91.193 E17.69376
G1 X94.454 Y91.167 E17.7281
G1 X95.011 Y91.16 E17.75404
G1 X104.245 Y91.16 E18.18401
G1 X105.042 Y91.172 E18.22113
G1 X105.723 Y91.222 E18.25292
G1 X106.394 Y91.352 E18.28475
G1 X107.282 Y91.656 E18.32845
G1 X107.928 Y91.937 E18.36125
G1 X110.377 Y92.962 E18.48488
G1 X112.933 Y93.95 E18.61248
G1 X115.374 Y94.81 E18.73299
G1 X117.918 Y95.629 E18.85743
G1 X119.878 Y96.2 E18.95249
G1 X120.284 Y96.324 E18.97226
G1 X120.924 Y96.561 E19.00404
G1 X121.533 Y96.872 E19.03588
G1 X122.101 Y97.251 E19.06768
G1 X122.743 Y97.816 E19.1075
G1 X122.857 Y97.932 E19.11507
G1 X123.307 Y98.446 E19.14688
G1 X123.693 Y99.009 E19.17867
G1 X124.011 Y99.614 E19.21049
G1 X124.256 Y100.252 E19.24232
G1 X124.425 Y100.914 E19.27413
G1 X124.528 Y101.822 E19.31668
G1 X124.542 Y102.479 E19.34728
G1 X124.542 Y106.181 E19.51966
G1 X124.532 Y106.864 E19.55147
G1 X124.482 Y107.546 E19.58331
G1 X124.353 Y108.217 E19.61513
G1 X124.147 Y108.868 E19.64692
G1 X123.865 Y109.491 E19.67877
G1 X123.513 Y110.076 E19.71056
G1 X123.095 Y110.617 E19.74239
G1 X122.617 Y111.104 E19.77417
G1 X122.159 Y111.484 E19.80188
G1 X121.6 Y111.877 E19.8337
G1 X120.999 Y112.201 E19.86549
G1 X120.591 Y112.374 E19.88612
G1 X117.986 Y113.358 E20.01579
G1 X115.579 Y114.344 E20.13691
G1 X113.128 Y115.432 E20.26178
G1 X110.709 Y116.588 E20.38662
G1 X108.565 Y117.684 E20.49874
G1 X107.659 Y118.16 E20.54639
G1 X107.036 Y118.442 E20.57824
G1 X106.385 Y118.649 E20.61004
G1 X105.714 Y118.779 E20.64187
G1 X105.148 Y118.826 E20.66832
G1 X104.525 Y118.84 E20.69733
G1 X95.057 Y118.838 E21.1382
G1 X94.276 Y118.827 E21.17457
G1 X93.708 Y118.804 E21.20104
G1 X92.922 Y118.741 E21.23776
G1 X92.396 Y118.668 E21.26249
G1 X91.62 Y118.524 E21.29924
G1 X91.041 Y118.383 E21.32699
G1 X90.503 Y118.229 E21.35304
G1 X89.997 Y118.063 E21.37784
G1 X89.716 Y117.958 E21.39181
G1 X89.207 Y117.753 E21.41736
G1 X88.602 Y117.475 E21.44836
G1 X88.426 Y117.385 E21.45757
G1 X87.952 Y117.134 E21.48254
G1 X87.46 Y116.847 E21.50907
G1 X87.232 Y116.702 E21.52165
G1 X86.788 Y116.404 E21.54655
G1 X86.263 Y116.015 E21.57697
G1 X86.07 Y115.859 E21.58853
G1 X85.667 Y115.52 E21.61305
