;FLAVOR:Marlin
;TIME:1641
;Filament used: 1.75619m
;Layer height: 0.2
;MINX:86.5
;MINY:86.699
;MINZ:0.2
;MAXX:123.5
;MAXY:123.7
;MAXZ:26.6
;Generated with Cura_SteamEngine 4.10.0
M140 S65
M105
M190 S65
M104 S200
M105
M109 S200
M82 ;absolute extrusion mode
G21 ;metric values
G90 ;absolute positioning
M82 ;set extruder to absolute mode
M107 ;start with the fan off
G28 X0 Y0 ;move X/Y to min endstops
G28 Z0 ;move Z to min endstops
G1 Z15.0 F100 ;move the platform down 15mm
G92 E0 ;zero the extruded length
G1 F200 E3 ;extrude 3mm of feed stock
G92 E0 ;zero the extruded length again
G1 F100
G0 Y20 F100
M117 Printing...
G5
G92 E0
G92 E0
G1 F2400 E-6
;LAYER_COUNT:133
;LAYER:0
M107
M204 S3000
M205 X10 Y10
G1 F600 Z0.275
G0 F3000 X91.707 Y92.323 Z0.275
M204 S1800
M205 X8 Y8
;TYPE:SKIRT
G1 F600 Z0.2
G1 F2400 E0
G1 X92.269 Y91.766 E0.03684
G1 X92.532 Y91.525 E0.05345
G1 X92.98 Y91.133 E0.08117
G1 X93.332 Y90.843 E0.10241
G1 X94.029 Y90.304 E0.14344
G1 X94.732 Y89.811 E0.18342
G1 X95.539 Y89.303 E0.22782
G1 X96.304 Y88.871 E0.26873
G1 X97.148 Y88.449 E0.31267
G1 X97.927 Y88.106 E0.3523
G1 X98.871 Y87.746 E0.39935
G1 X99.66 Y87.487 E0.43802
G1 X100.555 Y87.242 E0.48123
G1 X101.161 Y87.095 E0.51026
G1 X101.943 Y86.946 E0.54733
G1 X102.249 Y86.899 E0.56175
G1 X102.765 Y86.831 E0.58598
G1 X103.217 Y86.786 E0.60713
G1 X104.15 Y86.72 E0.65068
G1 X105.041 Y86.699 E0.69218
G1 X105.967 Y86.725 E0.73532
G1 X106.53 Y86.756 E0.76158
G1 X107.357 Y86.843 E0.8003
G1 X108.148 Y86.965 E0.83756
G1 X108.62 Y87.057 E0.85996
G1 X109.578 Y87.276 E0.90572
G1 X110.416 Y87.51 E0.94623
G1 X111.267 Y87.794 E0.988
G1 X111.855 Y88.009 E1.01716
G1 X112.591 Y88.32 E1.05436
G1 X112.87 Y88.451 E1.06871
G1 X113.352 Y88.688 E1.09372
G1 X113.77 Y88.91 E1.11576
G1 X114.57 Y89.368 E1.15869
G1 X114.859 Y89.541 E1.17437
G1 X115.289 Y89.825 E1.19837
G1 X116.095 Y90.398 E1.24441
G1 X116.769 Y90.926 E1.28428
G1 X117.458 Y91.525 E1.32679
G1 X118.103 Y92.141 E1.36832
G1 X118.752 Y92.826 E1.41226
G1 X119.309 Y93.474 E1.45205
G1 X119.913 Y94.254 E1.49799
G1 X120.4 Y94.949 E1.5375
G1 X120.89 Y95.727 E1.58032
G1 X121.332 Y96.508 E1.6221
G1 X121.749 Y97.343 E1.66556
G1 X121.997 Y97.878 E1.69302
G1 X122.295 Y98.611 E1.72987
G1 X122.401 Y98.902 E1.74429
G1 X122.58 Y99.426 E1.77007
G1 X122.72 Y99.883 E1.79233
G1 X122.961 Y100.769 E1.83508
G1 X123.102 Y101.346 E1.86274
G1 X123.243 Y102.076 E1.89736
G1 X123.293 Y102.399 E1.91258
G1 X123.369 Y102.97 E1.9394
G1 X123.417 Y103.44 E1.9614
G1 X123.479 Y104.331 E2.00299
G1 X123.5 Y105.23 E2.04486
G1 X123.473 Y106.184 E2.0893
G1 X123.409 Y107.038 E2.12918
G1 X123.288 Y107.995 E2.1741
G1 X123.2 Y108.561 E2.20077
G1 X123.051 Y109.289 E2.23537
G1 X122.972 Y109.612 E2.25086
G1 X122.823 Y110.17 E2.27775
G1 X122.691 Y110.611 E2.29918
G1 X122.405 Y111.468 E2.34125
G1 X122.183 Y112.075 E2.37135
G1 X121.885 Y112.781 E2.40703
G1 X121.765 Y113.038 E2.42024
G1 X121.521 Y113.536 E2.44606
G1 X121.291 Y113.968 E2.46885
G1 X120.748 Y114.912 E2.51956
G1 X120.694 Y115.002 E2.52445
G1 X120.374 Y115.492 E2.5517
G1 X119.805 Y116.292 E2.59741
G1 X119.275 Y116.968 E2.63741
G1 X118.661 Y117.674 E2.68098
G1 X118.074 Y118.288 E2.72053
G1 X117.359 Y118.965 E2.76638
G1 X116.712 Y119.521 E2.8061
G1 X115.958 Y120.105 E2.85051
G1 X115.254 Y120.598 E2.89053
G1 X114.463 Y121.095 E2.93403
G1 X113.699 Y121.527 E2.9749
G1 X112.864 Y121.945 E3.01838
G1 X112.313 Y122.201 E3.04667
G1 X111.581 Y122.498 E3.08346
G1 X111.293 Y122.603 E3.09773
G1 X110.768 Y122.782 E3.12356
G1 X110.324 Y122.918 E3.14518
G1 X109.439 Y123.16 E3.1879
G1 X108.837 Y123.306 E3.21675
G1 X108.124 Y123.443 E3.25055
G1 X107.798 Y123.494 E3.26592
G1 X107.225 Y123.57 E3.29283
G1 X106.757 Y123.617 E3.31474
G1 X105.864 Y123.679 E3.35642
G1 X104.969 Y123.7 E3.3981
G1 X104.016 Y123.673 E3.4425
G1 X103.156 Y123.608 E3.48266
G1 X102.197 Y123.486 E3.52767
G1 X101.649 Y123.402 E3.55349
G1 X100.849 Y123.236 E3.59153
G1 X100.561 Y123.165 E3.60534
G1 X100.026 Y123.022 E3.63113
G1 X99.59 Y122.891 E3.65233
G1 X98.735 Y122.606 E3.69429
G1 X98.119 Y122.381 E3.72483
G1 X97.413 Y122.082 E3.76053
G1 X97.159 Y121.963 E3.77359
G1 X96.663 Y121.72 E3.79931
G1 X96.229 Y121.49 E3.82218
G1 X95.415 Y121.023 E3.86588
G1 X95.198 Y120.894 E3.87764
G1 X94.708 Y120.574 E3.90489
G1 X93.908 Y120.005 E3.9506
G1 X93.232 Y119.475 E3.9906
G1 X92.527 Y118.862 E4.0341
G1 X91.912 Y118.274 E4.07372
G1 X91.235 Y117.559 E4.11957
G1 X90.679 Y116.912 E4.15929
G1 X90.095 Y116.158 E4.2037
G1 X89.599 Y115.451 E4.24392
G1 X89.103 Y114.661 E4.28735
G1 X88.671 Y113.895 E4.3283
G1 X88.255 Y113.064 E4.37157
G1 X87.994 Y112.503 E4.40038
G1 X87.7 Y111.775 E4.43694
G1 X87.597 Y111.493 E4.45092
G1 X87.418 Y110.968 E4.47675
G1 X87.282 Y110.524 E4.49837
G1 X87.04 Y109.639 E4.5411
G1 X86.894 Y109.037 E4.56994
G1 X86.757 Y108.324 E4.60375
G1 X86.707 Y108.005 E4.61878
G1 X86.631 Y107.436 E4.64551
G1 X86.583 Y106.955 E4.66802
G1 X86.52 Y106.037 E4.71087
G1 X86.5 Y105.159 E4.75176
G1 X86.527 Y104.209 E4.79602
G1 X86.593 Y103.346 E4.83632
G1 X86.713 Y102.401 E4.88068
G1 X86.8 Y101.839 E4.90716
G1 X86.968 Y101.032 E4.94554
G1 X87.037 Y100.753 E4.95892
G1 X87.177 Y100.229 E4.98418
G1 X87.309 Y99.789 E5.00557
G1 X87.595 Y98.932 E5.04764
G1 X87.817 Y98.325 E5.07773
G1 X88.121 Y97.606 E5.11408
G1 X88.238 Y97.357 E5.12689
G1 X88.479 Y96.865 E5.1524
G1 X88.709 Y96.432 E5.17523
G1 X89.264 Y95.467 E5.22707
G1 X89.319 Y95.376 E5.23202
G1 X89.629 Y94.904 E5.25831
G1 X90.2 Y94.102 E5.30416
G1 X90.39 Y93.845 E5.31904
G1 X90.728 Y93.429 E5.344
G1 X91.361 Y92.702 E5.38888
G1 X91.707 Y92.323 E5.41278
M204 S3000
M205 X10 Y10
G0 F3000 X92.389 Y92.428
M204 S1800
M205 X8 Y8
G1 F2400 X92.901 Y91.946 E5.44552
G1 X93.349 Y91.554 E5.47324
G1 X93.674 Y91.286 E5.49286
G1 X94.371 Y90.747 E5.53388
G1 X95.03 Y90.285 E5.57136
G1 X95.837 Y89.777 E5.61576
G1 X96.554 Y89.372 E5.65411
G1 X97.398 Y88.95 E5.69805
G1 X98.127 Y88.629 E5.73514
G1 X99.071 Y88.269 E5.78218
G1 X99.807 Y88.027 E5.81826
G1 X100.702 Y87.782 E5.86147
G1 X101.288 Y87.64 E5.88954
G1 X102.039 Y87.498 E5.92513
G1 X102.323 Y87.455 E5.93851
G1 X102.839 Y87.387 E5.96274
G1 X103.257 Y87.344 E5.98231
G1 X104.19 Y87.278 E6.02586
G1 X105.025 Y87.259 E6.06475
G1 X105.951 Y87.285 E6.10789
G1 X106.495 Y87.315 E6.13326
G1 X107.29 Y87.399 E6.17048
G1 X108.058 Y87.518 E6.20667
G1 X108.495 Y87.603 E6.2274
G1 X109.453 Y87.822 E6.27316
G1 X110.238 Y88.041 E6.31111
G1 X111.089 Y88.325 E6.35288
G1 X111.659 Y88.533 E6.38114
G1 X112.365 Y88.833 E6.41685
G1 X112.623 Y88.953 E6.4301
G1 X113.105 Y89.19 E6.45511
G1 X113.492 Y89.396 E6.47553
G1 X114.292 Y89.854 E6.51845
G1 X114.965 Y90.281 E6.55557
G1 X115.771 Y90.854 E6.60161
G1 X116.401 Y91.348 E6.63889
G1 X117.09 Y91.947 E6.6814
G1 X117.696 Y92.526 E6.72043
G1 X118.345 Y93.211 E6.76437
G1 X118.866 Y93.817 E6.80158
G1 X119.47 Y94.597 E6.84752
G1 X119.926 Y95.248 E6.88453
G1 X120.416 Y96.026 E6.92734
G1 X120.831 Y96.758 E6.96653
G1 X121.248 Y97.593 E7.00999
G1 X121.488 Y98.11 E7.03653
G1 X121.773 Y98.814 E7.07189
G1 X121.871 Y99.083 E7.08522
G1 X122.05 Y99.607 E7.11101
G1 X122.18 Y100.03 E7.13161
G1 X122.421 Y100.916 E7.17437
G1 X122.557 Y101.475 E7.20116
G1 X122.692 Y102.174 E7.23431
G1 X122.738 Y102.473 E7.24839
G1 X122.814 Y103.044 E7.27522
G1 X122.858 Y103.479 E7.29557
G1 X122.92 Y104.37 E7.33716
G1 X122.94 Y105.214 E7.37647
G1 X122.913 Y106.168 E7.42091
G1 X122.853 Y106.968 E7.45827
G1 X122.732 Y107.925 E7.50319
G1 X122.647 Y108.47 E7.52887
G1 X122.504 Y109.169 E7.56209
G1 X122.431 Y109.468 E7.57643
G1 X122.282 Y110.026 E7.60332
G1 X122.16 Y110.433 E7.6231
G1 X121.874 Y111.29 E7.66517
G1 X121.659 Y111.879 E7.69437
G1 X121.373 Y112.554 E7.7285
G1 X121.262 Y112.791 E7.74069
G1 X121.018 Y113.289 E7.76651
G1 X120.806 Y113.69 E7.78763
G1 X120.338 Y114.506 E7.83144
G1 X120.214 Y114.714 E7.84271
G1 X119.918 Y115.167 E7.86791
G1 X119.349 Y115.967 E7.91362
G1 X118.853 Y116.6 E7.95107
G1 X118.239 Y117.306 E7.99464
G1 X117.689 Y117.881 E8.03169
G1 X116.974 Y118.558 E8.07754
G1 X116.369 Y119.079 E8.11471
G1 X115.615 Y119.663 E8.15912
G1 X114.956 Y120.124 E8.19657
G1 X114.165 Y120.621 E8.24007
G1 X113.449 Y121.027 E8.2784
G1 X112.614 Y121.445 E8.32188
G1 X112.082 Y121.691 E8.34917
G1 X111.379 Y121.976 E8.38449
G1 X111.112 Y122.073 E8.39772
G1 X110.587 Y122.252 E8.42355
G1 X110.177 Y122.378 E8.44352
G1 X109.292 Y122.62 E8.48624
G1 X108.71 Y122.76 E8.51412
G1 X108.026 Y122.892 E8.54655
G1 X107.724 Y122.939 E8.56079
G1 X107.151 Y123.015 E8.5877
G1 X106.718 Y123.058 E8.60796
G1 X105.825 Y123.12 E8.64964
G1 X104.985 Y123.14 E8.68877
G1 X104.032 Y123.113 E8.73316
G1 X103.227 Y123.052 E8.77075
G1 X102.268 Y122.93 E8.81577
G1 X101.739 Y122.849 E8.84069
G1 X100.972 Y122.69 E8.87716
G1 X100.706 Y122.624 E8.88993
G1 X100.171 Y122.481 E8.91571
G1 X99.767 Y122.36 E8.93535
G1 X98.912 Y122.075 E8.97732
G1 X98.315 Y121.856 E9.00693
G1 X97.64 Y121.57 E9.04106
G1 X97.405 Y121.46 E9.05314
G1 X96.909 Y121.217 E9.07886
G1 X96.507 Y121.004 E9.10005
G1 X95.693 Y120.537 E9.14374
G1 X95.486 Y120.414 E9.15496
G1 X95.033 Y120.118 E9.18015
G1 X94.233 Y119.549 E9.22587
G1 X93.599 Y119.052 E9.26338
G1 X92.894 Y118.439 E9.30688
G1 X92.319 Y117.889 E9.34393
G1 X91.642 Y117.174 E9.38978
G1 X91.121 Y116.569 E9.42696
G1 X90.537 Y115.815 E9.47137
G1 X90.073 Y115.153 E9.50901
G1 X89.577 Y114.363 E9.55244
G1 X89.171 Y113.645 E9.59085
G1 X88.755 Y112.814 E9.63413
G1 X88.504 Y112.272 E9.66194
G1 X88.222 Y111.574 E9.69699
G1 X88.127 Y111.312 E9.70997
G1 X87.948 Y110.787 E9.7358
G1 X87.822 Y110.377 E9.75577
G1 X87.58 Y109.492 E9.79849
G1 X87.44 Y108.91 E9.82637
G1 X87.308 Y108.226 E9.8588
G1 X87.262 Y107.93 E9.87275
G1 X87.186 Y107.361 E9.89948
G1 X87.141 Y106.917 E9.92026
G1 X87.078 Y105.999 E9.96311
G1 X87.06 Y105.175 E10.00149
G1 X87.087 Y104.225 E10.04574
G1 X87.148 Y103.416 E10.08352
G1 X87.268 Y102.471 E10.12787
G1 X87.352 Y101.929 E10.15341
G1 X87.514 Y101.156 E10.19019
G1 X87.578 Y100.897 E10.20261
G1 X87.718 Y100.373 E10.22787
G1 X87.84 Y99.967 E10.24761
G1 X88.126 Y99.11 E10.28968
G1 X88.341 Y98.521 E10.31887
G1 X88.633 Y97.834 E10.35363
G1 X88.741 Y97.603 E10.36551
G1 X88.982 Y97.111 E10.39102
G1 X89.194 Y96.71 E10.41214
G1 X89.662 Y95.894 E10.45594
G1 X89.798 Y95.666 E10.4683
G1 X90.085 Y95.229 E10.49265
G1 X90.656 Y94.427 E10.53849
G1 X91.15 Y93.797 E10.57577
G1 X91.783 Y93.07 E10.62065
G1 X92.389 Y92.428 E10.66176
M204 S3000
M205 X10 Y10
G0 F3000 X92.777 Y92.831
M204 S1800
M205 X8 Y8
G1 F2400 X93.27 Y92.368 E10.69325
G1 X93.718 Y91.976 E10.72097
G1 X94.017 Y91.729 E10.73903
G1 X94.714 Y91.19 E10.78006
G1 X95.329 Y90.759 E10.81503
G1 X96.136 Y90.251 E10.85943
G1 X96.805 Y89.873 E10.89521
G1 X97.649 Y89.451 E10.93915
G1 X98.327 Y89.152 E10.97366
G1 X99.271 Y88.792 E11.0207
G1 X99.955 Y88.567 E11.05423
G1 X100.85 Y88.322 E11.09744
G1 X101.416 Y88.185 E11.12455
G1 X102.135 Y88.05 E11.15862
G1 X102.396 Y88.01 E11.17091
G1 X102.912 Y87.942 E11.19515
G1 X103.296 Y87.903 E11.21312
G1 X104.229 Y87.837 E11.25667
G1 X105.01 Y87.819 E11.29305
G1 X105.936 Y87.845 E11.33619
G1 X106.46 Y87.874 E11.36062
G1 X107.223 Y87.955 E11.39635
G1 X107.969 Y88.071 E11.4315
G1 X108.37 Y88.149 E11.45053
G1 X109.328 Y88.368 E11.49629
G1 X110.061 Y88.572 E11.53171
G1 X110.912 Y88.856 E11.57349
G1 X111.462 Y89.058 E11.60077
G1 X112.138 Y89.345 E11.63497
G1 X112.376 Y89.456 E11.6472
G1 X112.858 Y89.693 E11.67221
G1 X113.214 Y89.882 E11.69098
G1 X114.014 Y90.34 E11.7339
G1 X114.64 Y90.738 E11.76844
G1 X115.446 Y91.311 E11.81449
G1 X116.034 Y91.771 E11.84925
G1 X116.723 Y92.37 E11.89176
G1 X117.29 Y92.911 E11.92826
G1 X117.939 Y93.596 E11.9722
G1 X118.423 Y94.16 E12.0068
G1 X119.027 Y94.94 E12.05274
G1 X119.452 Y95.546 E12.0872
G1 X119.942 Y96.324 E12.13002
G1 X120.33 Y97.009 E12.16668
G1 X120.747 Y97.844 E12.21014
G1 X120.978 Y98.342 E12.2357
G1 X121.251 Y99.017 E12.2696
G1 X121.341 Y99.264 E12.28184
G1 X121.52 Y99.788 E12.30763
G1 X121.64 Y100.177 E12.32658
G1 X121.881 Y101.063 E12.36934
G1 X122.012 Y101.603 E12.39521
G1 X122.14 Y102.272 E12.42693
G1 X122.183 Y102.547 E12.43989
G1 X122.259 Y103.118 E12.46671
G1 X122.3 Y103.518 E12.48543
G1 X122.362 Y104.409 E12.52702
G1 X122.38 Y105.198 E12.56377
G1 X122.353 Y106.152 E12.60821
G1 X122.297 Y106.898 E12.64305
G1 X122.176 Y107.855 E12.68796
G1 X122.095 Y108.38 E12.7127
G1 X121.957 Y109.048 E12.74446
G1 X121.89 Y109.323 E12.75764
G1 X121.741 Y109.881 E12.78453
G1 X121.629 Y110.256 E12.80276
G1 X121.343 Y111.113 E12.84483
G1 X121.134 Y111.683 E12.8731
G1 X120.861 Y112.326 E12.90562
G1 X120.759 Y112.545 E12.91687
G1 X120.515 Y113.043 E12.9427
G1 X120.32 Y113.411 E12.96209
G1 X119.788 Y114.336 E13.01178
G1 X119.461 Y114.842 E13.03983
G1 X118.892 Y115.642 E13.08554
G1 X118.43 Y116.233 E13.12047
G1 X117.816 Y116.939 E13.16404
G1 X117.304 Y117.474 E13.19852
G1 X116.589 Y118.151 E13.24437
G1 X116.026 Y118.636 E13.27897
G1 X115.272 Y119.22 E13.32338
G1 X114.658 Y119.65 E13.35829
G1 X113.867 Y120.147 E13.40179
G1 X113.198 Y120.526 E13.43759
G1 X112.363 Y120.944 E13.48107
G1 X111.851 Y121.181 E13.50734
G1 X111.176 Y121.453 E13.54123
G1 X110.931 Y121.543 E13.55338
G1 X110.406 Y121.722 E13.57921
G1 X110.029 Y121.837 E13.59756
G1 X109.144 Y122.079 E13.64028
G1 X108.583 Y122.215 E13.66716
G1 X107.928 Y122.34 E13.69821
G1 X107.65 Y122.383 E13.71131
G1 X107.077 Y122.459 E13.73823
G1 X106.679 Y122.5 E13.75686
G1 X105.786 Y122.562 E13.79854
G1 X105.001 Y122.58 E13.8351
G1 X104.048 Y122.553 E13.8795
G1 X103.297 Y122.497 E13.91456
G1 X102.338 Y122.375 E13.95958
G1 X101.828 Y122.296 E13.98361
G1 X101.096 Y122.143 E14.01843
G1 X100.85 Y122.083 E14.03022
G1 X100.315 Y121.94 E14.05601
G1 X99.944 Y121.829 E14.07404
G1 X99.089 Y121.544 E14.11601
G1 X98.511 Y121.332 E14.14467
G1 X97.868 Y121.058 E14.17722
G1 X97.651 Y120.957 E14.18836
G1 X97.155 Y120.714 E14.21408
G1 X96.786 Y120.518 E14.23354
G1 X95.864 Y119.988 E14.28306
G1 X95.358 Y119.661 E14.31111
G1 X94.558 Y119.092 E14.35682
G1 X93.967 Y118.63 E14.39175
G1 X93.262 Y118.017 E14.43526
G1 X92.726 Y117.504 E14.4698
G1 X92.049 Y116.789 E14.51565
G1 X91.564 Y116.226 E14.55025
G1 X90.98 Y115.472 E14.59466
G1 X90.548 Y114.855 E14.62974
G1 X90.052 Y114.065 E14.67317
G1 X89.672 Y113.394 E14.70908
G1 X89.256 Y112.563 E14.75235
G1 X89.014 Y112.041 E14.77914
G1 X88.745 Y111.372 E14.81272
G1 X88.657 Y111.131 E14.82466
G1 X88.478 Y110.606 E14.85049
G1 X88.363 Y110.229 E14.86885
G1 X88.121 Y109.344 E14.91157
G1 X87.985 Y108.783 E14.93845
G1 X87.86 Y108.128 E14.9695
G1 X87.817 Y107.856 E14.98232
G1 X87.741 Y107.287 E15.00905
G1 X87.7 Y106.878 E15.02819
G1 X87.637 Y105.96 E15.07104
G1 X87.62 Y105.191 E15.10685
G1 X87.647 Y104.241 E15.15111
G1 X87.704 Y103.487 E15.18632
G1 X87.824 Y102.542 E15.23067
G1 X87.905 Y102.019 E15.25532
G1 X88.06 Y101.279 E15.29052
G1 X88.119 Y101.042 E15.30189
G1 X88.259 Y100.518 E15.32715
G1 X88.371 Y100.144 E15.34533
G1 X88.657 Y99.287 E15.3874
G1 X88.866 Y98.717 E15.41567
G1 X89.144 Y98.062 E15.4488
G1 X89.243 Y97.85 E15.4597
G1 X89.484 Y97.358 E15.48521
G1 X89.68 Y96.989 E15.50466
G1 X90.148 Y96.173 E15.54846
G1 X90.541 Y95.554 E15.58261
G1 X91.112 Y94.752 E15.62845
G1 X91.572 Y94.164 E15.66321
G1 X92.205 Y93.437 E15.7081
G1 X92.777 Y92.831 E15.7469
M204 S3000
M205 X10 Y10
G0 F3000 X93.166 Y93.235
M204 S1800
M205 X8 Y8
G1 F2400 X93.638 Y92.789 E15.77714
G1 X94.086 Y92.397 E15.80486
G1 X94.359 Y92.172 E15.82133
G1 X95.056 Y91.633 E15.86236
G1 X95.627 Y91.233 E15.89482
G1 X96.434 Y90.725 E15.93922
G1 X97.055 Y90.374 E15.97244
G1 X97.899 Y89.952 E16.01638
G1 X98.526 Y89.675 E16.0483
G1 X99.47 Y89.315 E16.09534
G1 X100.103 Y89.107 E16.12637
G1 X100.998 Y88.862 E16.16957
G1 X101.543 Y88.731 E16.19567
G1 X102.231 Y88.601 E16.22828
G1 X102.469 Y88.565 E16.23949
G1 X102.985 Y88.497 E16.26372
G1 X103.336 Y88.462 E16.28015
G1 X104.269 Y88.396 E16.3237
G1 X104.994 Y88.378 E16.35747
G1 X105.92 Y88.404 E16.4006
G1 X106.424 Y88.432 E16.42411
G1 X107.156 Y88.511 E16.45839
G1 X107.879 Y88.623 E16.49246
G1 X108.245 Y88.695 E16.50983
G1 X109.203 Y88.914 E16.55559
G1 X109.884 Y89.103 E16.5885
G1 X110.735 Y89.387 E16.63027
G1 X111.266 Y89.582 E16.65661
G1 X111.912 Y89.857 E16.6893
