;FLAVOR:Marlin
;TIME:2023
;Filament used: 2.26304m
;Layer height: 0.2
;MINX:86.5
;MINY:86.549
;MINZ:0.2
;MAXX:123.5
;MAXY:123.55
;MAXZ:27
;Generated with Cura_SteamEngine 4.10.0
M140 S65
M105
M190 S65
M104 S200
M105
M109 S200
M82 ;absolute extrusion mode
G21 ;metric values
G90 ;absolute positioning
M82 ;set extruder to absolute mode
M107 ;start with the fan off
G28 X0 Y0 ;move X/Y to min endstops
G28 Z0 ;move Z to min endstops
G1 Z15.0 F100 ;move the platform down 15mm
G92 E0 ;zero the extruded length
G1 F200 E3 ;extrude 3mm of feed stock
G92 E0 ;zero the extruded length again
G1 F100
G0 Y20 F100
M117 Printing...
G5
G92 E0
G92 E0
G1 F2400 E-6
;LAYER_COUNT:135
;LAYER:0
M107
M204 S3000
M205 X10 Y10
G1 F600 Z0.275
G0 F3000 X91.707 Y92.173 Z0.275
M204 S1800
M205 X8 Y8
;TYPE:SKIRT
G1 F600 Z0.2
G1 F2400 E0
G1 X92.269 Y91.616 E0.03684
G1 X92.532 Y91.375 E0.05345
G1 X92.98 Y90.983 E0.08117
G1 X93.332 Y90.693 E0.10241
G1 X94.029 Y90.154 E0.14344
G1 X94.732 Y89.661 E0.18342
G1 X95.539 Y89.153 E0.22782
G1 X96.304 Y88.721 E0.26873
G1 X97.148 Y88.299 E0.31267
G1 X97.927 Y87.956 E0.3523
G1 X98.871 Y87.596 E0.39935
G1 X99.66 Y87.337 E0.43802
G1 X100.555 Y87.092 E0.48123
G1 X101.161 Y86.945 E0.51026
G1 X101.876 Y86.807 E0.54417
G1 X102.202 Y86.756 E0.55953
G1 X102.775 Y86.68 E0.58645
G1 X103.243 Y86.633 E0.60835
G1 X104.136 Y86.571 E0.65003
G1 X104.537 Y86.552 E0.66873
G1 X105.045 Y86.549 E0.69238
G1 X105.97 Y86.575 E0.73547
G1 X106.534 Y86.606 E0.76177
G1 X107.357 Y86.693 E0.80031
G1 X108.148 Y86.815 E0.83757
G1 X108.62 Y86.907 E0.85997
G1 X109.578 Y87.126 E0.90573
G1 X110.416 Y87.36 E0.94624
G1 X111.267 Y87.644 E0.98801
G1 X111.855 Y87.859 E1.01717
G1 X112.591 Y88.17 E1.05437
G1 X112.87 Y88.301 E1.06872
G1 X113.352 Y88.538 E1.09373
G1 X113.77 Y88.76 E1.11577
G1 X114.57 Y89.218 E1.1587
G1 X114.859 Y89.391 E1.17438
G1 X115.289 Y89.675 E1.19838
G1 X116.095 Y90.248 E1.24442
G1 X116.769 Y90.776 E1.28429
G1 X117.458 Y91.375 E1.3268
G1 X118.103 Y91.991 E1.36834
G1 X118.752 Y92.676 E1.41227
G1 X119.309 Y93.324 E1.45206
G1 X119.913 Y94.104 E1.498
G1 X120.4 Y94.799 E1.53752
G1 X120.89 Y95.577 E1.58033
G1 X121.332 Y96.358 E1.62212
G1 X121.749 Y97.193 E1.66558
G1 X121.997 Y97.728 E1.69303
G1 X122.295 Y98.461 E1.72988
G1 X122.401 Y98.752 E1.7443
G1 X122.58 Y99.276 E1.77008
G1 X122.72 Y99.733 E1.79234
G1 X122.961 Y100.619 E1.83509
G1 X123.102 Y101.196 E1.86275
G1 X123.243 Y101.926 E1.89737
G1 X123.293 Y102.249 E1.91259
G1 X123.369 Y102.82 E1.93941
G1 X123.417 Y103.29 E1.96141
G1 X123.479 Y104.181 E2.003
G1 X123.5 Y105.08 E2.04487
G1 X123.473 Y106.034 E2.08931
G1 X123.409 Y106.888 E2.12919
G1 X123.288 Y107.845 E2.17411
G1 X123.2 Y108.411 E2.20078
G1 X123.051 Y109.139 E2.23538
G1 X122.972 Y109.462 E2.25087
G1 X122.823 Y110.02 E2.27776
G1 X122.691 Y110.461 E2.29919
G1 X122.405 Y111.318 E2.34126
G1 X122.183 Y111.925 E2.37136
G1 X121.885 Y112.631 E2.40704
G1 X121.765 Y112.888 E2.42025
G1 X121.521 Y113.386 E2.44607
G1 X121.291 Y113.818 E2.46886
G1 X120.748 Y114.762 E2.51957
G1 X120.694 Y114.852 E2.52446
G1 X120.374 Y115.342 E2.55171
G1 X119.805 Y116.142 E2.59742
G1 X119.275 Y116.818 E2.63742
G1 X118.661 Y117.524 E2.68099
G1 X118.074 Y118.138 E2.72054
G1 X117.359 Y118.815 E2.76639
G1 X116.712 Y119.371 E2.80611
G1 X115.958 Y119.955 E2.85052
G1 X115.254 Y120.448 E2.89054
G1 X114.463 Y120.945 E2.93404
G1 X113.699 Y121.377 E2.97491
G1 X112.864 Y121.795 E3.01839
G1 X112.313 Y122.051 E3.04668
G1 X111.581 Y122.348 E3.08347
G1 X111.293 Y122.453 E3.09774
G1 X110.768 Y122.632 E3.12357
G1 X110.324 Y122.768 E3.14519
G1 X109.439 Y123.01 E3.18791
G1 X108.837 Y123.156 E3.21676
G1 X108.124 Y123.293 E3.25056
G1 X107.798 Y123.344 E3.26593
G1 X107.225 Y123.42 E3.29284
G1 X106.757 Y123.467 E3.31475
G1 X105.864 Y123.529 E3.35643
G1 X104.969 Y123.55 E3.39811
G1 X104.016 Y123.523 E3.44251
G1 X103.156 Y123.458 E3.48267
G1 X102.197 Y123.336 E3.52768
G1 X101.649 Y123.252 E3.5535
G1 X100.849 Y123.086 E3.59154
G1 X100.561 Y123.015 E3.60535
G1 X100.026 Y122.872 E3.63114
G1 X99.59 Y122.741 E3.65234
G1 X98.735 Y122.456 E3.69431
G1 X98.119 Y122.231 E3.72484
G1 X97.413 Y121.932 E3.76054
G1 X97.159 Y121.813 E3.7736
G1 X96.663 Y121.57 E3.79932
G1 X96.229 Y121.34 E3.82219
G1 X95.415 Y120.873 E3.86589
G1 X95.198 Y120.744 E3.87765
G1 X94.708 Y120.424 E3.9049
G1 X93.908 Y119.855 E3.95061
G1 X93.232 Y119.325 E3.99061
G1 X92.527 Y118.712 E4.03411
G1 X91.912 Y118.124 E4.07373
G1 X91.235 Y117.409 E4.11958
G1 X90.679 Y116.762 E4.1593
G1 X90.095 Y116.008 E4.20371
G1 X89.599 Y115.301 E4.24393
G1 X89.103 Y114.511 E4.28736
G1 X88.671 Y113.745 E4.32831
G1 X88.255 Y112.914 E4.37158
G1 X87.994 Y112.353 E4.4004
G1 X87.7 Y111.625 E4.43695
G1 X87.597 Y111.343 E4.45093
G1 X87.418 Y110.818 E4.47676
G1 X87.282 Y110.374 E4.49838
G1 X87.04 Y109.489 E4.54111
G1 X86.894 Y108.887 E4.56995
G1 X86.757 Y108.174 E4.60376
G1 X86.707 Y107.855 E4.61879
G1 X86.631 Y107.286 E4.64552
G1 X86.583 Y106.805 E4.66803
G1 X86.52 Y105.887 E4.71088
G1 X86.5 Y105.009 E4.75177
G1 X86.527 Y104.059 E4.79603
G1 X86.593 Y103.196 E4.83633
G1 X86.713 Y102.251 E4.88069
G1 X86.8 Y101.689 E4.90717
G1 X86.968 Y100.882 E4.94555
G1 X87.037 Y100.603 E4.95893
G1 X87.177 Y100.079 E4.98419
G1 X87.309 Y99.639 E5.00558
G1 X87.595 Y98.782 E5.04765
G1 X87.817 Y98.175 E5.07774
G1 X88.121 Y97.456 E5.11409
G1 X88.238 Y97.207 E5.1269
G1 X88.479 Y96.715 E5.15241
G1 X88.709 Y96.282 E5.17524
G1 X89.264 Y95.317 E5.22708
G1 X89.319 Y95.226 E5.23203
G1 X89.629 Y94.754 E5.25833
G1 X90.2 Y93.952 E5.30417
G1 X90.39 Y93.695 E5.31905
G1 X90.728 Y93.279 E5.34401
G1 X91.361 Y92.552 E5.38889
G1 X91.707 Y92.173 E5.41279
M204 S3000
M205 X10 Y10
G0 F3000 X92.389 Y92.278
M204 S1800
M205 X8 Y8
G1 F2400 X92.901 Y91.796 E5.44553
G1 X93.349 Y91.404 E5.47325
G1 X93.674 Y91.136 E5.49287
G1 X94.371 Y90.597 E5.5339
G1 X95.03 Y90.135 E5.57137
G1 X95.837 Y89.627 E5.61577
G1 X96.554 Y89.222 E5.65412
G1 X97.398 Y88.8 E5.69806
G1 X98.127 Y88.479 E5.73515
G1 X99.071 Y88.119 E5.78219
G1 X99.807 Y87.877 E5.81827
G1 X100.702 Y87.632 E5.86148
G1 X101.288 Y87.49 E5.88955
G1 X101.974 Y87.358 E5.92208
G1 X102.276 Y87.311 E5.93631
G1 X102.849 Y87.235 E5.96323
G1 X103.282 Y87.192 E5.98349
G1 X104.175 Y87.13 E6.02517
G1 X105.03 Y87.109 E6.065
G1 X105.955 Y87.135 E6.10808
G1 X106.499 Y87.165 E6.13345
G1 X107.29 Y87.249 E6.17049
G1 X108.058 Y87.368 E6.20668
G1 X108.495 Y87.453 E6.22741
G1 X109.453 Y87.672 E6.27317
G1 X110.238 Y87.891 E6.31112
G1 X111.089 Y88.175 E6.35289
G1 X111.659 Y88.383 E6.38115
G1 X112.365 Y88.683 E6.41687
G1 X112.623 Y88.803 E6.43012
G1 X113.105 Y89.04 E6.45513
G1 X113.492 Y89.246 E6.47554
G1 X114.292 Y89.704 E6.51847
G1 X114.965 Y90.131 E6.55558
G1 X115.771 Y90.704 E6.60163
G1 X116.401 Y91.198 E6.6389
G1 X117.09 Y91.797 E6.68142
G1 X117.696 Y92.376 E6.72044
G1 X118.345 Y93.061 E6.76438
G1 X118.866 Y93.667 E6.8016
G1 X119.47 Y94.447 E6.84753
G1 X119.926 Y95.098 E6.88454
G1 X120.416 Y95.876 E6.92736
G1 X120.831 Y96.608 E6.96654
G1 X121.248 Y97.443 E7.01
G1 X121.488 Y97.96 E7.03654
G1 X121.773 Y98.664 E7.0719
G1 X121.871 Y98.933 E7.08524
G1 X122.05 Y99.457 E7.11102
G1 X122.18 Y99.88 E7.13163
G1 X122.421 Y100.766 E7.17438
G1 X122.557 Y101.325 E7.20117
G1 X122.692 Y102.024 E7.23432
G1 X122.738 Y102.323 E7.24841
G1 X122.814 Y102.894 E7.27523
G1 X122.858 Y103.329 E7.29559
G1 X122.92 Y104.22 E7.33718
G1 X122.94 Y105.064 E7.37649
G1 X122.913 Y106.018 E7.42093
G1 X122.853 Y106.818 E7.45828
G1 X122.732 Y107.775 E7.5032
G1 X122.647 Y108.32 E7.52888
G1 X122.504 Y109.019 E7.56211
G1 X122.431 Y109.318 E7.57644
G1 X122.282 Y109.876 E7.60333
G1 X122.16 Y110.283 E7.62312
G1 X121.874 Y111.14 E7.66518
G1 X121.659 Y111.729 E7.69438
G1 X121.373 Y112.404 E7.72852
G1 X121.262 Y112.641 E7.7407
G1 X121.018 Y113.139 E7.76653
G1 X120.806 Y113.54 E7.78765
G1 X120.338 Y114.356 E7.83145
G1 X120.214 Y114.564 E7.84272
G1 X119.918 Y115.017 E7.86792
G1 X119.349 Y115.817 E7.91363
G1 X118.853 Y116.45 E7.95108
G1 X118.239 Y117.156 E7.99465
G1 X117.689 Y117.731 E8.0317
G1 X116.974 Y118.408 E8.07755
G1 X116.369 Y118.929 E8.11473
G1 X115.615 Y119.513 E8.15914
G1 X114.956 Y119.974 E8.19658
G1 X114.165 Y120.471 E8.24008
G1 X113.449 Y120.877 E8.27841
G1 X112.614 Y121.295 E8.32189
G1 X112.082 Y121.541 E8.34918
G1 X111.379 Y121.826 E8.38451
G1 X111.112 Y121.923 E8.39773
G1 X110.587 Y122.102 E8.42356
G1 X110.177 Y122.228 E8.44353
G1 X109.292 Y122.47 E8.48626
G1 X108.71 Y122.61 E8.51413
G1 X108.026 Y122.742 E8.54657
G1 X107.724 Y122.789 E8.5608
G1 X107.151 Y122.865 E8.58771
G1 X106.718 Y122.908 E8.60798
G1 X105.825 Y122.97 E8.64966
G1 X104.985 Y122.99 E8.68878
G1 X104.032 Y122.963 E8.73318
G1 X103.227 Y122.902 E8.77077
G1 X102.268 Y122.78 E8.81578
G1 X101.739 Y122.699 E8.8407
G1 X100.972 Y122.54 E8.87718
G1 X100.706 Y122.474 E8.88994
G1 X100.171 Y122.331 E8.91572
G1 X99.767 Y122.21 E8.93536
G1 X98.912 Y121.925 E8.97733
G1 X98.315 Y121.706 E9.00694
G1 X97.64 Y121.42 E9.04107
G1 X97.405 Y121.31 E9.05316
G1 X96.909 Y121.067 E9.07887
G1 X96.507 Y120.854 E9.10006
G1 X95.693 Y120.387 E9.14376
G1 X95.486 Y120.264 E9.15497
G1 X95.033 Y119.968 E9.18017
G1 X94.233 Y119.399 E9.22588
G1 X93.599 Y118.902 E9.26339
G1 X92.894 Y118.289 E9.30689
G1 X92.319 Y117.739 E9.34394
G1 X91.642 Y117.024 E9.38979
G1 X91.121 Y116.419 E9.42697
G1 X90.537 Y115.665 E9.47138
G1 X90.073 Y115.003 E9.50902
G1 X89.577 Y114.213 E9.55246
G1 X89.171 Y113.495 E9.59087
G1 X88.755 Y112.664 E9.63414
G1 X88.504 Y112.122 E9.66195
G1 X88.222 Y111.424 E9.697
G1 X88.127 Y111.162 E9.70998
G1 X87.948 Y110.637 E9.73581
G1 X87.822 Y110.227 E9.75578
G1 X87.58 Y109.342 E9.7985
G1 X87.44 Y108.76 E9.82638
G1 X87.308 Y108.076 E9.85882
G1 X87.262 Y107.78 E9.87276
G1 X87.186 Y107.211 E9.89949
G1 X87.141 Y106.767 E9.92027
G1 X87.078 Y105.849 E9.96312
G1 X87.06 Y105.025 E10.0015
G1 X87.087 Y104.075 E10.04575
G1 X87.148 Y103.266 E10.08353
G1 X87.268 Y102.321 E10.12789
G1 X87.352 Y101.779 E10.15343
G1 X87.514 Y101.006 E10.1902
G1 X87.578 Y100.747 E10.20262
G1 X87.718 Y100.223 E10.22788
G1 X87.84 Y99.817 E10.24762
G1 X88.126 Y98.96 E10.28969
G1 X88.341 Y98.371 E10.31889
G1 X88.633 Y97.684 E10.35365
G1 X88.741 Y97.453 E10.36552
G1 X88.982 Y96.961 E10.39103
G1 X89.194 Y96.56 E10.41215
G1 X89.662 Y95.744 E10.45595
G1 X89.798 Y95.516 E10.46831
G1 X90.085 Y95.079 E10.49266
G1 X90.656 Y94.277 E10.5385
G1 X91.15 Y93.647 E10.57578
G1 X91.783 Y92.92 E10.62067
G1 X92.389 Y92.278 E10.66177
M204 S3000
M205 X10 Y10
G0 F3000 X92.777 Y92.681
M204 S1800
M205 X8 Y8
G1 F2400 X93.27 Y92.218 E10.69327
G1 X93.718 Y91.826 E10.72099
G1 X94.017 Y91.579 E10.73905
G1 X94.714 Y91.04 E10.78007
G1 X95.329 Y90.609 E10.81504
G1 X96.136 Y90.101 E10.85944
G1 X96.805 Y89.723 E10.89522
G1 X97.649 Y89.301 E10.93916
G1 X98.327 Y89.002 E10.97367
G1 X99.271 Y88.642 E11.02071
G1 X99.955 Y88.417 E11.05424
G1 X100.85 Y88.172 E11.09745
G1 X101.416 Y88.035 E11.12457
G1 X102.072 Y87.91 E11.15566
G1 X102.35 Y87.867 E11.16876
G1 X102.923 Y87.791 E11.19568
G1 X103.321 Y87.75 E11.21431
G1 X104.214 Y87.688 E11.25599
G1 X105.014 Y87.669 E11.29325
G1 X105.939 Y87.695 E11.33634
G1 X106.464 Y87.724 E11.36082
G1 X107.223 Y87.805 E11.39636
G1 X107.969 Y87.921 E11.43152
G1 X108.37 Y87.999 E11.45054
G1 X109.328 Y88.218 E11.4963
G1 X110.061 Y88.422 E11.53173
G1 X110.912 Y88.706 E11.5735
G1 X111.462 Y88.908 E11.60079
G1 X112.138 Y89.195 E11.63498
G1 X112.376 Y89.306 E11.64721
G1 X112.858 Y89.543 E11.67222
G1 X113.214 Y89.732 E11.69099
G1 X114.014 Y90.19 E11.73391
G1 X114.64 Y90.588 E11.76846
G1 X115.446 Y91.161 E11.8145
G1 X116.034 Y91.621 E11.84927
G1 X116.723 Y92.22 E11.89178
G1 X117.29 Y92.761 E11.92827
G1 X117.939 Y93.446 E11.97221
G1 X118.423 Y94.01 E12.00682
G1 X119.027 Y94.79 E12.05275
G1 X119.452 Y95.396 E12.08722
G1 X119.942 Y96.174 E12.13003
G1 X120.33 Y96.859 E12.16669
G1 X120.747 Y97.694 E12.21015
G1 X120.978 Y98.192 E12.23571
G1 X121.251 Y98.867 E12.26962
G1 X121.341 Y99.114 E12.28186
G1 X121.52 Y99.638 E12.30764
G1 X121.64 Y100.027 E12.3266
G1 X121.881 Y100.913 E12.36935
G1 X122.012 Y101.453 E12.39523
G1 X122.14 Y102.122 E12.42694
G1 X122.183 Y102.397 E12.4399
G1 X122.259 Y102.968 E12.46673
G1 X122.3 Y103.368 E12.48545
G1 X122.362 Y104.259 E12.52704
G1 X122.38 Y105.048 E12.56379
G1 X122.353 Y106.002 E12.60823
G1 X122.297 Y106.748 E12.64306
G1 X122.176 Y107.705 E12.68798
G1 X122.095 Y108.23 E12.71271
G1 X121.957 Y108.898 E12.74448
G1 X121.89 Y109.173 E12.75766
G1 X121.741 Y109.731 E12.78455
G1 X121.629 Y110.106 E12.80277
G1 X121.343 Y110.963 E12.84484
G1 X121.134 Y111.533 E12.87311
G1 X120.861 Y112.176 E12.90564
G1 X120.759 Y112.395 E12.91689
G1 X120.515 Y112.893 E12.94271
G1 X120.32 Y113.261 E12.9621
G1 X119.788 Y114.186 E13.01179
G1 X119.461 Y114.692 E13.03984
G1 X118.892 Y115.492 E13.08556
G1 X118.43 Y116.083 E13.12049
G1 X117.816 Y116.789 E13.16405
G1 X117.304 Y117.324 E13.19854
G1 X116.589 Y118.001 E13.24439
G1 X116.026 Y118.486 E13.27899
G1 X115.272 Y119.07 E13.3234
G1 X114.658 Y119.5 E13.3583
G1 X113.867 Y119.997 E13.4018
G1 X113.198 Y120.376 E13.4376
G1 X112.363 Y120.794 E13.48108
G1 X111.851 Y121.031 E13.50736
G1 X111.176 Y121.303 E13.54124
G1 X110.931 Y121.393 E13.5534
G1 X110.406 Y121.572 E13.57922
G1 X110.029 Y121.687 E13.59758
G1 X109.144 Y121.929 E13.6403
G1 X108.583 Y122.065 E13.66718
G1 X107.928 Y122.19 E13.69823
G1 X107.65 Y122.233 E13.71133
G1 X107.077 Y122.309 E13.73824
G1 X106.679 Y122.35 E13.75687
G1 X105.786 Y122.412 E13.79855
G1 X105.001 Y122.43 E13.83512
G1 X104.048 Y122.403 E13.87951
G1 X103.297 Y122.347 E13.91458
G1 X102.338 Y122.225 E13.95959
G1 X101.828 Y122.146 E13.98362
G1 X101.096 Y121.993 E14.01844
G1 X100.85 Y121.933 E14.03024
G1 X100.315 Y121.79 E14.05602
G1 X99.944 Y121.679 E14.07405
G1 X99.089 Y121.394 E14.11602
G1 X98.511 Y121.182 E14.14469
G1 X97.868 Y120.908 E14.17723
G1 X97.651 Y120.807 E14.18838
G1 X97.155 Y120.564 E14.2141
G1 X96.786 Y120.368 E14.23355
G1 X95.864 Y119.838 E14.28307
G1 X95.358 Y119.511 E14.31113
G1 X94.558 Y118.942 E14.35684
G1 X93.967 Y118.48 E14.39177
G1 X93.262 Y117.867 E14.43527
G1 X92.726 Y117.354 E14.46982
G1 X92.049 Y116.639 E14.51567
G1 X91.564 Y116.076 E14.55027
G1 X90.98 Y115.322 E14.59468
G1 X90.548 Y114.705 E14.62975
G1 X90.052 Y113.915 E14.67319
G1 X89.672 Y113.244 E14.70909
G1 X89.256 Y112.413 E14.75237
G1 X89.014 Y111.891 E14.77916
G1 X88.745 Y111.222 E14.81273
G1 X88.657 Y110.981 E14.82468
G1 X88.478 Y110.456 E14.85051
G1 X88.363 Y110.079 E14.86886
G1 X88.121 Y109.194 E14.91158
G1 X87.985 Y108.633 E14.93846
G1 X87.86 Y107.978 E14.96951
G1 X87.817 Y107.706 E14.98233
G1 X87.741 Y107.137 E15.00906
G1 X87.7 Y106.728 E15.0282
G1 X87.637 Y105.81 E15.07105
G1 X87.62 Y105.041 E15.10687
G1 X87.647 Y104.091 E15.15112
G1 X87.704 Y103.337 E15.18633
G1 X87.824 Y102.392 E15.23069
G1 X87.905 Y101.869 E15.25533
G1 X88.06 Y101.129 E15.29054
G1 X88.119 Y100.892 E15.30191
G1 X88.259 Y100.368 E15.32716
G1 X88.371 Y99.994 E15.34534
G1 X88.657 Y99.137 E15.38741
G1 X88.866 Y98.567 E15.41568
G1 X89.144 Y97.912 E15.44882
G1 X89.243 Y97.7 E15.45971
G1 X89.484 Y97.208 E15.48522
G1 X89.68 Y96.839 E15.50468
G1 X90.148 Y96.023 E15.54848
G1 X90.541 Y95.404 E15.58262
G1 X91.112 Y94.602 E15.62846
G1 X91.572 Y94.014 E15.66323
G1 X92.205 Y93.287 E15.70811
G1 X92.777 Y92.681 E15.74691
M204 S3000
M205 X10 Y10
G0 F3000 X93.166 Y93.085
M204 S1800
M205 X8 Y8
G1 F2400 X93.638 Y92.639 E15.77715
G1 X94.086 Y92.247 E15.80487
G1 X94.359 Y92.022 E15.82134
G1 X95.056 Y91.483 E15.86237
G1 X95.627 Y91.083 E15.89483
G1 X96.434 Y90.575 E15.93924
G1 X97.055 Y90.224 E15.97245
G1 X97.899 Y89.802 E16.01639
G1 X98.526 Y89.525 E16.04831
G1 X99.47 Y89.165 E16.09535
G1 X100.103 Y88.957 E16.12638
G1 X100.998 Y88.712 E16.16959
G1 X101.543 Y88.581 E16.19569
G1 X102.17 Y88.461 E16.22541
G1 X102.423 Y88.422 E16.23733
G1 X102.996 Y88.346 E16.26425
G1 X103.36 Y88.309 E16.28129
G1 X104.253 Y88.247 E16.32297
G1 X104.998 Y88.228 E16.35767
G1 X105.923 Y88.254 E16.40076
G1 X106.428 Y88.283 E16.42431
G1 X107.156 Y88.361 E16.4584
G1 X107.879 Y88.473 E16.49247
G1 X108.245 Y88.545 E16.50984
G1 X109.203 Y88.764 E16.5556
G1 X109.884 Y88.953 E16.58851
G1 X110.735 Y89.237 E16.63028
G1 X111.266 Y89.432 E16.65662
