;FLAVOR:Marlin
;TIME:3058
;Filament used: 3.17728m
;Layer height: 0.2
;MINX:79.767
;MINY:88.124
;MINZ:0.2
;MAXX:130.21
;MAXY:121.877
;MAXZ:35
;Generated with Cura_SteamEngine 4.6.1
M140 S65
M105
M190 S65
M104 S200
M105
M109 S200
M82 ;absolute extrusion mode
G21 ;metric values
G90 ;absolute positioning
M82 ;set extruder to absolute mode
M107 ;start with the fan off
G28 X0 Y0 ;move X/Y to min endstops
G28 Z0 ;move Z to min endstops
G1 Z15.0 F100 ;move the platform down 15mm
G92 E0 ;zero the extruded length
G1 F200 E3 ;extrude 3mm of feed stock
G92 E0 ;zero the extruded length again
G1 F100
G0 Y20 F100
M117 Printing...
G5
G92 E0
G92 E0
G1 F2400 E-6
;LAYER_COUNT:175
;LAYER:0
M106 S255
M204 S3000
M205 X10 Y10
G1 F600 Z0.275
G0 F3000 X114.668 Y89.289 Z0.275
M204 S1800
M205 X8 Y8
;TYPE:SKIRT
G1 F600 Z0.2
G1 F2400 E0
G1 X115.291 Y89.354 E0.02917
G1 X116.058 Y89.472 E0.0653
G1 X117.25 Y89.733 E0.12212
G1 X118.004 Y89.938 E0.15851
G1 X118.515 Y90.108 E0.18358
G1 X119.031 Y90.3 E0.20922
G1 X120.171 Y90.799 E0.26716
G1 X120.601 Y91.016 E0.28959
G1 X121.514 Y91.53 E0.33838
G1 X121.953 Y91.806 E0.36253
G1 X122.791 Y92.393 E0.41017
G1 X123.199 Y92.71 E0.43423
G1 X123.985 Y93.384 E0.48244
G1 X124.367 Y93.746 E0.50694
G1 X125.083 Y94.496 E0.55523
G1 X125.584 Y95.07 E0.5907
G1 X125.95 Y95.544 E0.61859
G1 X126.262 Y95.979 E0.64352
G1 X126.876 Y96.937 E0.6965
G1 X127.155 Y97.411 E0.72211
G1 X127.439 Y97.95 E0.75048
G1 X127.751 Y98.623 E0.78502
G1 X128.207 Y99.784 E0.8431
G1 X128.452 Y100.515 E0.879
G1 X128.6 Y101.06 E0.9053
G1 X128.761 Y101.746 E0.93811
G1 X128.876 Y102.342 E0.96637
G1 X128.984 Y103.11 E1.00249
G1 X129.078 Y104.319 E1.05895
G1 X129.09 Y104.78 E1.08043
G1 X129.071 Y105.799 E1.12788
G1 X129.036 Y106.313 E1.15187
G1 X128.914 Y107.358 E1.20086
G1 X128.827 Y107.877 E1.22537
G1 X128.598 Y108.921 E1.27514
G1 X128.395 Y109.676 E1.31154
G1 X128.218 Y110.202 E1.33738
G1 X127.916 Y110.986 E1.3765
G1 X127.524 Y111.861 E1.42115
G1 X127.299 Y112.304 E1.44428
G1 X126.795 Y113.194 E1.49191
G1 X126.533 Y113.611 E1.51484
G1 X125.981 Y114.403 E1.55979
G1 X125.66 Y114.832 E1.58474
G1 X125.26 Y115.315 E1.61395
G1 X124.747 Y115.875 E1.64931
G1 X123.821 Y116.765 E1.70911
G1 X123.443 Y117.09 E1.73233
G1 X122.624 Y117.73 E1.78073
G1 X122.199 Y118.03 E1.80495
G1 X121.35 Y118.568 E1.85175
G1 X120.912 Y118.817 E1.87521
G1 X119.995 Y119.282 E1.92309
G1 X119.52 Y119.494 E1.94731
G1 X118.553 Y119.87 E1.99562
G1 X117.834 Y120.113 E2.03096
G1 X117.279 Y120.265 E2.05775
G1 X116.776 Y120.385 E2.08183
G1 X115.535 Y120.606 E2.14053
G1 X115.068 Y120.663 E2.16244
G1 X114.05 Y120.742 E2.20998
G1 X113.539 Y120.757 E2.23379
G1 X112.508 Y120.737 E2.2818
G1 X111.981 Y120.7 E2.3064
G1 X110.922 Y120.573 E2.35607
G1 X110.407 Y120.486 E2.38039
G1 X109.434 Y120.27 E2.4268
G1 X108.658 Y120.06 E2.46423
G1 X107.465 Y119.671 E2.52266
G1 X104.89 Y118.871 E2.64822
G1 X102.31 Y118.148 E2.77298
G1 X99.703 Y117.496 E2.89811
G1 X97.09 Y116.92 E3.0227
G1 X94.435 Y116.417 E3.14853
G1 X91.817 Y115.995 E3.27201
G1 X89.159 Y115.643 E3.39686
G1 X85.748 Y115.293 E3.55652
G1 X85.107 Y115.188 E3.58677
G1 X84.484 Y115.004 E3.61702
G1 X83.889 Y114.745 E3.64723
G1 X83.329 Y114.415 E3.6775
G1 X82.814 Y114.018 E3.70778
G1 X82.41 Y113.629 E3.73389
G1 X81.984 Y113.138 E3.76416
G1 X81.622 Y112.599 E3.7944
G1 X81.328 Y112.019 E3.82467
G1 X81.108 Y111.408 E3.85491
G1 X80.965 Y110.775 E3.88513
G1 X80.898 Y110.017 E3.92056
G1 X80.888 Y109.42 E3.94837
G1 X80.887 Y100.752 E4.35199
G1 X80.898 Y99.998 E4.3871
G1 X80.947 Y99.35 E4.41736
G1 X81.076 Y98.713 E4.44762
G1 X81.282 Y98.097 E4.47787
G1 X81.562 Y97.511 E4.50811
G1 X81.912 Y96.964 E4.53835
G1 X82.326 Y96.464 E4.56857
G1 X82.727 Y96.079 E4.59446
G1 X83.383 Y95.566 E4.63324
G1 X83.944 Y95.239 E4.66347
G1 X84.541 Y94.983 E4.69372
G1 X85.165 Y94.803 E4.72396
G1 X85.83 Y94.698 E4.75531
G1 X86.816 Y94.607 E4.80142
G1 X89.493 Y94.32 E4.92678
G1 X92.124 Y93.964 E5.05041
G1 X94.784 Y93.525 E5.17595
G1 X97.411 Y93.016 E5.30054
G1 X100.02 Y92.433 E5.42503
G1 X102.614 Y91.777 E5.54962
G1 X105.189 Y91.046 E5.67426
G1 X107.682 Y90.245 E5.79619
G1 X108.697 Y89.927 E5.84571
G1 X109.339 Y89.748 E5.87675
G1 X109.845 Y89.626 E5.90099
G1 X111.136 Y89.396 E5.96205
G1 X111.603 Y89.338 E5.98396
G1 X112.614 Y89.259 E6.03118
G1 X113.121 Y89.244 E6.0548
G1 X114.164 Y89.263 E6.10337
G1 X114.668 Y89.289 E6.12687
M204 S3000
M205 X10 Y10
G0 F3000 X114.703 Y88.73
M204 S1800
M205 X8 Y8
G1 F2400 X115.356 Y88.797 E6.15744
G1 X116.147 Y88.919 E6.19471
G1 X117.374 Y89.187 E6.25319
G1 X117.87 Y89.315 E6.27704
G1 X118.476 Y89.502 E6.30657
G1 X119.227 Y89.776 E6.34379
G1 X120.4 Y90.288 E6.40339
G1 X120.876 Y90.528 E6.42821
G1 X121.789 Y91.042 E6.477
G1 X122.275 Y91.348 E6.50374
G1 X123.113 Y91.935 E6.55138
G1 X123.564 Y92.285 E6.57797
G1 X124.35 Y92.959 E6.62618
G1 X124.772 Y93.359 E6.65325
G1 X125.488 Y94.109 E6.70154
G1 X126.024 Y94.724 E6.73952
G1 X126.405 Y95.217 E6.76854
G1 X126.717 Y95.652 E6.79346
G1 X127.35 Y96.639 E6.84806
G1 X127.64 Y97.13 E6.87461
G1 X127.938 Y97.695 E6.90436
G1 X128.261 Y98.392 E6.94013
G1 X128.729 Y99.584 E6.99976
G1 X128.897 Y100.063 E7.0234
G1 X129.08 Y100.678 E7.05327
G1 X129.307 Y101.618 E7.0983
G1 X129.427 Y102.243 E7.12794
G1 X129.539 Y103.036 E7.16523
G1 X129.637 Y104.28 E7.22333
G1 X129.65 Y104.791 E7.24713
G1 X129.631 Y105.81 E7.29459
G1 X129.593 Y106.378 E7.3211
G1 X129.471 Y107.423 E7.37009
G1 X129.374 Y107.997 E7.3972
G1 X129.145 Y109.041 E7.44697
G1 X128.927 Y109.85 E7.48598
G1 X128.743 Y110.397 E7.51285
G1 X128.427 Y111.215 E7.55369
G1 X128.035 Y112.09 E7.59833
G1 X127.787 Y112.58 E7.6239
G1 X127.283 Y113.47 E7.67153
G1 X126.992 Y113.931 E7.69691
G1 X126.44 Y114.723 E7.74187
G1 X126.106 Y115.171 E7.76789
G1 X125.687 Y115.678 E7.79851
G1 X125.156 Y116.256 E7.83506
G1 X124.206 Y117.171 E7.89648
G1 X123.788 Y117.532 E7.9222
G1 X122.969 Y118.172 E7.9706
G1 X122.499 Y118.503 E7.99736
G1 X121.65 Y119.041 E8.04416
G1 X121.165 Y119.317 E8.07015
G1 X120.248 Y119.782 E8.11802
G1 X119.723 Y120.016 E8.14479
G1 X118.756 Y120.392 E8.1931
G1 X117.986 Y120.652 E8.23094
G1 X117.409 Y120.81 E8.2588
G1 X116.906 Y120.93 E8.28288
G1 X115.627 Y121.158 E8.34337
G1 X115.111 Y121.221 E8.36758
G1 X114.093 Y121.3 E8.41512
G1 X113.528 Y121.317 E8.44145
G1 X112.497 Y121.297 E8.48946
G1 X111.915 Y121.256 E8.51663
G1 X110.856 Y121.129 E8.56629
G1 X110.285 Y121.032 E8.59326
G1 X109.312 Y120.816 E8.63967
G1 X108.81 Y120.688 E8.6638
G1 X107.272 Y120.197 E8.73897
G1 X104.75 Y119.414 E8.86194
G1 X102.159 Y118.688 E8.98723
G1 X99.565 Y118.04 E9.11173
G1 X96.962 Y117.466 E9.23585
G1 X94.352 Y116.971 E9.35955
G1 X91.759 Y116.553 E9.48185
G1 X89.098 Y116.2 E9.60684
G1 X85.691 Y115.851 E9.76632
G1 X85.017 Y115.741 E9.79812
G1 X84.36 Y115.554 E9.82992
G1 X83.729 Y115.291 E9.86176
G1 X83.133 Y114.956 E9.89359
G1 X82.581 Y114.554 E9.92539
G1 X82.12 Y114.133 E9.95446
G1 X81.561 Y113.507 E9.99354
G1 X81.175 Y112.943 E10.02536
G1 X80.857 Y112.338 E10.05719
G1 X80.612 Y111.7 E10.08901
G1 X80.443 Y111.038 E10.12082
G1 X80.338 Y110.027 E10.16815
G1 X80.328 Y109.43 E10.19596
G1 X80.327 Y100.752 E10.60004
G1 X80.338 Y99.99 E10.63553
G1 X80.388 Y99.308 E10.66737
G1 X80.517 Y98.637 E10.69919
G1 X80.724 Y97.986 E10.73099
G1 X81.005 Y97.364 E10.76278
G1 X81.357 Y96.778 E10.79461
G1 X81.775 Y96.238 E10.8264
G1 X82.361 Y95.655 E10.86489
G1 X83.042 Y95.12 E10.90522
G1 X83.629 Y94.771 E10.93702
G1 X84.253 Y94.492 E10.96885
G1 X84.905 Y94.289 E11.00065
G1 X85.778 Y94.141 E11.04188
G1 X86.705 Y94.055 E11.08523
G1 X89.427 Y93.764 E11.2127
G1 X92.066 Y93.406 E11.3367
G1 X94.696 Y92.972 E11.46082
G1 X97.286 Y92.471 E11.58366
G1 X99.871 Y91.893 E11.707
G1 X102.492 Y91.23 E11.83289
G1 X105.015 Y90.514 E11.95501
G1 X107.511 Y89.712 E12.07709
G1 X108.53 Y89.393 E12.12681
G1 X109.208 Y89.204 E12.15958
G1 X109.714 Y89.082 E12.18382
G1 X111.043 Y88.843 E12.24669
G1 X111.559 Y88.78 E12.2709
G1 X112.57 Y88.701 E12.31812
G1 X113.131 Y88.684 E12.34425
G1 X114.174 Y88.703 E12.39283
G1 X114.703 Y88.73 E12.41749
M204 S3000
M205 X10 Y10
G0 F3000 X114.737 Y88.171
M204 S1800
M205 X8 Y8
G1 F2400 X115.421 Y88.241 E12.44951
G1 X116.236 Y88.366 E12.4879
G1 X117.499 Y88.641 E12.54809
G1 X118.014 Y88.773 E12.57285
G1 X118.649 Y88.969 E12.60379
G1 X119.422 Y89.251 E12.64211
G1 X120.629 Y89.777 E12.70342
G1 X121.151 Y90.04 E12.73063
G1 X122.064 Y90.554 E12.77942
G1 X122.596 Y90.889 E12.80869
G1 X123.434 Y91.476 E12.85634
G1 X123.928 Y91.86 E12.88547
G1 X124.714 Y92.534 E12.93368
G1 X125.177 Y92.973 E12.96339
G1 X125.893 Y93.723 E13.01168
G1 X126.237 Y94.105 E13.03561
G1 X126.689 Y94.664 E13.06909
G1 X127.172 Y95.326 E13.10724
G1 X127.824 Y96.341 E13.16342
G1 X128.124 Y96.849 E13.19089
G1 X128.436 Y97.44 E13.22201
G1 X128.771 Y98.16 E13.25899
G1 X129.252 Y99.383 E13.32018
G1 X129.427 Y99.881 E13.34476
G1 X129.619 Y100.526 E13.3761
G1 X129.852 Y101.49 E13.42228
G1 X129.978 Y102.144 E13.45329
G1 X130.094 Y102.962 E13.49176
G1 X130.196 Y104.242 E13.55155
G1 X130.21 Y104.801 E13.57759
G1 X130.191 Y105.82 E13.62505
G1 X130.149 Y106.443 E13.65412
G1 X130.027 Y107.488 E13.70311
G1 X129.921 Y108.117 E13.73281
G1 X129.692 Y109.161 E13.78258
G1 X129.566 Y109.663 E13.80668
G1 X129.35 Y110.357 E13.84053
G1 X129.097 Y111.053 E13.87501
G1 X128.546 Y112.319 E13.9393
G1 X128.274 Y112.856 E13.96733
G1 X127.77 Y113.746 E14.01496
G1 X127.452 Y114.251 E14.04275
G1 X126.9 Y115.043 E14.0877
G1 X126.552 Y115.51 E14.11482
G1 X126.114 Y116.04 E14.14683
G1 X125.566 Y116.638 E14.1846
G1 X124.591 Y117.578 E14.24767
G1 X124.133 Y117.973 E14.27583
G1 X123.314 Y118.613 E14.32423
G1 X122.799 Y118.976 E14.35357
G1 X121.95 Y119.514 E14.40037
G1 X121.418 Y119.816 E14.42885
G1 X120.501 Y120.281 E14.47673
G1 X119.926 Y120.538 E14.50606
G1 X118.959 Y120.914 E14.55437
G1 X118.466 Y121.088 E14.57871
G1 X117.796 Y121.287 E14.61126
G1 X117.036 Y121.474 E14.6477
G1 X115.72 Y121.71 E14.70996
G1 X115.154 Y121.78 E14.73651
G1 X114.136 Y121.859 E14.78406
G1 X113.517 Y121.877 E14.81289
G1 X112.486 Y121.857 E14.86091
G1 X111.848 Y121.812 E14.89069
G1 X110.789 Y121.685 E14.94036
G1 X110.164 Y121.579 E14.96987
G1 X109.191 Y121.363 E15.01628
G1 X108.667 Y121.23 E15.04146
G1 X107.16 Y120.749 E15.11512
G1 X104.567 Y119.944 E15.24154
G1 X102.016 Y119.229 E15.36491
G1 X99.445 Y118.587 E15.4883
G1 X96.841 Y118.013 E15.61246
G1 X94.268 Y117.525 E15.73441
G1 X91.67 Y117.106 E15.85694
G1 X89.033 Y116.757 E15.98081
G1 X85.634 Y116.408 E16.13991
G1 X84.928 Y116.295 E16.1732
G1 X84.238 Y116.104 E16.20654
G1 X83.575 Y115.838 E16.2398
G1 X82.945 Y115.499 E16.27312
G1 X82.357 Y115.092 E16.30641
G1 X81.721 Y114.526 E16.34606
G1 X81.139 Y113.876 E16.38669
G1 X80.73 Y113.289 E16.42
G1 X80.389 Y112.66 E16.45332
G1 X80.121 Y111.998 E16.48657
G1 X79.928 Y111.309 E16.51989
G1 X79.813 Y110.603 E16.5532
G1 X79.778 Y110.036 E16.57965
G1 X79.768 Y109.439 E16.60745
G1 X79.767 Y100.752 E17.01195
G1 X79.778 Y99.981 E17.04786
G1 X79.828 Y99.268 E17.08114
G1 X79.958 Y98.564 E17.11448
G1 X80.166 Y97.88 E17.14777
G1 X80.448 Y97.223 E17.18106
G1 X80.802 Y96.601 E17.21438
G1 X81.224 Y96.023 E17.24771
G1 X81.707 Y95.496 E17.28099
G1 X82.134 Y95.112 E17.30773
G1 X82.7 Y94.675 E17.34103
G1 X83.312 Y94.305 E17.37433
G1 X83.962 Y94.005 E17.40767
G1 X84.64 Y93.779 E17.44094
G1 X85.34 Y93.631 E17.47426
G1 X86.664 Y93.496 E17.53623
G1 X89.363 Y93.208 E17.66262
G1 X91.963 Y92.855 E17.7848
G1 X94.607 Y92.419 E17.90958
G1 X97.167 Y91.923 E18.031
G1 X99.756 Y91.344 E18.15453
G1 X102.337 Y90.692 E18.27849
G1 X104.859 Y89.976 E18.40056
G1 X107.339 Y89.179 E18.52186
G1 X108.362 Y88.858 E18.57178
G1 X108.851 Y88.718 E18.59547
G1 X109.583 Y88.537 E18.63058
G1 X110.95 Y88.291 E18.69526
G1 X111.515 Y88.221 E18.72177
G1 X112.526 Y88.142 E18.76899
G1 X113.142 Y88.124 E18.79768
G1 X114.185 Y88.143 E18.84626
G1 X114.737 Y88.171 E18.87199
M204 S3000
M205 X10 Y10
G1 F2400 E12.87199
G0 F3000 X105.401 Y97.145
G0 X103.03 Y100.15
M204 S1800
M205 X8 Y8
;TYPE:SUPPORT-INTERFACE
G1 F2400 E18.87199
G1 F1500 X102.795 Y100.647 E18.89759
G1 X102.421 Y101.698 E18.94954
G1 X102.256 Y102.36 E18.98131
G1 X86.367 Y102.36 E19.72116
G1 X86.367 Y100.15 E19.82407
G1 X103.03 Y100.15 E20.59997
M204 S3000
M205 X10 Y10
G1 F2400 E14.59997
G0 F3000 X86.057 Y102.979
G0 X85.506 Y106.471
G0 X102.256 Y107.641
M204 S1800
M205 X8 Y8
G1 F2400 E20.59997
G1 F1500 X102.425 Y108.318 E20.63246
G1 X102.804 Y109.373 E20.68466
G1 X103.03 Y109.85 E20.70924
G1 X102.045 Y109.85 E20.7551
G1 X86.367 Y109.851 E21.48514
G1 X86.367 Y107.641 E21.58804
G1 X102.256 Y107.641 E22.3279
M204 S3000
M205 X10 Y10
G1 F2400 E16.3279
G0 F3000 X86.057 Y107.022
G0 X85.506 Y103.53
G0 X87.407 Y101.32
M204 S1800
M205 X8 Y8
G1 F2400 E22.3279
G1 F1500 X87.407 Y101.19 E22.33396
G1 X101.498 Y101.19 E22.99009
G1 X101.451 Y101.32 E22.99653
G1 X87.407 Y101.32 E23.65048
M204 S3000
M205 X10 Y10
G0 F3000 X86.847 Y101.88
M204 S1800
M205 X8 Y8
G1 F1500 X86.847 Y100.63 E23.70868
G1 X102.292 Y100.63 E24.42787
G1 X101.961 Y101.559 E24.47379
G1 X101.881 Y101.88 E24.48919
G1 X86.847 Y101.88 E25.18924
M204 S3000
M205 X10 Y10
G1 F2400 E19.18924
G0 F3000 X85.506 Y103.53
G0 X85.506 Y106.471
G0 X86.847 Y108.121
M204 S1800
M205 X8 Y8
G1 F2400 E25.18924
G1 F1500 X101.881 Y108.121 E25.88928
G1 X101.965 Y108.457 E25.90541
G1 X102.293 Y109.37 E25.95058
G1 X102.045 Y109.37 E25.96213
G1 X86.847 Y109.371 E26.66981
G1 X86.847 Y108.121 E26.72802
M204 S3000
M205 X10 Y10
G0 F3000 X87.407 Y108.681
M204 S1800
M205 X8 Y8
G1 F1500 X101.451 Y108.681 E27.38197
G1 X101.497 Y108.81 E27.38834
G1 X87.407 Y108.811 E28.04443
G1 X87.407 Y108.681 E28.05049
M204 S3000
M205 X10 Y10
G1 F2400 E22.05049
;MESH:pipe fitting test.obj
G0 F3000 X87.407 Y105.501
G0 X103.686 Y104.51
G0 X115.112 Y96.077
M204 S1800
M205 X8 Y8
;TYPE:WALL-INNER
G1 F2400 E28.05049
G1 F1500 X115.963 Y96.288 E28.09131
G1 X116.817 Y96.594 E28.13356
G1 X117.613 Y96.972 E28.17459
G1 X118.396 Y97.44 E28.21706
G1 X119.102 Y97.963 E28.25798
G1 X119.771 Y98.57 E28.30004
G1 X120.371 Y99.231 E28.34161
G1 X120.894 Y99.939 E28.38259
G1 X121.36 Y100.714 E28.4247
G1 X121.737 Y101.511 E28.46576
G1 X122.042 Y102.361 E28.50781
G1 X122.256 Y103.223 E28.54916
G1 X122.385 Y104.105 E28.59067
G1 X122.431 Y104.996 E28.63221
G1 X122.388 Y105.889 E28.67384
G1 X122.257 Y106.774 E28.7155
G1 X122.041 Y107.643 E28.7572
G1 X121.743 Y108.477 E28.79844
G1 X121.358 Y109.29 E28.84032
G1 X120.896 Y110.057 E28.88202
G1 X120.373 Y110.763 E28.92293
G1 X119.764 Y111.437 E28.96523
G1 X119.108 Y112.033 E29.0065
G1 X118.393 Y112.563 E29.04794
G1 X117.626 Y113.021 E29.08954
G1 X116.82 Y113.403 E29.13107
G1 X115.971 Y113.708 E29.17308
G1 X115.108 Y113.924 E29.2145
G1 X114.224 Y114.053 E29.2561
G1 X113.34 Y114.098 E29.29732
G1 X112.445 Y114.055 E29.33904
G1 X111.558 Y113.924 E29.38079
G1 X110.693 Y113.707 E29.42232
G1 X109.845 Y113.403 E29.46426
G1 X109.046 Y113.026 E29.5054
G1 X108.282 Y112.567 E29.5469
G1 X107.559 Y112.032 E29.58878
G1 X106.898 Y111.435 E29.63026
G1 X106.301 Y110.774 E29.67173
G1 X105.766 Y110.052 E29.71358
G1 X105.312 Y109.295 E29.75468
G1 X104.925 Y108.478 E29.79677
G1 X104.627 Y107.644 E29.83801
G1 X104.409 Y106.774 E29.87978
G1 X104.15 Y104.996 E29.96344
G1 X104.41 Y103.224 E30.04684
G1 X104.628 Y102.352 E30.08869
G1 X104.921 Y101.531 E30.12928
G1 X105.255 Y100.825 E30.16565
G1 X105.735 Y100.002 E30.21001
G1 X106.265 Y99.276 E30.25187
G1 X106.881 Y98.588 E30.29487
G1 X107.541 Y97.985 E30.33649
G1 X108.255 Y97.453 E30.37796
G1 X109.029 Y96.985 E30.42007
G1 X109.837 Y96.601 E30.46173
G1 X110.674 Y96.3 E30.50315
G1 X111.546 Y96.08 E30.54502
G1 X112.436 Y95.947 E30.58693
G1 X113.328 Y95.903 E30.62851
G1 X114.217 Y95.943 E30.66995
G1 X115.112 Y96.077 E30.71209
M204 S3000
M205 X10 Y10
G0 F3000 X103.726 Y105.446
G0 X103.661 Y105.521
M204 S1800
M205 X8 Y8
G1 F1500 X87.007 Y105.521 E31.48757
G1 X87.007 Y104.48 E31.53604
G1 X103.66 Y104.48 E32.31148
G1 X103.86 Y103.116 E32.37567
G1 X104.091 Y102.192 E32.42002
G1 X104.405 Y101.312 E32.46352
G1 X104.76 Y100.562 E32.50216
G1 X105.263 Y99.699 E32.54867
G1 X105.832 Y98.919 E32.59363
G1 X106.478 Y98.198 E32.63871
G1 X107.186 Y97.551 E32.68337
