;FLAVOR:Marlin
;TIME:2997
;Filament used: 1.39011m
;Layer height: 0.1
;Generated with Cura_SteamEngine 3.5.0
M140 S60
M105
M190 S60
M104 S200
M105
M109 S200
M82 ;absolute extrusion mode
G21 ;metric values
G90 ;absolute positioning
M82 ;set extruder to absolute mode
M107 ;start with the fan off
G28 X0 Y0 ;move X/Y to min endstops
G28 Z0 ;move Z to min endstops
G1 Z15.0 F120 ;move the platform down 15mm
G92 E0 ;zero the extruded length
G1 F200 E3 ;extrude 3mm of feed stock
G92 E0 ;zero the extruded length again
G1 F120
M117 Printing...
G5
G92 E0
G1 F3600 E-6
;LAYER_COUNT:319
;LAYER:0
M106 S255
M204 S3000
M205 X10 Y10
G0 F6000 X95.422 Y94.401 Z0.2
M204 S1800
M205 X8 Y8
;TYPE:SKIRT
G1 F3600 E0
G1 F2400 X95.856 Y93.998 E0.02955
G1 X100.869 Y89.746 E0.3575
G1 X104.694 Y86.077 E0.62192
G1 X108.303 Y82.199 E0.88622
G1 X110.803 Y79.253 E1.07898
G1 X111.299 Y78.73 E1.11495
G1 X111.85 Y78.266 E1.15088
G1 X112.449 Y77.865 E1.18685
G1 X113.089 Y77.533 E1.22282
G1 X113.762 Y77.274 E1.25879
G1 X114.459 Y77.09 E1.29476
G1 X115.172 Y76.986 E1.33071
G1 X115.76 Y76.959 E1.36007
G1 X121.938 Y76.96 E1.66829
G1 X122.658 Y77 E1.70427
G1 X123.369 Y77.12 E1.74024
G1 X124.062 Y77.317 E1.77619
G1 X124.729 Y77.59 E1.81214
G1 X125.362 Y77.935 E1.84811
G1 X125.952 Y78.349 E1.88407
G1 X126.494 Y78.825 E1.92006
G1 X126.979 Y79.358 E1.95601
G1 X127.402 Y79.941 E1.99195
G1 X127.758 Y80.568 E2.02792
G1 X128.043 Y81.23 E2.06387
G1 X128.252 Y81.92 E2.09984
G1 X128.384 Y82.629 E2.13582
G1 X128.436 Y83.348 E2.17179
G1 X128.408 Y84.068 E2.20774
G1 X128.302 Y84.778 E2.24355
G1 X127.927 Y86.587 E2.33572
G1 X127.024 Y91.89 E2.6041
G1 X126.435 Y97.127 E2.86702
G1 X126.141 Y102.413 E3.13115
G1 X126.147 Y107.703 E3.39507
G1 X126.451 Y112.969 E3.65823
G1 X127.052 Y118.209 E3.92136
G1 X128.33 Y125.261 E4.27892
G1 X128.419 Y125.976 E4.31487
G1 X128.428 Y126.697 E4.35084
G1 X128.357 Y127.415 E4.38684
G1 X128.208 Y128.12 E4.42279
G1 X127.981 Y128.804 E4.45874
G1 X127.68 Y129.459 E4.4947
G1 X127.308 Y130.076 E4.53065
G1 X126.87 Y130.649 E4.56663
G1 X126.372 Y131.17 E4.60259
G1 X125.818 Y131.632 E4.63858
G1 X125.217 Y132.03 E4.67454
G1 X124.576 Y132.359 E4.71049
G1 X123.902 Y132.615 E4.74646
G1 X123.204 Y132.795 E4.78242
G1 X122.491 Y132.896 E4.81834
G1 X122.06 Y132.919 E4.83988
G1 X115.88 Y133.039 E5.14826
G1 X115.16 Y133.013 E5.1842
G1 X114.447 Y132.907 E5.22016
G1 X113.75 Y132.723 E5.25613
G1 X113.077 Y132.463 E5.29212
G1 X112.438 Y132.131 E5.32805
G1 X111.839 Y131.729 E5.36404
G1 X111.289 Y131.264 E5.39997
G1 X110.791 Y130.738 E5.43611
G1 X107.886 Y127.303 E5.66055
G1 X104.218 Y123.386 E5.92828
G1 X102.35 Y121.552 E6.05888
G1 X100.48 Y119.82 E6.18604
G1 X95.863 Y115.909 E6.48792
G1 X95.34 Y115.413 E6.52388
G1 X94.874 Y114.863 E6.55985
G1 X94.473 Y114.264 E6.59581
G1 X94.14 Y113.625 E6.63176
G1 X93.88 Y112.952 E6.66775
G1 X93.697 Y112.255 E6.7037
G1 X93.591 Y111.542 E6.73967
G1 X93.564 Y110.951 E6.76918
G1 X93.56 Y98.957 E7.36757
G1 X93.6 Y98.237 E7.40354
G1 X93.719 Y97.527 E7.43946
G1 X93.916 Y96.833 E7.47545
G1 X94.189 Y96.166 E7.51141
G1 X94.534 Y95.533 E7.54737
G1 X94.947 Y94.942 E7.58334
G1 X95.07 Y94.802 E7.59264
G0 F2160 X95.422 Y94.401
M204 S3000
M205 X10 Y10
G0 F6000 X95.541 Y95.161
M204 S1800
M205 X8 Y8
G1 F3600 E7.61923
G1 F2400 X96.244 Y94.455 E7.66894
G1 X101.283 Y90.181 E7.99859
G1 X105.11 Y86.51 E8.26316
G1 X108.763 Y82.584 E8.5307
G1 X111.26 Y79.642 E8.72322
G1 X111.734 Y79.145 E8.75748
G1 X112.263 Y78.706 E8.79178
G1 X112.839 Y78.332 E8.82604
G1 X113.454 Y78.028 E8.86027
G1 X114.101 Y77.797 E8.89454
G1 X114.77 Y77.642 E8.9288
G1 X115.76 Y77.559 E8.97837
G1 X121.938 Y77.56 E9.28659
G1 X122.624 Y77.6 E9.32087
G1 X123.3 Y77.72 E9.35512
G1 X123.958 Y77.917 E9.38939
G1 X124.588 Y78.189 E9.42363
G1 X125.183 Y78.533 E9.45791
G1 X125.733 Y78.943 E9.49214
G1 X126.232 Y79.415 E9.52641
G1 X126.673 Y79.942 E9.56069
G1 X127.05 Y80.516 E9.59495
G1 X127.357 Y81.13 E9.6292
G1 X127.591 Y81.775 E9.66343
G1 X127.749 Y82.444 E9.69773
G1 X127.828 Y83.126 E9.73198
G1 X127.826 Y83.813 E9.76625
G1 X127.714 Y84.657 E9.80873
G1 X127.336 Y86.482 E9.90171
G1 X126.431 Y91.792 E10.17045
G1 X125.837 Y97.079 E10.43588
G1 X125.541 Y102.398 E10.70166
G1 X125.547 Y107.721 E10.96722
G1 X125.853 Y113.018 E11.23193
G1 X126.46 Y118.308 E11.49758
G1 X127.739 Y125.368 E11.85554
G1 X127.822 Y126.05 E11.88982
G1 X127.826 Y126.737 E11.92409
G1 X127.749 Y127.419 E11.95833
G1 X127.593 Y128.088 E11.9926
G1 X127.361 Y128.734 E12.02685
G1 X127.056 Y129.349 E12.0611
G1 X126.68 Y129.924 E12.09537
G1 X126.241 Y130.452 E12.12963
G1 X125.743 Y130.925 E12.1639
G1 X125.194 Y131.337 E12.19814
G1 X124.601 Y131.683 E12.23239
G1 X123.971 Y131.957 E12.26667
G1 X123.314 Y132.156 E12.30092
G1 X122.638 Y132.278 E12.33519
G1 X122.049 Y132.319 E12.36464
G1 X115.869 Y132.439 E12.67302
G1 X115.182 Y132.412 E12.70732
G1 X114.504 Y132.306 E12.74156
G1 X113.842 Y132.122 E12.77584
G1 X113.207 Y131.862 E12.81007
G1 X112.606 Y131.53 E12.84433
G1 X112.047 Y131.13 E12.87862
G1 X111.539 Y130.668 E12.91288
G1 X111.249 Y130.35 E12.93435
G1 X108.338 Y126.908 E13.15925
G1 X104.641 Y122.959 E13.42913
G1 X102.788 Y121.141 E13.55864
G1 X100.863 Y119.357 E13.68958
G1 X96.251 Y115.451 E13.99111
G1 X95.753 Y114.978 E14.02537
G1 X95.315 Y114.449 E14.05964
G1 X94.94 Y113.874 E14.09388
G1 X94.635 Y113.259 E14.12813
G1 X94.403 Y112.612 E14.16242
G1 X94.248 Y111.943 E14.19669
G1 X94.164 Y110.951 E14.24635
G1 X94.16 Y98.957 E14.84474
G1 X94.2 Y98.271 E14.87902
G1 X94.319 Y97.595 E14.91326
G1 X94.516 Y96.937 E14.94753
G1 X94.788 Y96.307 E14.98177
G1 X95.131 Y95.712 E15.01603
G1 X95.223 Y95.589 E15.02369
G0 F2160 X95.541 Y95.161
M204 S3000
M205 X10 Y10
G0 F6000 X96.135 Y95.393
M204 S1800
M205 X8 Y8
G1 F3600 E15.05029
G1 F2400 X96.632 Y94.913 E15.08476
G1 X101.679 Y90.632 E15.41493
G1 X105.538 Y86.931 E15.68169
G1 X109.216 Y82.979 E15.95103
G1 X111.718 Y80.03 E16.14398
G1 X112.169 Y79.56 E16.17648
G1 X112.674 Y79.15 E16.20893
G1 X113.225 Y78.804 E16.24139
G1 X113.815 Y78.529 E16.27386
G1 X114.434 Y78.327 E16.30635
G1 X115.073 Y78.204 E16.33881
G1 X115.76 Y78.159 E16.37316
G1 X121.938 Y78.16 E16.68138
G1 X122.587 Y78.2 E16.71382
G1 X123.227 Y78.319 E16.7463
G1 X123.848 Y78.516 E16.7788
G1 X124.439 Y78.788 E16.81126
G1 X124.993 Y79.13 E16.84374
G1 X125.501 Y79.537 E16.87622
G1 X125.955 Y80.003 E16.90868
G1 X126.348 Y80.522 E16.94116
G1 X126.675 Y81.085 E16.97364
G1 X126.93 Y81.683 E17.00607
G1 X127.11 Y82.309 E17.03857
G1 X127.213 Y82.951 E17.07101
G1 X127.235 Y83.602 E17.10351
G1 X127.127 Y84.535 E17.15036
G1 X126.747 Y86.371 E17.2439
G1 X125.837 Y91.711 E17.51416
G1 X125.239 Y97.033 E17.78134
G1 X124.941 Y102.382 E18.04862
G1 X124.947 Y107.738 E18.31583
G1 X125.256 Y113.087 E18.58314
G1 X125.863 Y118.376 E18.84874
G1 X127.149 Y125.475 E19.20868
G1 X127.226 Y126.121 E19.24113
G1 X127.222 Y126.772 E19.27361
G1 X127.139 Y127.418 E19.30611
G1 X126.978 Y128.048 E19.33855
G1 X126.74 Y128.654 E19.37103
G1 X126.43 Y129.226 E19.40349
G1 X126.052 Y129.756 E19.43597
G1 X125.612 Y130.236 E19.46845
G1 X125.117 Y130.658 E19.5009
G1 X124.573 Y131.016 E19.53339
G1 X123.99 Y131.305 E19.56586
G1 X123.376 Y131.52 E19.59831
G1 X122.74 Y131.658 E19.63078
G1 X122.037 Y131.719 E19.66599
G1 X115.857 Y131.839 E19.97437
G1 X115.207 Y131.812 E20.00682
G1 X114.565 Y131.705 E20.03929
G1 X113.941 Y131.52 E20.07177
G1 X113.344 Y131.26 E20.10425
G1 X112.783 Y130.929 E20.13675
G1 X112.268 Y130.532 E20.16919
G1 X111.707 Y129.963 E20.20906
G1 X108.773 Y126.494 E20.43573
G1 X105.086 Y122.557 E20.70483
G1 X103.192 Y120.697 E20.83727
G1 X101.258 Y118.905 E20.96881
G1 X96.639 Y114.993 E21.27079
G1 X96.169 Y114.543 E21.30325
G1 X95.758 Y114.038 E21.33574
G1 X95.411 Y113.487 E21.36822
G1 X95.135 Y112.898 E21.40068
G1 X94.934 Y112.279 E21.43315
G1 X94.809 Y111.64 E21.46563
G1 X94.764 Y110.951 E21.50008
G1 X94.76 Y98.957 E22.09846
G1 X94.8 Y98.307 E22.13095
G1 X94.919 Y97.667 E22.16343
G1 X95.115 Y97.047 E22.19587
G1 X95.387 Y96.455 E22.22837
G1 X95.728 Y95.901 E22.26083
G1 X95.802 Y95.809 E22.26672
G0 F2160 X96.135 Y95.393
M204 S3000
M205 X10 Y10
G1 F3600 E16.26672
G0 F6000 X104.732 Y98.29
G0 X105.419 Y100.065
G0 X114.822 Y87.522
G0 X118.223 Y86.95
M204 S1800
M205 X8 Y8
;TYPE:WALL-INNER
G1 F3600 E22.29331
G1 F1500 X115.79 Y86.95 E22.41469
G1 X115.789 Y86.95 E22.41474
G1 X115.219 Y86.95 E22.44318
G1 X115.544 Y86.481 E22.45904
G1 X116.605 Y84.95 E22.55197
G1 X118.85 Y84.95 E22.66397
G1 X118.851 Y84.95 E22.66402
G1 X119.365 Y84.95 E22.68966
G1 X119.11 Y85.397 E22.70424
G1 X118.223 Y86.95 E22.79346
M204 S3000
M205 X10 Y10
G0 F6000 X118.571 Y87.55
M204 S1800
M205 X8 Y8
G1 F1500 X114.85 Y87.55 E22.9791
G1 X114.85 Y89.82 E23.09236
G1 X111.147 Y93.094 E23.33895
G1 X111.147 Y117.006 E24.53193
G1 X114.85 Y120.28 E24.77852
G1 X114.85 Y122.35 E24.8818
G1 X118.571 Y122.35 E25.06744
G1 X120.144 Y125.102 E25.22558
G1 X120.399 Y125.55 E25.2513
G1 X119.884 Y125.55 E25.26589
G1 X119.883 Y125.55 E25.26594
G1 X116.152 Y125.55 E25.45208
G1 X105.41 Y110.05 E26.39293
G1 X100.95 Y110.05 E26.61545
G1 X100.95 Y99.85 E27.12433
G1 X104.784 Y99.85 E27.3156
G1 X105.413 Y100.046 E27.34847
G1 X116.291 Y84.35 E28.30123
G1 X119.883 Y84.35 E28.48043
G1 X119.884 Y84.35 E28.48048
G1 X120.399 Y84.35 E28.50618
G1 X120.144 Y84.798 E28.52078
G1 X118.571 Y87.55 E28.67893
M204 S3000
M205 X10 Y10
G0 F6000 X118.521 Y87.464
G0 X114.822 Y87.522
G0 X114.25 Y88.348
M204 S1800
M205 X8 Y8
G1 F1500 X114.25 Y89.305 E28.72667
G1 X114.25 Y89.306 E28.72672
G1 X114.25 Y89.55 E28.73889
G1 X113.953 Y89.812 E28.75865
G1 X112.1 Y91.451 E28.88207
G1 X113.509 Y89.418 E28.94421
G1 X113.705 Y89.135 E28.96139
G1 X114.25 Y88.348 E28.98635
M204 S3000
M205 X10 Y10
G0 F6000 X110.547 Y93.691
M204 S1800
M205 X8 Y8
G1 F1500 X110.547 Y94.647 E29.03405
G1 X110.547 Y94.648 E29.0341
G1 X110.547 Y115.452 E30.07201
G1 X110.547 Y115.453 E30.07206
G1 X110.547 Y116.409 E30.11976
G1 X110.002 Y115.623 E30.1447
G1 X105.724 Y109.45 E30.5194
G1 X101.55 Y109.45 E30.72764
G1 X101.55 Y100.45 E31.17666
G1 X104.693 Y100.45 E31.33346
G1 X105.655 Y100.75 E31.38373
G1 X110.002 Y94.477 E31.76449
G1 X110.547 Y93.691 E31.78944
M204 S3000
M205 X10 Y10
G0 F6000 X111.111 Y117.022
G0 X112.099 Y118.648
M204 S1800
M205 X8 Y8
G1 F1500 X113.951 Y120.285 E31.91276
G1 X113.953 Y120.287 E31.9129
G1 X114.25 Y120.55 E31.93269
G1 X114.25 Y120.795 E31.94491
G1 X114.25 Y120.796 E31.94496
G1 X114.25 Y121.752 E31.99266
G1 X113.705 Y120.966 E32.0176
G1 X113.508 Y120.682 E32.03485
G1 X113.506 Y120.68 E32.03499
G1 X112.099 Y118.648 E32.09708
M204 S3000
M205 X10 Y10
G0 F6000 X114.822 Y122.378
G0 X118.223 Y122.95
M204 S1800
M205 X8 Y8
G1 F1500 X119.11 Y124.503 E32.1863
G1 X119.365 Y124.95 E32.21198
G1 X118.851 Y124.95 E32.22653
G1 X118.85 Y124.95 E32.22658
G1 X116.466 Y124.95 E32.34552
G1 X115.405 Y123.419 E32.43845
G1 X115.08 Y122.95 E32.46692
G1 X115.65 Y122.95 E32.48276
G1 X115.651 Y122.95 E32.48281
G1 X118.033 Y122.95 E32.60165
G0 F1350 X118.223 Y122.95
M204 S3000
M205 X10 Y10
G0 F6000 X115.422 Y121.778
G0 X111.711 Y116.752
G0 X111.711 Y93.348
G0 X115.422 Y88.122
G0 X118.278 Y88.122
G0 X118.35 Y88.24
G0 X118.25 Y88.15
M204 S1800
M205 X8 Y8
;TYPE:WALL-OUTER
G1 F3600 E32.61113
G1 F1500 X115.45 Y88.15 E32.75082
G1 X115.45 Y90.089 E32.84756
G1 X111.747 Y93.364 E33.09419
G1 X111.747 Y116.736 E34.26022
G1 X115.45 Y120.011 E34.50685
G1 X115.45 Y121.75 E34.59361
G1 X118.25 Y121.75 E34.7333
G1 X118.25 Y120.579 E34.79173
G1 X118.754 Y121.461 E34.81515
G1 X121.178 Y125.702 E35.05886
G1 X121.433 Y126.15 E35.08458
G1 X120.918 Y126.15 E35.09917
G1 X120.917 Y126.15 E35.09922
G1 X115.838 Y126.15 E35.35261
G1 X105.096 Y110.65 E36.29346
G1 X100.35 Y110.65 E36.53024
G1 X100.35 Y99.25 E37.09899
G1 X104.875 Y99.25 E37.32474
G1 X105.171 Y99.342 E37.34021
G1 X115.977 Y83.75 E38.28665
G1 X120.917 Y83.75 E38.53311
G1 X120.918 Y83.75 E38.53316
G1 X121.433 Y83.75 E38.55885
G1 X121.178 Y84.198 E38.57346
G1 X118.755 Y88.437 E38.81705
G1 X118.25 Y89.321 E38.86784
G1 X118.25 Y88.15 E38.89899
M204 S3000
M205 X10 Y10
G0 F6000 X118.05 Y88.15
G0 X118.05 Y87.49
G0 X117.879 Y86.36
M204 S1800
M205 X8 Y8
;TYPE:SKIN
G1 F1500 X116.346 Y86.36 E38.97547
G1 X116.914 Y85.54 E39.02524
G1 X118.348 Y85.54 E39.09678
G1 X118.002 Y86.144 E39.13151
G0 F1350 X117.879 Y86.36
M204 S3000
M205 X10 Y10
G0 F6000 X117.475 Y86.08
M204 S1800
M205 X8 Y8
G1 F3600 E39.14393
G1 F1500 X117.215 Y85.82 E39.16228
M204 S3000
M205 X10 Y10
G0 F6000 X114.822 Y87.522
G0 X111.111 Y93.078
G0 X109.957 Y95.578
M204 S1800
M205 X8 Y8
G1 F1500 X109.957 Y114.522 E40.1074
G1 X106.033 Y108.86 E40.45108
G1 X102.14 Y108.86 E40.64531
G1 X102.14 Y101.04 E41.03545
G1 X104.605 Y101.04 E41.15843
G1 X105.893 Y101.442 E41.22574
G1 X109.654 Y96.016 E41.55512
G0 F1350 X109.957 Y95.578
M204 S3000
M205 X10 Y10
G0 F6000 X109.482 Y96.754
M204 S1800
M205 X8 Y8
G1 F3600 E41.58171
G1 F1500 X109.677 Y96.949 E41.59547
M204 S3000
M205 X10 Y10
G0 F6000 X109.134 Y97.254
M204 S1800
M205 X8 Y8
G1 F1500 X109.677 Y97.797 E41.63378
M204 S3000
M205 X10 Y10
G0 F6000 X109.677 Y98.646
M204 S1800
M205 X8 Y8
G1 F1500 X108.786 Y97.756 E41.69661
M204 S3000
M205 X10 Y10
G0 F6000 X108.439 Y98.257
M204 S1800
M205 X8 Y8
G1 F1500 X109.677 Y99.494 E41.78392
M204 S3000
M205 X10 Y10
G0 F6000 X109.677 Y100.343
M204 S1800
M205 X8 Y8
G1 F1500 X108.092 Y98.758 E41.89575
M204 S3000
M205 X10 Y10
G0 F6000 X107.744 Y99.259
M204 S1800
M205 X8 Y8
G1 F1500 X109.677 Y101.191 E42.0321
M204 S3000
M205 X10 Y10
G0 F6000 X109.677 Y102.04
M204 S1800
M205 X8 Y8
G1 F1500 X107.397 Y99.76 E42.19297
M204 S3000
M205 X10 Y10
G0 F6000 X107.05 Y100.262
M204 S1800
M205 X8 Y8
G1 F1500 X109.677 Y102.888 E42.37828
M204 S3000
M205 X10 Y10
G0 F6000 X109.677 Y103.737
M204 S1800
M205 X8 Y8
G1 F1500 X106.703 Y100.763 E42.58811
M204 S3000
M205 X10 Y10
G0 F6000 X106.355 Y101.264
M204 S1800
M205 X8 Y8
G1 F1500 X109.677 Y104.586 E42.8225
M204 S3000
M205 X10 Y10
G0 F6000 X109.677 Y105.434
M204 S1800
M205 X8 Y8
G1 F1500 X106.008 Y101.765 E43.08136
G1 X105.938 Y101.695
M204 S3000
M205 X10 Y10
G0 F6000 X104.783 Y101.389
M204 S1800
M205 X8 Y8
G1 F1500 X109.677 Y106.283 E43.42666
M204 S3000
M205 X10 Y10
G0 F6000 X109.677 Y107.131
M204 S1800
M205 X8 Y8
G1 F1500 X103.865 Y101.319 E43.83673
M204 S3000
M205 X10 Y10
G0 F6000 X103.016 Y101.319
M204 S1800
M205 X8 Y8
G1 F1500 X109.677 Y107.98 E44.3067
M204 S3000
M205 X10 Y10
G0 F6000 X109.677 Y108.828
M204 S1800
M205 X8 Y8
G1 F1500 X102.418 Y101.57 E44.81883
M204 S3000
M205 X10 Y10
G0 F6000 X102.418 Y102.418
M204 S1800
M205 X8 Y8
G1 F1500 X109.677 Y109.677 E45.33099
M204 S3000
M205 X10 Y10
G0 F6000 X109.677 Y110.525
M204 S1800
M205 X8 Y8
G1 F1500 X102.418 Y103.267 E45.84311
M204 S3000
M205 X10 Y10
G0 F6000 X102.418 Y104.115
M204 S1800
M205 X8 Y8
G1 F1500 X109.677 Y111.374 E46.35528
M204 S3000
M205 X10 Y10
G0 F6000 X109.677 Y112.222
M204 S1800
M205 X8 Y8
G1 F1500 X106.508 Y109.054 E46.57883
M204 S3000
M205 X10 Y10
G0 F6000 X106.033 Y108.579
M204 S1800
M205 X8 Y8
G1 F1500 X102.419 Y104.965 E46.83382
M204 S3000
M205 X10 Y10
G0 F6000 X102.419 Y105.813
M204 S1800
M205 X8 Y8
G1 F1500 X105.184 Y108.579 E47.02894
M204 S3000
M205 X10 Y10
G0 F6000 X104.336 Y108.579
M204 S1800
M205 X8 Y8
G1 F1500 X102.419 Y106.662 E47.16419
M204 S3000
M205 X10 Y10
G0 F6000 X102.419 Y107.51
M204 S1800
M205 X8 Y8
G1 F1500 X103.487 Y108.579 E47.23958
M204 S3000
M205 X10 Y10
G0 F6000 X102.639 Y108.579
M204 S1800
M205 X8 Y8
G1 F1500 X102.419 Y108.359 E47.2551
M204 S3000
M205 X10 Y10
G0 F6000 X104.857 Y109.7
G0 X108.424 Y111.819
M204 S1800
M205 X8 Y8
G1 F1500 X109.677 Y113.071 E47.34348
G1 X109.747 Y113.141
M204 S3000
M205 X10 Y10
G0 F6000 X111.111 Y117.022
G0 X114.822 Y122.378
G0 X116.207 Y123.54
M204 S1800
M205 X8 Y8
G1 F1500 X117.879 Y123.54 E47.42689
G1 X118.348 Y124.36 E47.47402
G1 X116.775 Y124.36 E47.5525
G1 X116.355 Y123.753 E47.58932
G0 F1350 X116.207 Y123.54
M204 S3000
M205 X10 Y10
G0 F6000 X117.031 Y123.819
M204 S1800
M205 X8 Y8
G1 F3600 E47.6023
G1 F1500 X117.29 Y124.078 E47.62057
M204 S3000
M205 X10 Y10
G0 F6000 X114.822 Y122.378
G0 X113.955 Y120.743
M204 S1800
M205 X8 Y8
;TYPE:SKIN
G1 F1500 X113.815 Y120.604 E47.62385
