;FLAVOR:Marlin
;TIME:8389
;Filament used: 8.06592m
;Layer height: 0.2
;Generated with Cura_SteamEngine 3.4.1
M190 S60
M104 S200
M109 S200
M82 ;absolute extrusion mode
G21 ;metric values
G90 ;absolute positioning
M82 ;set extruder to absolute mode
M107 ;start with the fan off
G28 X0 Y0 ;move X/Y to min endstops
G28 Z0 ;move Z to min endstops
G1 Z15.0 F200 ;move the platform down 15mm
G92 E0 ;zero the extruded length
G1 F200 E3 ;extrude 3mm of feed stock
G92 E0 ;zero the extruded length again
G1 F200
M117 Printing...
G5
G92 E0
G1 F3600 E-6
;LAYER_COUNT:196
;LAYER:0
M106 S255
M204 S3000
M205 X10 Y10
G0 F6000 X79.017 Y31.982 Z0.2
M204 S1800
M205 X8 Y8
;TYPE:SKIRT
G1 F3600 E0
G1 F2400 X79.29 Y31.315 E0.03596
G1 X79.635 Y30.682 E0.07192
G1 X80.048 Y30.091 E0.10789
G1 X80.524 Y29.55 E0.14384
G1 X80.973 Y29.134 E0.17438
G1 X85.985 Y24.913 E0.50129
G1 X89.84 Y21.248 E0.76667
G1 X91.607 Y19.417 E0.89362
G1 X96.062 Y14.332 E1.2309
G1 X96.566 Y13.817 E1.26685
G1 X97.125 Y13.361 E1.30284
G1 X97.73 Y12.969 E1.3388
G1 X98.375 Y12.647 E1.37477
G1 X99.052 Y12.399 E1.41074
G1 X99.752 Y12.227 E1.4467
G1 X100.466 Y12.133 E1.48263
G1 X100.946 Y12.115 E1.5066
G1 X107.136 Y12.11 E1.81542
G1 X107.856 Y12.149 E1.85139
G1 X108.566 Y12.268 E1.88731
G1 X109.26 Y12.465 E1.9233
G1 X109.927 Y12.737 E1.95924
G1 X110.56 Y13.082 E1.9952
G1 X111.151 Y13.495 E2.03117
G1 X111.693 Y13.97 E2.06713
G1 X112.179 Y14.503 E2.10311
G1 X112.603 Y15.086 E2.13908
G1 X112.959 Y15.712 E2.17501
G1 X113.244 Y16.374 E2.21097
G1 X113.522 Y17.37 E2.26256
G1 X113.875 Y19.188 E2.35495
G1 X115.088 Y24.428 E2.62329
G1 X115.779 Y26.925 E2.75255
G1 X117.415 Y31.987 E3.01795
G1 X119.325 Y36.922 E3.28196
G1 X121.508 Y41.737 E3.54571
G1 X123.962 Y46.426 E3.80975
G1 X126.697 Y51.001 E4.07567
G1 X128.118 Y53.165 E4.20483
G1 X130.157 Y56.065 E4.3817
G1 X130.539 Y56.676 E4.41765
G1 X130.85 Y57.327 E4.45364
G1 X131.087 Y58.007 E4.48957
G1 X131.247 Y58.71 E4.52554
G1 X131.329 Y59.426 E4.56149
G1 X131.34 Y59.803 E4.58031
G1 X131.34 Y71.791 E5.17839
G1 X131.3 Y72.511 E5.21437
G1 X131.237 Y72.945 E5.23625
G1 X130.651 Y76.192 E5.40086
G1 X129.93 Y81.462 E5.66623
G1 X129.509 Y86.754 E5.93108
G1 X129.388 Y92.029 E6.19432
G1 X129.566 Y97.3 E6.45744
G1 X130.043 Y102.562 E6.72104
G1 X131.064 Y109.206 E7.0564
G1 X131.139 Y110.193 E7.10579
G1 X131.14 Y122.19 E7.70432
G1 X131.1 Y122.91 E7.7403
G1 X131.035 Y123.354 E7.76268
G1 X130.174 Y128.09 E8.00284
G1 X129.5 Y133.362 E8.268
G1 X129.125 Y138.646 E8.53228
G1 X129.051 Y143.918 E8.79533
G1 X129.275 Y149.207 E9.05943
G1 X129.803 Y154.522 E9.32591
G1 X130.085 Y156.612 E9.43112
G1 X130.143 Y157.484 E9.47472
G1 X130.14 Y163.598 E9.77975
G1 X130.1 Y164.318 E9.81573
G1 X129.98 Y165.029 E9.8517
G1 X129.782 Y165.722 E9.88766
G1 X129.509 Y166.389 E9.92361
G1 X129.163 Y167.022 E9.9596
G1 X128.75 Y167.612 E9.99553
G1 X128.274 Y168.153 E10.03149
G1 X127.807 Y168.583 E10.06316
G1 X126.11 Y170.001 E10.17349
G1 X122.142 Y173.594 E10.44055
G1 X118.432 Y177.357 E10.70419
G1 X114.9 Y181.368 E10.97082
G1 X113.21 Y183.465 E11.10519
G1 X112.727 Y184 E11.14115
G1 X112.188 Y184.479 E11.17712
G1 X111.6 Y184.895 E11.21306
G1 X110.968 Y185.243 E11.24905
G1 X110.303 Y185.519 E11.28497
G1 X109.61 Y185.72 E11.32097
G1 X108.9 Y185.842 E11.35691
G1 X108.151 Y185.886 E11.39434
G1 X96.158 Y185.89 E11.99268
G1 X95.438 Y185.85 E12.02865
G1 X94.728 Y185.731 E12.06457
G1 X94.034 Y185.534 E12.10056
G1 X93.367 Y185.261 E12.13652
G1 X92.734 Y184.916 E12.17248
G1 X92.143 Y184.503 E12.20846
G1 X91.602 Y184.028 E12.24437
G1 X91.184 Y183.577 E12.27505
G1 X86.963 Y178.565 E12.60196
G1 X83.298 Y174.71 E12.86734
G1 X81.467 Y172.943 E12.99429
G1 X76.383 Y168.489 E13.3315
G1 X75.868 Y167.985 E13.36745
G1 X75.412 Y167.426 E13.40344
G1 X75.02 Y166.821 E13.4394
G1 X74.698 Y166.176 E13.47537
G1 X74.45 Y165.499 E13.51134
G1 X74.278 Y164.799 E13.5473
G1 X74.184 Y164.085 E13.58323
G1 X74.166 Y163.606 E13.60715
G1 X74.16 Y157.416 E13.91597
G1 X74.199 Y156.697 E13.95189
G1 X74.318 Y155.986 E13.98786
G1 X74.426 Y155.571 E14.00925
G1 X75.548 Y151.768 E14.20707
G1 X76.828 Y146.554 E14.47492
G1 X77.347 Y143.977 E14.60607
G1 X77.779 Y141.448 E14.73407
G1 X78.465 Y136.099 E15.00312
G1 X78.682 Y133.562 E15.13015
G1 X78.754 Y132.999 E15.15847
G1 X79.345 Y129.607 E15.33024
G1 X80.02 Y124.323 E15.59601
G1 X80.394 Y119.041 E15.86019
G1 X80.467 Y113.769 E16.12323
G1 X80.242 Y108.48 E16.38734
G1 X79.719 Y103.226 E16.65076
G1 X78.742 Y97.127 E16.95892
G1 X78.66 Y96.098 E17.01042
G1 X78.661 Y84.1 E17.609
G1 X78.701 Y83.381 E17.64493
G1 X78.757 Y82.986 E17.66483
G1 X79.344 Y79.611 E17.83574
G1 X80.02 Y74.323 E18.1017
G1 X80.394 Y69.041 E18.36588
G1 X80.467 Y63.769 E18.62893
G1 X80.242 Y58.48 E18.89304
G1 X79.719 Y53.226 E19.15646
G1 X78.742 Y47.127 E19.46462
G1 X78.66 Y46.099 E19.51607
G1 X78.66 Y34.106 E20.1144
G1 X78.7 Y33.386 E20.15038
G1 X78.819 Y32.675 E20.18634
G1 X78.871 Y32.495 E20.19569
G0 F2160 X79.017 Y31.982
M204 S3000
M205 X10 Y10
G0 F6000 X79.616 Y32.086
M204 S1800
M205 X8 Y8
G1 F3600 E20.22228
G1 F2400 X79.889 Y31.456 E20.25654
G1 X80.232 Y30.861 E20.2908
G1 X80.643 Y30.311 E20.32505
G1 X81.359 Y29.593 E20.37564
G1 X86.386 Y25.359 E20.70354
G1 X90.261 Y21.675 E20.97029
G1 X92.045 Y19.826 E21.09848
G1 X96.513 Y14.727 E21.43671
G1 X96.995 Y14.238 E21.47097
G1 X97.531 Y13.808 E21.50525
G1 X98.112 Y13.443 E21.53948
G1 X98.733 Y13.148 E21.57378
G1 X99.383 Y12.927 E21.60803
G1 X100.054 Y12.784 E21.64226
G1 X100.946 Y12.715 E21.6869
G1 X107.136 Y12.71 E21.99572
G1 X107.822 Y12.749 E22.03
G1 X108.498 Y12.868 E22.06424
G1 X109.156 Y13.065 E22.09851
G1 X109.787 Y13.337 E22.13279
G1 X110.382 Y13.68 E22.16705
G1 X110.933 Y14.09 E22.20132
G1 X111.432 Y14.561 E22.23555
G1 X111.874 Y15.087 E22.26983
G1 X112.251 Y15.661 E22.30409
G1 X112.559 Y16.274 E22.33832
G1 X112.794 Y16.92 E22.37261
G1 X112.933 Y17.484 E22.40159
G1 X113.291 Y19.325 E22.49516
G1 X114.508 Y24.583 E22.76442
G1 X115.201 Y27.086 E22.89399
G1 X116.851 Y32.193 E23.16175
G1 X118.771 Y37.155 E23.42719
G1 X120.966 Y41.995 E23.69233
G1 X123.437 Y46.717 E23.95822
G1 X126.18 Y51.305 E24.2249
G1 X127.635 Y53.521 E24.35716
G1 X129.666 Y56.41 E24.53335
G1 X130.028 Y56.993 E24.56758
G1 X130.319 Y57.615 E24.60184
G1 X130.537 Y58.267 E24.63614
G1 X130.676 Y58.939 E24.67038
G1 X130.74 Y59.803 E24.7136
G1 X130.74 Y71.791 E25.31169
G1 X130.7 Y72.477 E25.34597
G1 X130.646 Y72.838 E25.36418
G1 X130.063 Y76.072 E25.52813
G1 X129.33 Y81.422 E25.79753
G1 X128.91 Y86.71 E26.06218
G1 X128.788 Y92.018 E26.32707
G1 X128.969 Y97.357 E26.59359
G1 X129.446 Y102.629 E26.85768
G1 X130.471 Y109.298 E27.19431
G1 X130.539 Y110.194 E27.23914
G1 X130.54 Y122.191 E27.83767
G1 X130.5 Y122.876 E27.8719
G1 X130.445 Y123.247 E27.89061
G1 X129.577 Y128.021 E28.13269
G1 X128.902 Y133.297 E28.39806
G1 X128.526 Y138.613 E28.66394
G1 X128.451 Y143.918 E28.92863
G1 X128.677 Y149.255 E29.19514
G1 X129.208 Y154.605 E29.46336
G1 X129.49 Y156.692 E29.56843
G1 X129.543 Y157.484 E29.60803
G1 X129.54 Y163.598 E29.91306
G1 X129.5 Y164.283 E29.94729
G1 X129.38 Y164.96 E29.98159
G1 X129.183 Y165.617 E30.01581
G1 X128.91 Y166.248 E30.05011
G1 X128.566 Y166.842 E30.08436
G1 X128.155 Y167.393 E30.11865
G1 X127.684 Y167.891 E30.15285
G1 X127.423 Y168.123 E30.17027
G1 X125.694 Y169.567 E30.28266
G1 X121.736 Y173.152 E30.54908
G1 X117.988 Y176.954 E30.81544
G1 X114.439 Y180.983 E31.08331
G1 X112.743 Y183.088 E31.21817
G1 X112.282 Y183.597 E31.25243
G1 X111.764 Y184.049 E31.28673
G1 X111.198 Y184.437 E31.32097
G1 X110.59 Y184.757 E31.35525
G1 X109.95 Y185.004 E31.38947
G1 X109.285 Y185.176 E31.42374
G1 X108.604 Y185.268 E31.45802
G1 X108.151 Y185.286 E31.48064
G1 X96.158 Y185.29 E32.07897
G1 X95.472 Y185.25 E32.11326
G1 X94.796 Y185.131 E32.1475
G1 X94.138 Y184.934 E32.18177
G1 X93.508 Y184.662 E32.216
G1 X92.913 Y184.319 E32.25027
G1 X92.362 Y183.909 E32.28453
G1 X91.643 Y183.191 E32.33523
G1 X87.409 Y178.164 E32.66313
G1 X83.725 Y174.289 E32.92988
G1 X81.876 Y172.505 E33.05806
G1 X76.778 Y168.038 E33.39623
G1 X76.289 Y167.556 E33.43048
G1 X75.859 Y167.02 E33.46477
G1 X75.494 Y166.439 E33.499
G1 X75.199 Y165.818 E33.5333
G1 X74.978 Y165.168 E33.56755
G1 X74.835 Y164.497 E33.60178
G1 X74.766 Y163.606 E33.64636
G1 X74.76 Y157.416 E33.95518
G1 X74.799 Y156.73 E33.98946
G1 X75.001 Y155.741 E34.03982
G1 X76.126 Y151.926 E34.23826
G1 X77.416 Y146.676 E34.50797
G1 X77.935 Y144.097 E34.63922
G1 X78.373 Y141.531 E34.76909
G1 X79.06 Y136.179 E35.03829
G1 X79.279 Y133.613 E35.16677
G1 X79.346 Y133.102 E35.19249
G1 X79.939 Y129.698 E35.36487
G1 X80.618 Y124.387 E35.63199
G1 X80.993 Y119.074 E35.89772
G1 X81.067 Y113.769 E36.16241
G1 X80.84 Y108.432 E36.42892
G1 X80.315 Y103.155 E36.69349
G1 X79.334 Y97.032 E37.00286
G1 X79.26 Y96.099 E37.04956
G1 X79.261 Y84.101 E37.64814
G1 X79.348 Y83.089 E37.69881
G1 X79.941 Y79.681 E37.87139
G1 X80.618 Y74.387 E38.13766
G1 X80.993 Y69.074 E38.40339
G1 X81.067 Y63.769 E38.66808
G1 X80.84 Y58.432 E38.93459
G1 X80.315 Y53.155 E39.19916
G1 X79.334 Y47.032 E39.50853
G1 X79.26 Y46.099 E39.55523
G1 X79.26 Y34.106 E40.15356
G1 X79.3 Y33.42 E40.18784
G1 X79.419 Y32.744 E40.22209
G1 X79.463 Y32.597 E40.22974
G0 F2160 X79.616 Y32.086
M204 S3000
M205 X10 Y10
G0 F6000 X80.216 Y32.196
M204 S1800
M205 X8 Y8
G1 F3600 E40.25633
G1 F2400 X80.487 Y31.605 E40.28877
G1 X80.829 Y31.051 E40.32125
G1 X81.236 Y30.543 E40.35373
G1 X81.746 Y30.052 E40.38905
G1 X86.789 Y25.805 E40.71798
G1 X90.682 Y22.103 E40.986
G1 X92.485 Y20.235 E41.11552
G1 X96.965 Y15.122 E41.45467
G1 X97.423 Y14.66 E41.48713
G1 X97.934 Y14.257 E41.5196
G1 X98.491 Y13.921 E41.55205
G1 X99.085 Y13.654 E41.58454
G1 X99.707 Y13.463 E41.61701
G1 X100.348 Y13.349 E41.64949
G1 X100.947 Y13.315 E41.67942
G1 X107.137 Y13.31 E41.98824
G1 X107.786 Y13.349 E42.02068
G1 X108.426 Y13.468 E42.05315
G1 X109.047 Y13.665 E42.08566
G1 X109.639 Y13.935 E42.11812
G1 X110.193 Y14.277 E42.1506
G1 X110.701 Y14.683 E42.18304
G1 X111.155 Y15.149 E42.2155
G1 X111.549 Y15.668 E42.24801
G1 X111.877 Y16.23 E42.28048
G1 X112.133 Y16.828 E42.31293
G1 X112.344 Y17.599 E42.35281
G1 X112.706 Y19.463 E42.44754
G1 X113.921 Y24.711 E42.71629
G1 X114.627 Y27.263 E42.84839
G1 X116.282 Y32.383 E43.11684
G1 X118.218 Y37.387 E43.38453
G1 X120.428 Y42.26 E43.65148
G1 X122.92 Y47.021 E43.91957
G1 X125.679 Y51.638 E44.18791
G1 X127.112 Y53.82 E44.31815
G1 X129.176 Y56.755 E44.49716
G1 X129.517 Y57.309 E44.52961
G1 X129.787 Y57.901 E44.56207
G1 X129.983 Y58.522 E44.59456
G1 X130.101 Y59.162 E44.62703
G1 X130.14 Y59.803 E44.65907
G1 X130.14 Y71.791 E45.25715
G1 X130.056 Y72.732 E45.30429
G1 X129.466 Y76.002 E45.47006
G1 X128.735 Y81.346 E45.73916
G1 X128.312 Y86.667 E46.00546
G1 X128.188 Y92.042 E46.27369
G1 X128.369 Y97.396 E46.54096
G1 X128.85 Y102.71 E46.80716
G1 X129.877 Y109.389 E47.14429
G1 X129.939 Y110.194 E47.18457
G1 X129.94 Y122.191 E47.7831
G1 X129.854 Y123.139 E47.83059
G1 X128.986 Y127.911 E48.07258
G1 X128.306 Y133.232 E48.3402
G1 X127.926 Y138.597 E48.60853
G1 X127.85 Y143.935 E48.87487
G1 X128.078 Y149.287 E49.14213
G1 X128.614 Y154.691 E49.41306
G1 X128.895 Y156.773 E49.51787
G1 X128.943 Y157.484 E49.55342
G1 X128.94 Y163.598 E49.85845
G1 X128.9 Y164.247 E49.89089
G1 X128.78 Y164.887 E49.92338
G1 X128.583 Y165.507 E49.95583
G1 X128.311 Y166.099 E49.98834
G1 X127.969 Y166.652 E50.02078
G1 X127.562 Y167.16 E50.05325
G1 X127.038 Y167.663 E50.08949
G1 X125.318 Y169.1 E50.20131
G1 X121.303 Y172.736 E50.47155
G1 X117.56 Y176.533 E50.73755
G1 X113.979 Y180.599 E51.00786
G1 X112.276 Y182.712 E51.14325
G1 X111.837 Y183.192 E51.17571
G1 X111.343 Y183.616 E51.20819
G1 X110.8 Y183.975 E51.24066
G1 X110.218 Y184.266 E51.27313
G1 X109.604 Y184.482 E51.3056
G1 X108.968 Y184.622 E51.33809
G1 X108.151 Y184.686 E51.37897
G1 X96.158 Y184.69 E51.97731
G1 X95.508 Y184.65 E52.0098
G1 X94.868 Y184.531 E52.04227
G1 X94.248 Y184.335 E52.07471
G1 X93.656 Y184.063 E52.10722
G1 X93.102 Y183.722 E52.13967
G1 X92.594 Y183.315 E52.17215
G1 X92.102 Y182.804 E52.20754
G1 X87.855 Y177.761 E52.53647
G1 X84.153 Y173.868 E52.80449
G1 X82.285 Y172.065 E52.93401
G1 X77.173 Y167.586 E53.2731
G1 X76.711 Y167.128 E53.30555
G1 X76.308 Y166.617 E53.33802
G1 X75.972 Y166.06 E53.37047
G1 X75.705 Y165.466 E53.40296
G1 X75.514 Y164.844 E53.43543
G1 X75.4 Y164.203 E53.46791
G1 X75.366 Y163.605 E53.49779
G1 X75.36 Y157.415 E53.80661
G1 X75.399 Y156.765 E53.8391
G1 X75.576 Y155.911 E53.88261
G1 X76.709 Y152.068 E54.0825
G1 X77.999 Y146.819 E54.35216
G1 X78.53 Y144.181 E54.48641
G1 X78.964 Y141.636 E54.61522
G1 X79.657 Y136.234 E54.88693
G1 X79.877 Y133.664 E55.01562
G1 X79.937 Y133.205 E55.03871
G1 X80.532 Y129.789 E55.2117
G1 X81.214 Y124.452 E55.48013
G1 X81.593 Y119.09 E55.74831
G1 X81.668 Y113.752 E56.01465
G1 X81.44 Y108.4 E56.28191
G1 X80.909 Y103.067 E56.54929
G1 X79.927 Y96.937 E56.85901
G1 X79.86 Y96.099 E56.90095
G1 X79.861 Y84.101 E57.49954
G1 X79.939 Y83.192 E57.54505
G1 X80.534 Y79.772 E57.71824
G1 X81.214 Y74.452 E57.98582
G1 X81.593 Y69.09 E58.25399
G1 X81.668 Y63.752 E58.52034
G1 X81.44 Y58.4 E58.78759
G1 X80.909 Y53.067 E59.05497
G1 X79.927 Y46.937 E59.3647
G1 X79.86 Y46.099 E59.40664
G1 X79.86 Y34.106 E60.00497
G1 X79.9 Y33.456 E60.03746
G1 X80.019 Y32.817 E60.06989
G1 X80.055 Y32.704 E60.07581
G0 F2160 X80.216 Y32.196
M204 S3000
M205 X10 Y10
G1 F3600 E54.07581
G0 F6000 X89.862 Y33.44
G0 X90.519 Y35.258
G0 X100.022 Y22.672
G0 X103.423 Y22.1
M204 S1800
M205 X8 Y8
;TYPE:WALL-INNER
G1 F3600 E60.1024
G1 F1500 X100.921 Y22.1 E60.22722
G1 X100.92 Y22.1 E60.22727
G1 X100.35 Y22.1 E60.25571
G1 X100.675 Y21.631 E60.27157
G1 X101.736 Y20.1 E60.3645
G1 X104.05 Y20.1 E60.47994
G1 X104.051 Y20.1 E60.47999
G1 X104.565 Y20.1 E60.50564
G1 X104.31 Y20.547 E60.52021
G1 X103.423 Y22.1 E60.60944
M204 S3000
M205 X10 Y10
G0 F6000 X103.771 Y22.7
M204 S1800
M205 X8 Y8
G1 F1500 X100.05 Y22.7 E60.79508
G1 X100.05 Y24.88 E60.90384
G1 X96.247 Y28.244 E61.15715
G1 X96.247 Y52.156 E62.35012
G1 X100.05 Y55.519 E62.6034
G1 X100.05 Y57.5 E62.70223
G1 X103.771 Y57.5 E62.88787
G1 X105.344 Y60.252 E63.04602
G1 X105.599 Y60.7 E63.07173
G1 X105.084 Y60.7 E63.08633
G1 X105.083 Y60.7 E63.08638
G1 X101.422 Y60.7 E63.26902
G1 X90.51 Y44.956 E64.22471
G1 X89.756 Y45.2 E64.26425
G1 X86.05 Y45.2 E64.44914
G1 X86.05 Y35 E64.95802
G1 X89.742 Y35 E65.14222
G1 X90.513 Y35.24 E65.1825
G1 X101.422 Y19.5 E66.13794
G1 X105.083 Y19.5 E66.32059
G1 X105.084 Y19.5 E66.32064
G1 X105.599 Y19.5 E66.34633
G1 X105.344 Y19.948 E66.36094
G1 X103.771 Y22.7 E66.51908
M204 S3000
M205 X10 Y10
G0 F6000 X103.721 Y22.614
G0 X100.022 Y22.672
G0 X99.45 Y23.399
M204 S1800
M205 X8 Y8
G1 F1500 X99.45 Y24.357 E66.56688
G1 X99.45 Y24.61 E66.5795
G1 X99.136 Y24.887 E66.60039
G1 X99.135 Y24.888 E66.60046
G1 X97.28 Y26.529 E66.72402
G1 X98.692 Y24.493 E66.78628
G1 X98.905 Y24.187 E66.80488
G1 X99.45 Y23.399 E66.82986
M204 S3000
M205 X10 Y10
G0 F6000 X95.647 Y28.886
M204 S1800
M205 X8 Y8
G1 F1500 X95.647 Y29.842 E66.87756
G1 X95.647 Y29.843 E66.87761
G1 X95.647 Y50.358 E67.90111
G1 X95.647 Y50.359 E67.90116
G1 X95.647 Y51.315 E67.94885
G1 X95.102 Y50.529 E67.9738
G1 X90.749 Y44.248 E68.35506
G1 X89.661 Y44.6 E68.41211
G1 X86.65 Y44.6 E68.56233
G1 X86.65 Y35.6 E69.01134
G1 X89.651 Y35.6 E69.16106
G1 X90.755 Y35.944 E69.21875
G1 X95.102 Y29.672 E69.59947
G1 X95.647 Y28.886 E69.62441
M204 S3000
M205 X10 Y10
G0 F6000 X96.211 Y52.172
G0 X97.636 Y54.185
M204 S1800
M205 X8 Y8
G1 F1500 X99.45 Y55.789 E69.74522
G1 X99.45 Y56.802 E69.79576
G1 X98.976 Y56.119 E69.81447
G1 X97.636 Y54.185 E69.87055
M204 S3000
M205 X10 Y10
G0 F6000 X100.022 Y57.528
G0 X103.423 Y58.1
M204 S1800
M205 X8 Y8
G1 F1500 X104.31 Y59.653 E69.95978
G1 X104.565 Y60.1 E69.98545
G1 X104.051 Y60.1 E70.00001
G1 X104.05 Y60.1 E70.00006
G1 X101.736 Y60.1 E70.1155
G1 X100.675 Y58.569 E70.20843
G1 X100.35 Y58.1 E70.2369
G1 X100.92 Y58.1 E70.25274
G1 X100.921 Y58.1 E70.25279
G1 X103.238 Y58.1 E70.36839
G0 F1350 X103.423 Y58.1
M204 S3000
M205 X10 Y10
G0 F6000 X100.022 Y57.528
G0 X96.211 Y52.172
G0 X96.211 Y28.228
G0 X100.022 Y22.672
G0 X103.45 Y22.6
G0 X103.45 Y23.3
M204 S1800
M205 X8 Y8
;TYPE:WALL-OUTER
