;FLAVOR:Marlin
;TIME:1587
;Filament used: 1.3794m
;Layer height: 0.2
;Generated with Cura_SteamEngine 3.4.1
M190 S60
M104 S200
M109 S200
M82 ;absolute extrusion mode
G21 ;metric values
G90 ;absolute positioning
M82 ;set extruder to absolute mode
M107 ;start with the fan off
G28 X0 Y0 ;move X/Y to min endstops
G28 Z0 ;move Z to min endstops
G1 Z15.0 F100 ;move the platform down 15mm
G92 E0 ;zero the extruded length
G1 F200 E3 ;extrude 3mm of feed stock
G92 E0 ;zero the extruded length again
G1 F100
M117 Printing...
G5
G92 E0
G1 F3600 E-6
;LAYER_COUNT:196
;LAYER:0
M106 S255
M204 S3000
M205 X10 Y10
G0 F3000 X124.144 Y61.369 Z0.2
M204 S1800
M205 X8 Y8
;TYPE:SKIRT
G1 F3600 E0
G1 F2400 X124.532 Y60.762 E0.03594
G1 X124.985 Y60.201 E0.07192
G1 X125.497 Y59.694 E0.10786
G1 X126.063 Y59.247 E0.14385
G1 X126.674 Y58.865 E0.1798
G1 X127.324 Y58.553 E0.21577
G1 X128.004 Y58.315 E0.25171
G1 X128.707 Y58.154 E0.28769
G1 X129.423 Y58.071 E0.32365
G1 X129.807 Y58.06 E0.34282
G1 X134.791 Y58.06 E0.59147
G1 X135.511 Y58.1 E0.62745
G1 X136.222 Y58.219 E0.66341
G1 X136.915 Y58.417 E0.69937
G1 X137.582 Y58.69 E0.73533
G1 X138.215 Y59.035 E0.77129
G1 X138.806 Y59.448 E0.80726
G1 X139.347 Y59.924 E0.84321
G1 X139.832 Y60.457 E0.87917
G1 X140.256 Y61.04 E0.91513
G1 X140.612 Y61.667 E0.9511
G1 X140.896 Y62.329 E0.98704
G1 X141.106 Y63.019 E1.02302
G1 X141.237 Y63.728 E1.059
G1 X141.291 Y64.561 E1.10064
G1 X141.29 Y69.547 E1.34939
G1 X141.25 Y70.267 E1.38537
G1 X141.13 Y70.978 E1.42134
G1 X140.933 Y71.671 E1.45729
G1 X140.66 Y72.338 E1.49324
G1 X140.314 Y72.971 E1.52923
G1 X139.708 Y73.796 E1.5803
G1 X136.788 Y77.175 E1.80311
G1 X133.51 Y81.374 E2.06887
G1 X130.503 Y85.712 E2.33221
G1 X127.743 Y90.219 E2.59587
G1 X125.233 Y94.889 E2.86038
G1 X122.977 Y99.725 E3.12661
G1 X122.014 Y102.037 E3.25156
G1 X120.165 Y107.076 E3.51935
G1 X118.626 Y112.138 E3.78331
G1 X117.36 Y117.342 E4.05051
G1 X116.869 Y119.826 E4.17683
G1 X116.051 Y125.112 E4.44369
G1 X115.54 Y130.352 E4.70636
G1 X115.325 Y135.655 E4.97114
G1 X115.41 Y140.96 E5.23584
G1 X115.675 Y145.017 E5.43868
G1 X115.682 Y145.738 E5.47465
G1 X115.609 Y146.455 E5.51061
G1 X115.457 Y147.16 E5.54659
G1 X115.228 Y147.843 E5.58253
G1 X114.925 Y148.497 E5.61849
G1 X114.551 Y149.113 E5.65444
G1 X114.112 Y149.685 E5.69042
G1 X113.611 Y150.204 E5.7264
G1 X113.057 Y150.664 E5.76233
G1 X112.455 Y151.06 E5.79828
G1 X111.812 Y151.387 E5.83427
G1 X111.138 Y151.641 E5.8702
G1 X110.439 Y151.819 E5.90619
G1 X109.725 Y151.918 E5.94215
G1 X109.189 Y151.94 E5.96892
G1 X103.006 Y151.94 E6.27739
G1 X102.286 Y151.9 E6.31336
G1 X101.575 Y151.781 E6.34933
G1 X100.882 Y151.583 E6.38529
G1 X100.215 Y151.31 E6.42124
G1 X99.582 Y150.965 E6.45721
G1 X98.991 Y150.552 E6.49318
G1 X98.45 Y150.076 E6.52913
G1 X98.078 Y149.678 E6.55631
G1 X94.816 Y145.885 E6.8059
G1 X91.156 Y142.066 E7.0698
G1 X87.273 Y138.449 E7.33455
G1 X83.061 Y134.948 E7.6078
G1 X82.533 Y134.457 E7.64377
G1 X82.062 Y133.911 E7.67974
G1 X81.655 Y133.316 E7.71571
G1 X81.317 Y132.68 E7.75164
G1 X81.05 Y132.01 E7.78763
G1 X80.86 Y131.315 E7.82357
G1 X80.748 Y130.603 E7.85953
G1 X80.715 Y129.952 E7.89205
G1 X80.71 Y117.962 E8.49023
G1 X80.75 Y117.242 E8.52621
G1 X80.869 Y116.531 E8.56218
G1 X81.066 Y115.838 E8.59812
G1 X81.339 Y115.17 E8.63412
G1 X81.683 Y114.537 E8.67006
G1 X82.096 Y113.947 E8.70599
G1 X82.572 Y113.405 E8.74198
G1 X83.087 Y112.934 E8.7768
G1 X86.002 Y110.542 E8.96493
G1 X90.01 Y106.939 E9.23381
G1 X91.819 Y105.169 E9.36007
G1 X95.503 Y101.244 E9.62863
G1 X98.063 Y98.239 E9.82558
G1 X98.643 Y97.641 E9.86714
G1 X100.85 Y95.638 E10.01584
G1 X104.639 Y91.884 E10.28194
G1 X108.176 Y87.961 E10.54546
G1 X111.495 Y83.831 E10.8098
G1 X114.569 Y79.528 E11.07363
G1 X117.399 Y75.053 E11.33779
G1 X119.963 Y70.44 E11.60109
G1 X122.281 Y65.648 E11.86667
G1 X123.826 Y62.016 E12.06358
G1 X123.909 Y61.847 E12.07297
G0 F2160 X124.144 Y61.369
M204 S3000
M205 X10 Y10
G0 F3000 X124.683 Y61.636
M204 S1800
M205 X8 Y8
G1 F3600 E12.09957
G1 F2400 X125.057 Y61.06 E12.13383
G1 X125.496 Y60.532 E12.16809
G1 X125.993 Y60.058 E12.20235
G1 X126.542 Y59.645 E12.23663
G1 X127.136 Y59.299 E12.27092
G1 X127.765 Y59.025 E12.30515
G1 X128.422 Y58.825 E12.33941
G1 X129.098 Y58.703 E12.37368
G1 X129.807 Y58.66 E12.40912
G1 X134.791 Y58.66 E12.65777
G1 X135.477 Y58.7 E12.69206
G1 X136.153 Y58.819 E12.7263
G1 X136.811 Y59.016 E12.76057
G1 X137.441 Y59.289 E12.79482
G1 X138.036 Y59.632 E12.82909
G1 X138.586 Y60.043 E12.86334
G1 X139.085 Y60.514 E12.89758
G1 X139.527 Y61.041 E12.93189
G1 X139.903 Y61.615 E12.96612
G1 X140.211 Y62.229 E13.0004
G1 X140.445 Y62.874 E13.03463
G1 X140.603 Y63.543 E13.06892
G1 X140.691 Y64.561 E13.1199
G1 X140.69 Y69.547 E13.36865
G1 X140.65 Y70.233 E13.40293
G1 X140.53 Y70.909 E13.43719
G1 X140.333 Y71.567 E13.47145
G1 X140.061 Y72.197 E13.50569
G1 X139.717 Y72.792 E13.53998
G1 X139.254 Y73.403 E13.57822
G1 X136.323 Y76.795 E13.80188
G1 X133.032 Y81.011 E14.06871
G1 X129.999 Y85.385 E14.33426
G1 X127.219 Y89.924 E14.59981
G1 X124.704 Y94.605 E14.86492
G1 X122.43 Y99.479 E15.13325
G1 X121.451 Y101.83 E15.2603
G1 X119.595 Y106.889 E15.52915
G1 X118.048 Y111.979 E15.79456
G1 X116.773 Y117.219 E16.06361
G1 X116.279 Y119.717 E16.19065
G1 X115.456 Y125.032 E16.45897
G1 X114.94 Y130.323 E16.7242
G1 X114.725 Y135.64 E16.98968
G1 X114.811 Y140.989 E17.25658
G1 X115.076 Y145.056 E17.45991
G1 X115.081 Y145.743 E17.49419
G1 X115.006 Y146.425 E17.52842
G1 X114.852 Y147.095 E17.56271
G1 X114.622 Y147.742 E17.59697
G1 X114.317 Y148.357 E17.63122
G1 X113.944 Y148.933 E17.66546
G1 X113.506 Y149.462 E17.69972
G1 X113.009 Y149.936 E17.73398
G1 X112.461 Y150.35 E17.76825
G1 X111.868 Y150.697 E17.80253
G1 X111.239 Y150.972 E17.83678
G1 X110.582 Y151.173 E17.87105
G1 X109.907 Y151.296 E17.90528
G1 X109.189 Y151.34 E17.94117
G1 X103.006 Y151.34 E18.24964
G1 X102.32 Y151.3 E18.28393
G1 X101.644 Y151.181 E18.31817
G1 X100.986 Y150.984 E18.35244
G1 X100.356 Y150.711 E18.38669
G1 X99.761 Y150.368 E18.42096
G1 X99.211 Y149.957 E18.45521
G1 X98.533 Y149.287 E18.50277
G1 X95.263 Y145.484 E18.75299
G1 X91.575 Y141.636 E19.01891
G1 X87.678 Y138.006 E19.28461
G1 X83.444 Y134.487 E19.55928
G1 X82.942 Y134.018 E19.59355
G1 X82.499 Y133.494 E19.62778
G1 X82.119 Y132.922 E19.66205
G1 X81.808 Y132.309 E19.69634
G1 X81.57 Y131.665 E19.73059
G1 X81.409 Y130.997 E19.76487
G1 X81.326 Y130.316 E19.7991
G1 X81.315 Y129.951 E19.81732
G1 X81.31 Y117.961 E20.4155
G1 X81.35 Y117.276 E20.44973
G1 X81.469 Y116.6 E20.48398
G1 X81.666 Y115.942 E20.51825
G1 X81.938 Y115.311 E20.55253
G1 X82.281 Y114.716 E20.58679
G1 X82.691 Y114.166 E20.62102
G1 X83.163 Y113.666 E20.65532
G1 X83.468 Y113.398 E20.67558
G1 X86.395 Y110.997 E20.86445
G1 X90.408 Y107.389 E21.13368
G1 X92.264 Y105.573 E21.26323
G1 X95.944 Y101.652 E21.53151
G1 X98.52 Y98.628 E21.72969
G1 X99.046 Y98.085 E21.76741
G1 X101.263 Y96.073 E21.91678
G1 X105.083 Y92.289 E22.18503
G1 X108.632 Y88.352 E22.44947
G1 X111.969 Y84.199 E22.71527
G1 X115.069 Y79.861 E22.98127
G1 X117.913 Y75.362 E23.24681
G1 X120.498 Y70.711 E23.51228
G1 X122.826 Y65.901 E23.77889
G1 X124.378 Y62.251 E23.97676
G1 X124.447 Y62.113 E23.98446
G0 F2160 X124.683 Y61.636
M204 S3000
M205 X10 Y10
G0 F3000 X125.221 Y61.903
M204 S1800
M205 X8 Y8
G1 F3600 E24.01105
G1 F2400 X125.581 Y61.361 E24.04351
G1 X126.005 Y60.868 E24.07595
G1 X126.486 Y60.429 E24.10844
G1 X127.018 Y60.053 E24.14095
G1 X127.591 Y59.746 E24.17338
G1 X128.198 Y59.51 E24.20587
G1 X128.829 Y59.351 E24.23833
G1 X129.475 Y59.27 E24.27082
G1 X129.807 Y59.26 E24.28739
G1 X134.791 Y59.26 E24.53604
G1 X135.441 Y59.3 E24.56853
G1 X136.08 Y59.419 E24.60096
G1 X136.701 Y59.616 E24.63346
G1 X137.292 Y59.887 E24.6659
G1 X137.846 Y60.229 E24.69838
G1 X138.354 Y60.636 E24.73085
G1 X138.808 Y61.103 E24.76335
G1 X139.202 Y61.621 E24.79582
G1 X139.529 Y62.184 E24.8283
G1 X139.784 Y62.782 E24.86073
G1 X139.964 Y63.408 E24.89323
G1 X140.066 Y64.051 E24.92571
G1 X140.091 Y64.561 E24.95119
G1 X140.09 Y69.547 E25.19994
G1 X140.05 Y70.197 E25.23243
G1 X139.93 Y70.836 E25.26486
G1 X139.734 Y71.457 E25.29735
G1 X139.462 Y72.048 E25.32981
G1 X139.12 Y72.602 E25.36229
G1 X138.8 Y73.011 E25.3882
G1 X135.859 Y76.415 E25.61263
G1 X132.554 Y80.649 E25.8806
G1 X129.494 Y85.062 E26.14852
G1 X126.701 Y89.622 E26.4153
G1 X124.161 Y94.35 E26.68307
G1 X121.887 Y99.223 E26.95135
G1 X120.892 Y101.611 E27.08042
G1 X119.026 Y106.697 E27.3507
G1 X117.467 Y111.825 E27.61809
G1 X116.184 Y117.1 E27.88894
G1 X115.69 Y119.599 E28.01603
G1 X114.861 Y124.957 E28.28652
G1 X114.342 Y130.274 E28.55305
G1 X114.125 Y135.644 E28.82117
G1 X114.211 Y140.996 E29.08822
G1 X114.478 Y145.095 E29.29315
G1 X114.48 Y145.746 E29.32563
G1 X114.403 Y146.392 E29.35809
G1 X114.247 Y147.024 E29.39057
G1 X114.014 Y147.632 E29.42305
G1 X113.709 Y148.207 E29.45552
G1 X113.336 Y148.74 E29.48798
G1 X112.9 Y149.224 E29.52048
G1 X112.409 Y149.65 E29.55291
G1 X111.868 Y150.013 E29.58541
G1 X111.288 Y150.307 E29.61786
G1 X110.675 Y150.527 E29.65035
G1 X110.041 Y150.671 E29.68278
G1 X109.189 Y150.74 E29.72543
G1 X103.006 Y150.74 E30.0339
G1 X102.356 Y150.7 E30.06639
G1 X101.717 Y150.581 E30.09882
G1 X101.096 Y150.384 E30.13132
G1 X100.505 Y150.113 E30.16376
G1 X99.951 Y149.771 E30.19624
G1 X99.443 Y149.364 E30.22872
G1 X98.988 Y148.896 E30.26128
G1 X95.7 Y145.073 E30.51285
G1 X92.002 Y141.214 E30.7795
G1 X88.065 Y137.546 E31.04796
G1 X83.828 Y134.025 E31.32281
G1 X83.353 Y133.579 E31.35531
G1 X82.938 Y133.079 E31.38773
G1 X82.586 Y132.531 E31.42023
G1 X82.305 Y131.944 E31.45269
G1 X82.097 Y131.327 E31.48518
G1 X81.967 Y130.689 E31.51766
G1 X81.915 Y129.951 E31.55457
G1 X81.91 Y117.961 E32.15276
G1 X81.95 Y117.312 E32.1852
G1 X82.069 Y116.672 E32.21767
G1 X82.265 Y116.051 E32.25016
G1 X82.536 Y115.46 E32.2826
G1 X82.878 Y114.906 E32.31508
G1 X83.285 Y114.398 E32.34755
G1 X83.848 Y113.862 E32.38634
G1 X86.798 Y111.441 E32.57673
G1 X90.816 Y107.829 E32.84628
G1 X92.674 Y106.012 E32.97593
G1 X96.404 Y102.037 E33.24789
G1 X98.977 Y99.017 E33.44582
G1 X99.449 Y98.529 E33.47969
G1 X101.688 Y96.497 E33.63054
G1 X105.501 Y92.72 E33.8983
G1 X109.104 Y88.723 E34.16677
G1 X112.453 Y84.556 E34.43349
G1 X115.56 Y80.206 E34.70018
G1 X118.423 Y75.679 E34.96741
G1 X121.034 Y70.982 E35.23552
G1 X123.373 Y66.146 E35.50352
G1 X124.93 Y62.486 E35.70196
G1 X124.983 Y62.38 E35.70787
G0 F2160 X125.221 Y61.903
M204 S3000
M205 X10 Y10
G1 F3600 E29.70787
G0 F3000 X107.632 Y101.785
G0 X107.632 Y103.36
G0 X105.473 Y105.95
M204 S1800
M205 X8 Y8
;TYPE:WALL-INNER
G1 F3600 E35.73446
G1 F1500 X102.971 Y105.95 E35.85929
G1 X102.97 Y105.95 E35.85934
G1 X102.4 Y105.95 E35.88778
G1 X102.725 Y105.481 E35.90363
G1 X103.786 Y103.95 E35.99656
G1 X106.1 Y103.95 E36.11201
G1 X106.101 Y103.95 E36.11206
G1 X106.615 Y103.95 E36.1377
G1 X106.36 Y104.397 E36.15228
G1 X105.473 Y105.95 E36.2415
M204 S3000
M205 X10 Y10
G0 F3000 X105.821 Y106.55
M204 S1800
M205 X8 Y8
G1 F1500 X102.1 Y106.55 E36.42714
G1 X102.1 Y108.73 E36.5359
G1 X98.297 Y112.094 E36.78921
G1 X98.297 Y136.006 E37.98219
G1 X102.1 Y139.37 E38.2355
G1 X102.1 Y141.35 E38.33428
G1 X105.821 Y141.35 E38.51992
G1 X107.394 Y144.102 E38.67807
G1 X107.649 Y144.55 E38.70378
G1 X107.134 Y144.55 E38.71838
G1 X107.133 Y144.55 E38.71843
G1 X103.472 Y144.55 E38.90107
G1 X92.56 Y128.806 E39.85676
G1 X91.806 Y129.05 E39.8963
G1 X88.1 Y129.05 E40.08119
G1 X88.1 Y118.85 E40.59007
G1 X91.792 Y118.85 E40.77427
G1 X92.563 Y119.09 E40.81455
G1 X103.472 Y103.35 E41.76999
G1 X107.133 Y103.35 E41.95264
G1 X107.134 Y103.35 E41.95269
G1 X107.649 Y103.35 E41.97838
G1 X107.394 Y103.798 E41.99299
G1 X105.821 Y106.55 E42.15113
M204 S3000
M205 X10 Y10
G0 F3000 X105.771 Y106.464
G0 X102.072 Y106.522
G0 X101.5 Y107.249
M204 S1800
M205 X8 Y8
G1 F1500 X101.5 Y108.207 E42.19893
G1 X101.5 Y108.46 E42.21155
G1 X101.186 Y108.737 E42.23244
G1 X101.185 Y108.738 E42.23251
G1 X99.33 Y110.379 E42.35607
G1 X100.742 Y108.343 E42.41833
G1 X100.955 Y108.037 E42.43693
G1 X101.5 Y107.249 E42.46191
M204 S3000
M205 X10 Y10
G0 F3000 X97.697 Y112.736
M204 S1800
M205 X8 Y8
G1 F1500 X97.697 Y113.692 E42.50961
G1 X97.697 Y113.693 E42.50966
G1 X97.697 Y134.208 E43.53316
G1 X97.697 Y134.209 E43.53321
G1 X97.697 Y135.165 E43.5809
G1 X97.152 Y134.379 E43.60585
G1 X92.799 Y128.098 E43.98711
G1 X91.711 Y128.45 E44.04416
G1 X88.7 Y128.45 E44.19438
G1 X88.7 Y119.45 E44.64339
G1 X91.701 Y119.45 E44.79311
G1 X92.805 Y119.794 E44.8508
G1 X97.152 Y113.522 E45.23152
G1 X97.697 Y112.736 E45.25646
M204 S3000
M205 X10 Y10
G0 F3000 X98.261 Y136.022
G0 X99.688 Y138.037
M204 S1800
M205 X8 Y8
G1 F1500 X101.5 Y139.64 E45.37716
G1 X101.5 Y140.652 E45.42765
G1 X101.027 Y139.969 E45.4463
G1 X99.688 Y138.037 E45.50223
M204 S3000
M205 X10 Y10
G0 F3000 X102.072 Y141.378
G0 X105.473 Y141.95
M204 S1800
M205 X8 Y8
G1 F1500 X106.36 Y143.503 E45.59145
G1 X106.615 Y143.95 E45.61713
G1 X106.101 Y143.95 E45.63168
G1 X106.1 Y143.95 E45.63173
G1 X103.786 Y143.95 E45.74718
G1 X102.725 Y142.419 E45.84011
G1 X102.4 Y141.95 E45.86858
G1 X102.97 Y141.95 E45.88442
G1 X102.971 Y141.95 E45.88447
G1 X105.288 Y141.95 E46.00006
G0 F1350 X105.473 Y141.95
M204 S3000
M205 X10 Y10
G0 F3000 X102.072 Y141.378
G0 X98.261 Y136.022
G0 X98.261 Y112.078
G0 X102.072 Y106.522
G0 X105.5 Y106.45
G0 X105.5 Y107.15
M204 S1800
M205 X8 Y8
;TYPE:WALL-OUTER
G1 F3600 E46.00929
G1 F1500 X102.7 Y107.15 E46.14899
G1 X102.7 Y109 E46.24128
G1 X98.897 Y112.364 E46.49459
G1 X98.897 Y135.736 E47.66063
G1 X102.7 Y139.1 E47.91393
G1 X102.7 Y140.75 E47.99625
G1 X105.5 Y140.75 E48.13595
G1 X105.5 Y139.579 E48.19437
G1 X106.004 Y140.461 E48.21779
G1 X108.428 Y144.702 E48.4615
G1 X108.683 Y145.15 E48.48722
G1 X108.168 Y145.15 E48.50181
G1 X108.167 Y145.15 E48.50186
G1 X103.158 Y145.15 E48.75176
G1 X92.321 Y129.514 E49.70089
G1 X91.9 Y129.65 E49.72296
G1 X87.5 Y129.65 E49.94248
G1 X87.5 Y118.25 E50.51123
G1 X91.9 Y118.25 E50.73074
G1 X91.9 Y118.255 E50.73099
G1 X92.321 Y118.386 E50.75299
G1 X103.158 Y102.75 E51.70212
G1 X108.167 Y102.75 E51.95202
G1 X108.168 Y102.75 E51.95207
G1 X108.683 Y102.75 E51.97776
G1 X108.428 Y103.198 E51.99237
G1 X106.005 Y107.437 E52.23596
G1 X105.5 Y108.321 E52.28675
G1 X105.5 Y107.15 E52.3179
M204 S3000
M205 X10 Y10
G0 F3000 X105.3 Y107.15
G0 X105.3 Y106.49
G0 X105.129 Y105.36
M204 S1800
M205 X8 Y8
;TYPE:SKIN
G1 F1500 X103.527 Y105.36 E52.39783
G1 X104.095 Y104.54 E52.44759
G1 X105.598 Y104.54 E52.52258
G1 X105.255 Y105.14 E52.55706
G0 F1350 X105.129 Y105.36
M204 S3000
M205 X10 Y10
G0 F3000 X104.914 Y104.914
G1 F3600 E52.56973
G1 F1500 X104.18 Y105.028 E52.5798
G0 F3000 X104.13 Y104.979
G0 X102.072 Y106.522
G0 X98.261 Y112.078
G0 X97.107 Y114.623
M204 S1800
M205 X8 Y8
G1 F1500 X97.107 Y133.278 E53.5105
G1 X93.035 Y127.402 E53.86717
G1 X91.619 Y127.86 E53.94141
G1 X89.29 Y127.86 E54.05761
G1 X89.29 Y120.04 E54.44775
G1 X91.613 Y120.04 E54.56365
G1 X93.043 Y120.486 E54.63838
G1 X96.804 Y115.061 E54.96771
G0 F1350 X97.107 Y114.623
M204 S3000
M205 X10 Y10
G0 F3000 X96.488 Y116.005
M204 S1800
M205 X8 Y8
G1 F3600 E54.9943
G1 F1500 X96.826 Y116.343 E55.01815
M204 S3000
M205 X10 Y10
G0 F3000 X96.141 Y116.506
M204 S1800
M205 X8 Y8
G1 F1500 X96.826 Y117.191 E55.06648
M204 S3000
M205 X10 Y10
G0 F3000 X96.826 Y118.04
M204 S1800
M205 X8 Y8
G1 F1500 X95.794 Y117.007 E55.13933
G1 X95.724 Y116.937
M204 S3000
M205 X10 Y10
G0 F3000 X95.446 Y117.508
M204 S1800
M205 X8 Y8
G1 F1500 X96.826 Y118.888 E55.2367
G1 X96.896 Y118.958
M204 S3000
M205 X10 Y10
G0 F3000 X96.826 Y119.737
M204 S1800
M205 X8 Y8
G1 F1500 X95.099 Y118.009 E55.35858
G1 X95.029 Y117.939
M204 S3000
M205 X10 Y10
G0 F3000 X94.752 Y118.511
M204 S1800
M205 X8 Y8
G1 F1500 X96.826 Y120.585 E55.50491
G1 X96.896 Y120.655
M204 S3000
M205 X10 Y10
G0 F3000 X96.826 Y121.434
M204 S1800
M205 X8 Y8
G1 F1500 X94.405 Y119.012 E55.67576
G1 X94.335 Y118.942
M204 S3000
M205 X10 Y10
G0 F3000 X94.057 Y119.513
M204 S1800
M205 X8 Y8
G1 F1500 X96.826 Y122.282 E55.87113
G1 X96.896 Y122.352
M204 S3000
M205 X10 Y10
G0 F3000 X96.826 Y123.131
M204 S1800
M205 X8 Y8
G1 F1500 X93.71 Y120.014 E56.09102
G1 X93.64 Y119.944
M204 S3000
M205 X10 Y10
