;FLAVOR:Marlin
;TIME:1508
;Filament used: 1.17065m
;Layer height: 0.2
;Generated with Cura_SteamEngine 3.4.1
M190 S60
M104 S200
M109 S200
M82 ;absolute extrusion mode
G21 ;metric values
G90 ;absolute positioning
M82 ;set extruder to absolute mode
M107 ;start with the fan off
G28 X0 Y0 ;move X/Y to min endstops
G28 Z0 ;move Z to min endstops
G1 Z15.0 F100 ;move the platform down 15mm
G92 E0 ;zero the extruded length
G1 F200 E3 ;extrude 3mm of feed stock
G92 E0 ;zero the extruded length again
G1 F100
M117 Printing...
G5
G92 E0
G1 F3600 E-6
;LAYER_COUNT:196
;LAYER:0
M106 S255
M204 S3000
M205 X10 Y10
G0 F3000 X120.255 Y63.101 Z0.2
M204 S1800
M205 X8 Y8
;TYPE:SKIRT
G1 F3600 E0
G1 F2400 X120.523 Y62.612 E0.02782
G1 X121.042 Y61.968 E0.06908
G1 X121.218 Y61.792 E0.0815
G1 X121.64 Y61.427 E0.10934
G1 X122.11 Y61.125 E0.13721
G1 X122.618 Y60.894 E0.16505
G1 X123.154 Y60.738 E0.1929
G1 X123.976 Y60.65 E0.23415
G1 X128.624 Y60.65 E0.46604
G1 X129.181 Y60.69 E0.4939
G1 X129.726 Y60.809 E0.52173
G1 X130.249 Y61.005 E0.54959
G1 X130.738 Y61.273 E0.57741
G1 X131.382 Y61.792 E0.61868
G1 X131.558 Y61.968 E0.63109
G1 X131.923 Y62.39 E0.65893
G1 X132.225 Y62.86 E0.6868
G1 X132.456 Y63.368 E0.71464
G1 X132.612 Y63.904 E0.74249
G1 X132.7 Y64.726 E0.78374
G1 X132.7 Y69.374 E1.01563
G1 X132.66 Y69.931 E1.04349
G1 X132.541 Y70.476 E1.07132
G1 X132.345 Y70.999 E1.09918
G1 X132.077 Y71.488 E1.127
G1 X131.558 Y72.132 E1.16827
G1 X131.382 Y72.308 E1.18069
G1 X130.96 Y72.673 E1.20852
G1 X130.49 Y72.975 E1.23639
G1 X129.982 Y73.206 E1.26424
G1 X129.446 Y73.362 E1.29209
G1 X128.624 Y73.45 E1.33333
G1 X123.976 Y73.45 E1.56522
G1 X123.419 Y73.41 E1.59308
G1 X122.874 Y73.291 E1.62091
G1 X122.351 Y73.095 E1.64878
G1 X121.862 Y72.827 E1.6766
G1 X121.218 Y72.308 E1.71786
G1 X121.042 Y72.132 E1.73028
G1 X120.677 Y71.71 E1.75811
G1 X120.375 Y71.24 E1.78599
G1 X120.144 Y70.732 E1.81383
G1 X119.988 Y70.196 E1.84168
G1 X119.9 Y69.374 E1.88292
G1 X119.9 Y64.726 E2.11481
G1 X119.94 Y64.169 E2.14267
G1 X120.059 Y63.624 E2.1705
G1 X120.068 Y63.6 E2.17178
G0 F2160 X120.255 Y63.101
M204 S3000
M205 X10 Y10
G0 F3000 X120.854 Y63.24
M204 S1800
M205 X8 Y8
G1 F3600 E2.19837
G1 F2400 X121.12 Y62.801 E2.22398
G1 X121.467 Y62.393 E2.2507
G1 X121.643 Y62.217 E2.26312
G1 X122.033 Y61.883 E2.28874
G1 X122.47 Y61.614 E2.31434
G1 X122.944 Y61.416 E2.33997
G1 X123.442 Y61.293 E2.36556
G1 X123.976 Y61.25 E2.39229
G1 X128.624 Y61.25 E2.62418
G1 X129.136 Y61.29 E2.6498
G1 X129.635 Y61.409 E2.67539
G1 X130.11 Y61.604 E2.70101
G1 X130.549 Y61.87 E2.72662
G1 X130.957 Y62.217 E2.75334
G1 X131.133 Y62.393 E2.76576
G1 X131.467 Y62.783 E2.79137
G1 X131.736 Y63.22 E2.81698
G1 X131.934 Y63.694 E2.8426
G1 X132.057 Y64.192 E2.8682
G1 X132.1 Y64.726 E2.89492
G1 X132.1 Y69.374 E3.12681
G1 X132.06 Y69.886 E3.15243
G1 X131.941 Y70.385 E3.17803
G1 X131.746 Y70.86 E3.20365
G1 X131.48 Y71.299 E3.22925
G1 X131.133 Y71.707 E3.25598
G1 X130.957 Y71.883 E3.26839
G1 X130.567 Y72.217 E3.29401
G1 X130.13 Y72.486 E3.31961
G1 X129.656 Y72.684 E3.34524
G1 X129.158 Y72.807 E3.37083
G1 X128.624 Y72.85 E3.39756
G1 X123.976 Y72.85 E3.62945
G1 X123.464 Y72.81 E3.65507
G1 X122.965 Y72.691 E3.68066
G1 X122.49 Y72.496 E3.70628
G1 X122.051 Y72.23 E3.73189
G1 X121.643 Y71.883 E3.75861
G1 X121.467 Y71.707 E3.77103
G1 X121.133 Y71.317 E3.79665
G1 X120.864 Y70.88 E3.82225
G1 X120.666 Y70.406 E3.84788
G1 X120.543 Y69.908 E3.87347
G1 X120.5 Y69.374 E3.9002
G1 X120.5 Y64.726 E4.13209
G1 X120.54 Y64.214 E4.15771
G1 X120.655 Y63.734 E4.18233
G0 F2160 X120.659 Y63.715
G0 X120.854 Y63.24
M204 S3000
M205 X10 Y10
G0 F3000 X121.259 Y63.814
M204 S1800
M205 X8 Y8
G1 F3600 E4.20892
G1 F2400 X121.452 Y63.392 E4.23207
G1 X121.715 Y63.01 E4.25521
G1 X121.891 Y62.817 E4.26824
G1 X122.067 Y62.641 E4.28066
G1 X122.422 Y62.342 E4.30382
G1 X122.823 Y62.108 E4.32698
G1 X123.259 Y61.947 E4.35017
G1 X123.715 Y61.863 E4.3733
G1 X123.976 Y61.85 E4.38634
G1 X128.624 Y61.85 E4.61823
G1 X129.087 Y61.89 E4.64141
G1 X129.536 Y62.009 E4.66459
G1 X129.958 Y62.202 E4.68774
G1 X130.34 Y62.465 E4.71088
G1 X130.533 Y62.641 E4.72391
G1 X130.709 Y62.817 E4.73633
G1 X131.008 Y63.172 E4.75948
G1 X131.242 Y63.573 E4.78265
G1 X131.403 Y64.009 E4.80583
G1 X131.487 Y64.465 E4.82897
G1 X131.5 Y64.726 E4.842
G1 X131.5 Y69.374 E5.07389
G1 X131.46 Y69.837 E5.09708
G1 X131.341 Y70.286 E5.12025
G1 X131.148 Y70.708 E5.1434
G1 X130.885 Y71.09 E5.16654
G1 X130.709 Y71.283 E5.17957
G1 X130.533 Y71.459 E5.19199
G1 X130.178 Y71.758 E5.21515
G1 X129.777 Y71.992 E5.23831
G1 X129.341 Y72.153 E5.2615
G1 X128.885 Y72.237 E5.28463
G1 X128.624 Y72.25 E5.29767
G1 X123.976 Y72.25 E5.52956
G1 X123.513 Y72.21 E5.55274
G1 X123.064 Y72.091 E5.57592
G1 X122.642 Y71.898 E5.59907
G1 X122.26 Y71.635 E5.62221
G1 X122.067 Y71.459 E5.63524
G1 X121.891 Y71.283 E5.64765
G1 X121.592 Y70.928 E5.67081
G1 X121.358 Y70.527 E5.69397
G1 X121.197 Y70.091 E5.71716
G1 X121.113 Y69.635 E5.74029
G1 X121.1 Y69.374 E5.75333
G1 X121.1 Y64.726 E5.98522
G1 X121.135 Y64.331 E6.00501
G0 F2160 X121.14 Y64.263
G0 X121.259 Y63.814
M204 S3000
M205 X10 Y10
G0 F3000 X121.858 Y63.927
M204 S1800
M205 X8 Y8
G1 F3600 E6.0316
G1 F2400 X122.05 Y63.565 E6.05204
G1 X122.315 Y63.241 E6.07292
G1 X122.491 Y63.065 E6.08534
G1 X122.807 Y62.805 E6.10576
G1 X123.168 Y62.612 E6.12618
G1 X123.56 Y62.492 E6.14663
G1 X123.976 Y62.45 E6.16749
G1 X128.624 Y62.45 E6.39938
G1 X129.031 Y62.49 E6.41978
G1 X129.423 Y62.608 E6.44021
G1 X129.785 Y62.8 E6.46065
G1 X130.109 Y63.065 E6.48153
G1 X130.285 Y63.241 E6.49395
G1 X130.545 Y63.557 E6.51437
G1 X130.738 Y63.918 E6.53479
G1 X130.858 Y64.31 E6.55524
G1 X130.9 Y64.726 E6.5761
G1 X130.9 Y69.374 E6.80799
G1 X130.86 Y69.781 E6.8284
G1 X130.742 Y70.173 E6.84882
G1 X130.55 Y70.535 E6.86926
G1 X130.285 Y70.859 E6.89015
G1 X130.109 Y71.035 E6.90256
G1 X129.793 Y71.295 E6.92298
G1 X129.432 Y71.488 E6.9434
G1 X129.04 Y71.608 E6.96385
G1 X128.624 Y71.65 E6.98471
G1 X123.976 Y71.65 E7.2166
G1 X123.569 Y71.61 E7.23701
G1 X123.177 Y71.492 E7.25743
G1 X122.815 Y71.3 E7.27787
G1 X122.491 Y71.035 E7.29876
G1 X122.315 Y70.859 E7.31117
G1 X122.055 Y70.543 E7.33159
G1 X121.862 Y70.182 E7.35201
G1 X121.742 Y69.79 E7.37247
G1 X121.7 Y69.374 E7.39333
G1 X121.7 Y64.726 E7.62521
G1 X121.728 Y64.442 E7.63945
G0 F2160 X121.74 Y64.319
G0 X121.858 Y63.927
M204 S3000
M205 X10 Y10
G0 F3000 X122.457 Y64.057
M204 S1800
M205 X8 Y8
G1 F3600 E7.66604
G1 F2400 X122.739 Y63.665 E7.69014
G1 X122.915 Y63.489 E7.70255
G1 X123.186 Y63.275 E7.71978
G1 X123.5 Y63.128 E7.73708
G1 X123.976 Y63.05 E7.76114
G1 X128.624 Y63.05 E7.99303
G1 X128.968 Y63.09 E8.01031
G1 X129.293 Y63.207 E8.02754
G1 X129.685 Y63.489 E8.05163
G1 X129.861 Y63.665 E8.06405
G1 X130.075 Y63.936 E8.08128
G1 X130.222 Y64.25 E8.09858
G1 X130.3 Y64.726 E8.12264
G1 X130.3 Y69.374 E8.35453
G1 X130.26 Y69.718 E8.37181
G1 X130.143 Y70.043 E8.38904
G1 X129.861 Y70.435 E8.41313
G1 X129.685 Y70.611 E8.42555
G1 X129.414 Y70.825 E8.44278
G1 X129.1 Y70.972 E8.46008
G1 X128.624 Y71.05 E8.48414
G1 X123.976 Y71.05 E8.71603
G1 X123.632 Y71.01 E8.73331
G1 X123.307 Y70.893 E8.75054
G1 X122.915 Y70.611 E8.77463
G1 X122.739 Y70.435 E8.78705
G1 X122.525 Y70.164 E8.80428
G1 X122.378 Y69.85 E8.82158
G1 X122.3 Y69.374 E8.84564
G1 X122.3 Y64.726 E9.07753
G1 X122.319 Y64.568 E9.08547
G0 F2160 X122.34 Y64.382
G0 X122.457 Y64.057
M204 S3000
M205 X10 Y10
G0 F3000 X122.94 Y64.461
M204 S1800
M205 X8 Y8
G1 F3600 E9.11206
G1 F2400 X123.056 Y64.22 E9.1254
G1 X123.164 Y64.09 E9.13384
G1 X123.34 Y63.914 E9.14625
G1 X123.555 Y63.755 E9.1596
G1 X123.807 Y63.666 E9.17293
G1 X123.976 Y63.65 E9.1814
G1 X128.624 Y63.65 E9.41329
G1 X128.889 Y63.69 E9.42666
G1 X129.13 Y63.806 E9.44
G1 X129.26 Y63.914 E9.44843
G1 X129.436 Y64.09 E9.46085
G1 X129.595 Y64.305 E9.47419
G1 X129.684 Y64.557 E9.48753
G1 X129.7 Y64.726 E9.49599
G1 X129.7 Y69.374 E9.72788
G1 X129.66 Y69.639 E9.74126
G1 X129.544 Y69.88 E9.7546
G1 X129.436 Y70.01 E9.76303
G1 X129.26 Y70.186 E9.77545
G1 X129.045 Y70.345 E9.78879
G1 X128.793 Y70.434 E9.80212
G1 X128.624 Y70.45 E9.81059
G1 X123.976 Y70.45 E10.04248
G1 X123.711 Y70.41 E10.05585
G1 X123.47 Y70.294 E10.0692
G1 X123.34 Y70.186 E10.07763
G1 X123.164 Y70.01 E10.09005
G1 X123.005 Y69.795 E10.10339
G1 X122.916 Y69.543 E10.11672
G1 X122.9 Y69.374 E10.12519
G1 X122.9 Y64.991 E10.34386
G0 F2160 X122.9 Y64.726
G0 X122.94 Y64.461
M204 S3000
M205 X10 Y10
G0 F3000 X123.539 Y64.577
M204 S1800
M205 X8 Y8
G1 F3600 E10.37045
G1 F2400 X123.588 Y64.514 E10.37443
G1 X123.764 Y64.338 E10.38685
G1 X123.897 Y64.261 E10.39452
G1 X123.976 Y64.25 E10.3985
G1 X128.624 Y64.25 E10.63039
G1 X128.773 Y64.289 E10.63807
G1 X128.836 Y64.338 E10.64205
G1 X129.012 Y64.514 E10.65447
G1 X129.089 Y64.647 E10.66214
G1 X129.1 Y64.726 E10.66612
G1 X129.1 Y69.374 E10.89801
G1 X129.061 Y69.523 E10.90569
G1 X129.012 Y69.586 E10.90967
G1 X128.836 Y69.762 E10.92209
G1 X128.703 Y69.839 E10.92976
G1 X128.624 Y69.85 E10.93374
G1 X123.976 Y69.85 E11.16563
G1 X123.827 Y69.811 E11.17331
G1 X123.764 Y69.762 E11.17729
G1 X123.588 Y69.586 E11.18971
G1 X123.511 Y69.453 E11.19738
G1 X123.5 Y69.374 E11.20136
G1 X123.5 Y65.105 E11.41434
G0 F2160 X123.5 Y64.726
G0 X123.539 Y64.577
M204 S3000
M205 X10 Y10
G1 F3600 E5.41434
G0 F3000 X123.135 Y64.577
G0 X104.466 Y98.905
M204 S1800
M205 X8 Y8
G1 F3600 E11.44093
G1 F2400 X104.955 Y99.173 E11.46875
G1 X105.402 Y99.508 E11.49662
G1 X105.795 Y99.904 E11.52445
G1 X106.248 Y100.552 E11.5639
G1 X106.419 Y100.859 E11.58143
G1 X106.655 Y101.365 E11.60928
G1 X106.817 Y101.899 E11.63712
G1 X106.9 Y102.451 E11.66497
G1 X106.904 Y103.01 E11.69286
G1 X106.828 Y103.563 E11.72071
G1 X106.674 Y104.099 E11.74853
G1 X106.333 Y104.801 E11.78747
G1 X102.958 Y110.285 E12.10873
G1 X102.633 Y110.738 E12.13654
G1 X102.245 Y111.14 E12.16442
G1 X101.805 Y111.483 E12.19225
G1 X101.32 Y111.759 E12.22009
G1 X100.8 Y111.964 E12.24798
G1 X100.257 Y112.091 E12.2758
G1 X99.701 Y112.14 E12.30365
G1 X99.501 Y112.129 E12.31364
G1 X97.097 Y114.257 E12.47381
G1 X97.097 Y133.843 E13.45096
G1 X99.288 Y135.782 E13.59693
G1 X99.684 Y135.759 E13.61672
G1 X100.241 Y135.806 E13.64461
G1 X100.784 Y135.932 E13.67242
G1 X101.305 Y136.134 E13.7003
G1 X101.791 Y136.408 E13.72813
G1 X102.233 Y136.749 E13.75598
G1 X102.622 Y137.149 E13.78382
G1 X102.958 Y137.615 E13.81248
G1 X106.333 Y143.099 E14.13374
G1 X106.591 Y143.594 E14.16159
G1 X106.776 Y144.121 E14.18945
G1 X106.883 Y144.669 E14.21731
G1 X106.911 Y145.226 E14.24513
G1 X106.859 Y145.782 E14.27299
G1 X106.729 Y146.325 E14.30085
G1 X106.419 Y147.041 E14.33978
G1 X106.248 Y147.348 E14.35731
G1 X105.942 Y147.815 E14.38516
G1 X105.573 Y148.233 E14.41298
G1 X105.148 Y148.595 E14.44083
G1 X104.675 Y148.892 E14.4687
G1 X104.165 Y149.118 E14.49653
G1 X103.628 Y149.27 E14.52437
G1 X102.841 Y149.35 E14.56384
G1 X97.084 Y149.35 E14.85106
G1 X96.527 Y149.31 E14.87892
G1 X95.982 Y149.191 E14.90675
G1 X95.288 Y148.912 E14.94406
G1 X95.155 Y148.843 E14.95154
G1 X94.679 Y148.551 E14.9794
G1 X94.25 Y148.194 E15.00724
G1 X93.745 Y147.602 E15.04606
G1 X84.215 Y133.85 E15.88079
G1 X81.376 Y133.85 E16.02243
G1 X80.819 Y133.81 E16.05029
G1 X80.274 Y133.691 E16.07812
G1 X79.751 Y133.495 E16.10599
G1 X79.262 Y133.227 E16.13381
G1 X78.618 Y132.708 E16.17507
G1 X78.442 Y132.532 E16.18749
G1 X78.077 Y132.11 E16.21533
G1 X77.775 Y131.64 E16.2432
G1 X77.544 Y131.132 E16.27104
G1 X77.388 Y130.596 E16.29889
G1 X77.3 Y129.774 E16.34014
G1 X77.3 Y118.126 E16.92126
G1 X77.34 Y117.569 E16.94912
G1 X77.459 Y117.024 E16.97695
G1 X77.655 Y116.501 E17.00481
G1 X77.923 Y116.012 E17.03263
G1 X78.442 Y115.368 E17.0739
G1 X78.618 Y115.192 E17.08631
G1 X79.04 Y114.827 E17.11415
G1 X79.51 Y114.525 E17.14202
G1 X80.018 Y114.294 E17.16986
G1 X80.554 Y114.138 E17.19771
G1 X81.107 Y114.059 E17.22558
G1 X81.445 Y114.051 E17.24245
G1 X84.181 Y114.099 E17.37897
G1 X93.745 Y100.298 E18.21668
G1 X94.095 Y99.863 E18.24453
G1 X94.504 Y99.482 E18.27242
G1 X95.155 Y99.057 E18.31121
G1 X95.288 Y98.988 E18.31868
G1 X95.801 Y98.767 E18.34655
G1 X96.34 Y98.622 E18.3744
G1 X97.084 Y98.55 E18.41169
G1 X102.841 Y98.55 E18.69891
G1 X103.398 Y98.59 E18.72677
G1 X103.943 Y98.709 E18.7546
G1 X103.967 Y98.718 E18.75588
G0 F2160 X104.466 Y98.905
M204 S3000
M205 X10 Y10
G0 F3000 X104.327 Y99.504
M204 S1800
M205 X8 Y8
G1 F3600 E18.78247
G1 F2400 X104.766 Y99.77 E18.80808
G1 X105.159 Y100.101 E18.83371
G1 X105.495 Y100.489 E18.85932
G1 X105.724 Y100.844 E18.88039
G1 X105.895 Y101.151 E18.89793
G1 X106.109 Y101.618 E18.92355
G1 X106.248 Y102.112 E18.94916
G1 X106.309 Y102.622 E18.97478
G1 X106.29 Y103.135 E19.00039
G1 X106.192 Y103.639 E19.02601
G1 X106.017 Y104.121 E19.05159
G1 X105.822 Y104.487 E19.07228
G1 X102.447 Y109.971 E19.39354
G1 X102.145 Y110.386 E19.41915
G1 X101.782 Y110.749 E19.44476
G1 X101.367 Y111.051 E19.47037
G1 X100.91 Y111.285 E19.49598
G1 X100.423 Y111.446 E19.52157
G1 X99.916 Y111.529 E19.5472
G1 X99.403 Y111.533 E19.5728
G1 X99.277 Y111.511 E19.57918
G1 X99.134 Y111.653 E19.58923
G1 X96.497 Y113.986 E19.76489
G1 X96.497 Y134.114 E20.76908
G1 X99.095 Y136.412 E20.94212
G1 X99.246 Y136.382 E20.9498
G1 X99.759 Y136.361 E20.97542
G1 X100.269 Y136.42 E21.00103
G1 X100.764 Y136.557 E21.02666
G1 X101.232 Y136.77 E21.05231
G1 X101.66 Y137.052 E21.07788
G1 X102.04 Y137.398 E21.10352
G1 X102.447 Y137.929 E21.1369
G1 X105.822 Y143.413 E21.45816
G1 X106.057 Y143.87 E21.4838
G1 X106.217 Y144.358 E21.50942
G1 X106.3 Y144.865 E21.53505
G1 X106.304 Y145.378 E21.56064
G1 X106.227 Y145.886 E21.58628
G1 X106.073 Y146.375 E21.61185
G1 X105.895 Y146.749 E21.63252
G1 X105.724 Y147.056 E21.65005
G1 X105.44 Y147.484 E21.67568
G1 X105.093 Y147.862 E21.70128
G1 X104.692 Y148.182 E21.72687
G1 X104.246 Y148.436 E21.75248
G1 X103.765 Y148.618 E21.77814
G1 X103.263 Y148.723 E21.80372
G1 X102.841 Y148.75 E21.82482
G1 X97.084 Y148.75 E22.11204
G1 X96.572 Y148.71 E22.13766
G1 X96.073 Y148.591 E22.16325
G1 X95.564 Y148.379 E22.19076
G1 X95.431 Y148.31 E22.19824
G1 X94.995 Y148.039 E22.22385
G1 X94.607 Y147.704 E22.24942
G1 X94.239 Y147.261 E22.27815
G1 X84.53 Y133.25 E23.12859
G1 X81.376 Y133.25 E23.28595
G1 X80.864 Y133.21 E23.31157
G1 X80.365 Y133.091 E23.33716
G1 X79.89 Y132.896 E23.36278
G1 X79.451 Y132.63 E23.38839
G1 X79.043 Y132.283 E23.41511
G1 X78.867 Y132.107 E23.42753
G1 X78.533 Y131.717 E23.45314
G1 X78.264 Y131.28 E23.47874
G1 X78.066 Y130.806 E23.50437
G1 X77.943 Y130.308 E23.52996
G1 X77.9 Y129.774 E23.55669
G1 X77.9 Y118.126 E24.13781
G1 X77.94 Y117.614 E24.16344
G1 X78.059 Y117.115 E24.18903
G1 X78.254 Y116.64 E24.21465
G1 X78.52 Y116.201 E24.24025
G1 X78.867 Y115.793 E24.26698
G1 X79.043 Y115.617 E24.27939
G1 X79.433 Y115.283 E24.30501
G1 X79.87 Y115.014 E24.33061
G1 X80.344 Y114.816 E24.35624
G1 X80.842 Y114.693 E24.38183
G1 X81.434 Y114.651 E24.41144
G1 X84.492 Y114.705 E24.56403
G1 X94.239 Y100.639 E25.4178
G1 X94.563 Y100.241 E25.44341
G1 X94.945 Y99.899 E25.46899
G1 X95.431 Y99.59 E25.49772
G1 X95.564 Y99.521 E25.50519
G1 X96.037 Y99.32 E25.53084
G1 X96.535 Y99.196 E25.55644
G1 X97.084 Y99.15 E25.58392
G1 X102.841 Y99.15 E25.87114
G1 X103.353 Y99.19 E25.89676
G1 X103.833 Y99.305 E25.92139
G0 F2160 X103.852 Y99.309
G0 X104.327 Y99.504
M204 S3000
M205 X10 Y10
G0 F3000 X103.753 Y99.909
M204 S1800
M205 X8 Y8
G1 F3600 E25.94798
G1 F2400 X104.175 Y100.102 E25.97113
G1 X104.557 Y100.365 E25.99427
G1 X104.889 Y100.69 E26.01745
G1 X105.2 Y101.136 E26.04458
G1 X105.371 Y101.443 E26.06211
G1 X105.561 Y101.867 E26.08529
G1 X105.676 Y102.317 E26.10846
G1 X105.712 Y102.78 E26.13163
G1 X105.668 Y103.242 E26.15478
G1 X105.546 Y103.69 E26.17795
G1 X105.311 Y104.172 E26.2047
G1 X101.936 Y109.656 E26.52596
G1 X101.66 Y110.029 E26.54911
G1 X101.324 Y110.349 E26.57226
G1 X100.937 Y110.607 E26.59546
G1 X100.513 Y110.795 E26.6186
G1 X100.062 Y110.907 E26.64179
G1 X99.599 Y110.941 E26.66495
G1 X99.137 Y110.894 E26.68812
G1 X99.03 Y110.869 E26.6936
G1 X98.736 Y111.204 E26.71583
G1 X95.897 Y113.716 E26.90496
G1 X95.897 Y134.384 E27.93609
G1 X98.736 Y136.896 E28.12521
G1 X98.895 Y137.063 E28.13671
G1 X98.905 Y137.06 E28.13724
G1 X99.362 Y136.973 E28.16045
