;FLAVOR:Marlin
;TIME:1763
;Filament used: 1.62273m
;Layer height: 0.2
;Generated with Cura_SteamEngine 3.4.1
M190 S60
M104 S200
M109 S200
M82 ;absolute extrusion mode
G21 ;metric values
G90 ;absolute positioning
M82 ;set extruder to absolute mode
M107 ;start with the fan off
G28 X0 Y0 ;move X/Y to min endstops
G28 Z0 ;move Z to min endstops
G1 Z15.0 F100 ;move the platform down 15mm
G92 E0 ;zero the extruded length
G1 F200 E3 ;extrude 3mm of feed stock
G92 E0 ;zero the extruded length again
G1 F100
M117 Printing...
G5
G92 E0
G1 F3600 E-6
;LAYER_COUNT:196
;LAYER:0
M106 S255
M204 S3000
M205 X10 Y10
G0 F3000 X126.255 Y63.101 Z0.2
M204 S1800
M205 X8 Y8
;TYPE:SKIRT
G1 F3600 E0
G1 F2400 X126.523 Y62.612 E0.02782
G1 X127.042 Y61.968 E0.06908
G1 X127.218 Y61.792 E0.0815
G1 X127.64 Y61.427 E0.10934
G1 X128.11 Y61.125 E0.13721
G1 X128.618 Y60.894 E0.16505
G1 X129.154 Y60.738 E0.1929
G1 X129.976 Y60.65 E0.23415
G1 X134.624 Y60.65 E0.46604
G1 X135.181 Y60.69 E0.4939
G1 X135.726 Y60.809 E0.52173
G1 X136.249 Y61.005 E0.54959
G1 X136.738 Y61.273 E0.57741
G1 X137.382 Y61.792 E0.61868
G1 X137.558 Y61.968 E0.63109
G1 X137.923 Y62.39 E0.65893
G1 X138.225 Y62.86 E0.6868
G1 X138.456 Y63.368 E0.71464
G1 X138.612 Y63.904 E0.74249
G1 X138.7 Y64.726 E0.78374
G1 X138.7 Y69.374 E1.01563
G1 X138.66 Y69.931 E1.04349
G1 X138.541 Y70.476 E1.07132
G1 X138.345 Y70.999 E1.09918
G1 X138.077 Y71.488 E1.127
G1 X137.558 Y72.132 E1.16827
G1 X137.382 Y72.308 E1.18069
G1 X136.96 Y72.673 E1.20852
G1 X136.49 Y72.975 E1.23639
G1 X135.982 Y73.206 E1.26424
G1 X135.446 Y73.362 E1.29209
G1 X134.624 Y73.45 E1.33333
G1 X129.976 Y73.45 E1.56522
G1 X129.419 Y73.41 E1.59308
G1 X128.874 Y73.291 E1.62091
G1 X128.351 Y73.095 E1.64878
G1 X127.862 Y72.827 E1.6766
G1 X127.218 Y72.308 E1.71786
G1 X127.042 Y72.132 E1.73028
G1 X126.677 Y71.71 E1.75811
G1 X126.375 Y71.24 E1.78599
G1 X126.144 Y70.732 E1.81383
G1 X125.988 Y70.196 E1.84168
G1 X125.9 Y69.374 E1.88292
G1 X125.9 Y64.726 E2.11481
G1 X125.94 Y64.169 E2.14267
G1 X126.059 Y63.624 E2.1705
G1 X126.068 Y63.6 E2.17178
G0 F2160 X126.255 Y63.101
M204 S3000
M205 X10 Y10
G0 F3000 X126.854 Y63.24
M204 S1800
M205 X8 Y8
G1 F3600 E2.19837
G1 F2400 X127.12 Y62.801 E2.22398
G1 X127.467 Y62.393 E2.2507
G1 X127.643 Y62.217 E2.26312
G1 X128.033 Y61.883 E2.28874
G1 X128.47 Y61.614 E2.31434
G1 X128.944 Y61.416 E2.33997
G1 X129.442 Y61.293 E2.36556
G1 X129.976 Y61.25 E2.39229
G1 X134.624 Y61.25 E2.62418
G1 X135.136 Y61.29 E2.6498
G1 X135.635 Y61.409 E2.67539
G1 X136.11 Y61.604 E2.70101
G1 X136.549 Y61.87 E2.72662
G1 X136.957 Y62.217 E2.75334
G1 X137.133 Y62.393 E2.76576
G1 X137.467 Y62.783 E2.79137
G1 X137.736 Y63.22 E2.81698
G1 X137.934 Y63.694 E2.8426
G1 X138.057 Y64.192 E2.8682
G1 X138.1 Y64.726 E2.89492
G1 X138.1 Y69.374 E3.12681
G1 X138.06 Y69.886 E3.15243
G1 X137.941 Y70.385 E3.17803
G1 X137.746 Y70.86 E3.20365
G1 X137.48 Y71.299 E3.22925
G1 X137.133 Y71.707 E3.25598
G1 X136.957 Y71.883 E3.26839
G1 X136.567 Y72.217 E3.29401
G1 X136.13 Y72.486 E3.31961
G1 X135.656 Y72.684 E3.34524
G1 X135.158 Y72.807 E3.37083
G1 X134.624 Y72.85 E3.39756
G1 X129.976 Y72.85 E3.62945
G1 X129.464 Y72.81 E3.65507
G1 X128.965 Y72.691 E3.68066
G1 X128.49 Y72.496 E3.70628
G1 X128.051 Y72.23 E3.73189
G1 X127.643 Y71.883 E3.75861
G1 X127.467 Y71.707 E3.77103
G1 X127.133 Y71.317 E3.79665
G1 X126.864 Y70.88 E3.82225
G1 X126.666 Y70.406 E3.84788
G1 X126.543 Y69.908 E3.87347
G1 X126.5 Y69.374 E3.9002
G1 X126.5 Y64.726 E4.13209
G1 X126.54 Y64.214 E4.15771
G1 X126.655 Y63.734 E4.18233
G0 F2160 X126.659 Y63.715
G0 X126.854 Y63.24
M204 S3000
M205 X10 Y10
G0 F3000 X127.259 Y63.814
M204 S1800
M205 X8 Y8
G1 F3600 E4.20892
G1 F2400 X127.452 Y63.392 E4.23207
G1 X127.715 Y63.01 E4.25521
G1 X127.891 Y62.817 E4.26824
G1 X128.067 Y62.641 E4.28066
G1 X128.422 Y62.342 E4.30382
G1 X128.823 Y62.108 E4.32698
G1 X129.259 Y61.947 E4.35017
G1 X129.715 Y61.863 E4.3733
G1 X129.976 Y61.85 E4.38634
G1 X134.624 Y61.85 E4.61823
G1 X135.087 Y61.89 E4.64141
G1 X135.536 Y62.009 E4.66459
G1 X135.958 Y62.202 E4.68774
G1 X136.34 Y62.465 E4.71088
G1 X136.533 Y62.641 E4.72391
G1 X136.709 Y62.817 E4.73633
G1 X137.008 Y63.172 E4.75948
G1 X137.242 Y63.573 E4.78265
G1 X137.403 Y64.009 E4.80583
G1 X137.487 Y64.465 E4.82897
G1 X137.5 Y64.726 E4.842
G1 X137.5 Y69.374 E5.07389
G1 X137.46 Y69.837 E5.09708
G1 X137.341 Y70.286 E5.12025
G1 X137.148 Y70.708 E5.1434
G1 X136.885 Y71.09 E5.16654
G1 X136.709 Y71.283 E5.17957
G1 X136.533 Y71.459 E5.19199
G1 X136.178 Y71.758 E5.21515
G1 X135.777 Y71.992 E5.23831
G1 X135.341 Y72.153 E5.2615
G1 X134.885 Y72.237 E5.28463
G1 X134.624 Y72.25 E5.29767
G1 X129.976 Y72.25 E5.52956
G1 X129.513 Y72.21 E5.55274
G1 X129.064 Y72.091 E5.57592
G1 X128.642 Y71.898 E5.59907
G1 X128.26 Y71.635 E5.62221
G1 X128.067 Y71.459 E5.63524
G1 X127.891 Y71.283 E5.64765
G1 X127.592 Y70.928 E5.67081
G1 X127.358 Y70.527 E5.69397
G1 X127.197 Y70.091 E5.71716
G1 X127.113 Y69.635 E5.74029
G1 X127.1 Y69.374 E5.75333
G1 X127.1 Y64.726 E5.98522
G1 X127.135 Y64.331 E6.00501
G0 F2160 X127.14 Y64.263
G0 X127.259 Y63.814
M204 S3000
M205 X10 Y10
G0 F3000 X127.858 Y63.927
M204 S1800
M205 X8 Y8
G1 F3600 E6.0316
G1 F2400 X128.05 Y63.565 E6.05204
G1 X128.315 Y63.241 E6.07292
G1 X128.491 Y63.065 E6.08534
G1 X128.807 Y62.805 E6.10576
G1 X129.168 Y62.612 E6.12618
G1 X129.56 Y62.492 E6.14663
G1 X129.976 Y62.45 E6.16749
G1 X134.624 Y62.45 E6.39938
G1 X135.031 Y62.49 E6.41978
G1 X135.423 Y62.608 E6.44021
G1 X135.785 Y62.8 E6.46065
G1 X136.109 Y63.065 E6.48153
G1 X136.285 Y63.241 E6.49395
G1 X136.545 Y63.557 E6.51437
G1 X136.738 Y63.918 E6.53479
G1 X136.858 Y64.31 E6.55524
G1 X136.9 Y64.726 E6.5761
G1 X136.9 Y69.374 E6.80799
G1 X136.86 Y69.781 E6.8284
G1 X136.742 Y70.173 E6.84882
G1 X136.55 Y70.535 E6.86926
G1 X136.285 Y70.859 E6.89015
G1 X136.109 Y71.035 E6.90256
G1 X135.793 Y71.295 E6.92298
G1 X135.432 Y71.488 E6.9434
G1 X135.04 Y71.608 E6.96385
G1 X134.624 Y71.65 E6.98471
G1 X129.976 Y71.65 E7.2166
G1 X129.569 Y71.61 E7.23701
G1 X129.177 Y71.492 E7.25743
G1 X128.815 Y71.3 E7.27787
G1 X128.491 Y71.035 E7.29876
G1 X128.315 Y70.859 E7.31117
G1 X128.055 Y70.543 E7.33159
G1 X127.862 Y70.182 E7.35201
G1 X127.742 Y69.79 E7.37247
G1 X127.7 Y69.374 E7.39333
G1 X127.7 Y64.726 E7.62521
G1 X127.728 Y64.442 E7.63945
G0 F2160 X127.74 Y64.319
G0 X127.858 Y63.927
M204 S3000
M205 X10 Y10
G0 F3000 X128.457 Y64.057
M204 S1800
M205 X8 Y8
G1 F3600 E7.66604
G1 F2400 X128.739 Y63.665 E7.69014
G1 X128.915 Y63.489 E7.70255
G1 X129.186 Y63.275 E7.71978
G1 X129.5 Y63.128 E7.73708
G1 X129.976 Y63.05 E7.76114
G1 X134.624 Y63.05 E7.99303
G1 X134.968 Y63.09 E8.01031
G1 X135.293 Y63.207 E8.02754
G1 X135.685 Y63.489 E8.05163
G1 X135.861 Y63.665 E8.06405
G1 X136.075 Y63.936 E8.08128
G1 X136.222 Y64.25 E8.09858
G1 X136.3 Y64.726 E8.12264
G1 X136.3 Y69.374 E8.35453
G1 X136.26 Y69.718 E8.37181
G1 X136.143 Y70.043 E8.38904
G1 X135.861 Y70.435 E8.41313
G1 X135.685 Y70.611 E8.42555
G1 X135.414 Y70.825 E8.44278
G1 X135.1 Y70.972 E8.46008
G1 X134.624 Y71.05 E8.48414
G1 X129.976 Y71.05 E8.71603
G1 X129.632 Y71.01 E8.73331
G1 X129.307 Y70.893 E8.75054
G1 X128.915 Y70.611 E8.77463
G1 X128.739 Y70.435 E8.78705
G1 X128.525 Y70.164 E8.80428
G1 X128.378 Y69.85 E8.82158
G1 X128.3 Y69.374 E8.84564
G1 X128.3 Y64.726 E9.07753
G1 X128.319 Y64.568 E9.08547
G0 F2160 X128.34 Y64.382
G0 X128.457 Y64.057
M204 S3000
M205 X10 Y10
G0 F3000 X128.94 Y64.461
M204 S1800
M205 X8 Y8
G1 F3600 E9.11206
G1 F2400 X129.056 Y64.22 E9.1254
G1 X129.164 Y64.09 E9.13384
G1 X129.34 Y63.914 E9.14625
G1 X129.555 Y63.755 E9.1596
G1 X129.807 Y63.666 E9.17293
G1 X129.976 Y63.65 E9.1814
G1 X134.624 Y63.65 E9.41329
G1 X134.889 Y63.69 E9.42666
G1 X135.13 Y63.806 E9.44
G1 X135.26 Y63.914 E9.44843
G1 X135.436 Y64.09 E9.46085
G1 X135.595 Y64.305 E9.47419
G1 X135.684 Y64.557 E9.48753
G1 X135.7 Y64.726 E9.49599
G1 X135.7 Y69.374 E9.72788
G1 X135.66 Y69.639 E9.74126
G1 X135.544 Y69.88 E9.7546
G1 X135.436 Y70.01 E9.76303
G1 X135.26 Y70.186 E9.77545
G1 X135.045 Y70.345 E9.78879
G1 X134.793 Y70.434 E9.80212
G1 X134.624 Y70.45 E9.81059
G1 X129.976 Y70.45 E10.04248
G1 X129.711 Y70.41 E10.05585
G1 X129.47 Y70.294 E10.0692
G1 X129.34 Y70.186 E10.07763
G1 X129.164 Y70.01 E10.09005
G1 X129.005 Y69.795 E10.10339
G1 X128.916 Y69.543 E10.11672
G1 X128.9 Y69.374 E10.12519
G1 X128.9 Y64.991 E10.34386
G0 F2160 X128.9 Y64.726
G0 X128.94 Y64.461
M204 S3000
M205 X10 Y10
G0 F3000 X129.539 Y64.577
M204 S1800
M205 X8 Y8
G1 F3600 E10.37045
G1 F2400 X129.588 Y64.514 E10.37443
G1 X129.764 Y64.338 E10.38685
G1 X129.897 Y64.261 E10.39452
G1 X129.976 Y64.25 E10.3985
G1 X134.624 Y64.25 E10.63039
G1 X134.773 Y64.289 E10.63807
G1 X134.836 Y64.338 E10.64205
G1 X135.012 Y64.514 E10.65447
G1 X135.089 Y64.647 E10.66214
G1 X135.1 Y64.726 E10.66612
G1 X135.1 Y69.374 E10.89801
G1 X135.061 Y69.523 E10.90569
G1 X135.012 Y69.586 E10.90967
G1 X134.836 Y69.762 E10.92209
G1 X134.703 Y69.839 E10.92976
G1 X134.624 Y69.85 E10.93374
G1 X129.976 Y69.85 E11.16563
G1 X129.827 Y69.811 E11.17331
G1 X129.764 Y69.762 E11.17729
G1 X129.588 Y69.586 E11.18971
G1 X129.511 Y69.453 E11.19738
G1 X129.5 Y69.374 E11.20136
G1 X129.5 Y65.105 E11.41434
G0 F2160 X129.5 Y64.726
G0 X129.539 Y64.577
M204 S3000
M205 X10 Y10
G1 F3600 E5.41434
G0 F3000 X129.135 Y64.577
G0 X110.482 Y98.905
M204 S1800
M205 X8 Y8
G1 F3600 E11.44093
G1 F2400 X110.971 Y99.173 E11.46875
G1 X111.418 Y99.508 E11.49662
G1 X111.811 Y99.904 E11.52445
G1 X112.238 Y100.505 E11.56123
G1 X112.41 Y100.804 E11.57844
G1 X112.653 Y101.307 E11.60631
G1 X112.821 Y101.839 E11.63414
G1 X112.912 Y102.39 E11.66201
G1 X112.924 Y102.948 E11.68985
G1 X112.856 Y103.502 E11.7177
G1 X112.709 Y104.04 E11.74552
G1 X112.415 Y104.684 E11.78084
G1 X109.032 Y110.605 E12.12106
G1 X108.721 Y111.068 E12.14889
G1 X108.347 Y111.483 E12.17676
G1 X107.918 Y111.84 E12.2046
G1 X107.442 Y112.132 E12.23246
G1 X106.93 Y112.353 E12.26028
G1 X106.391 Y112.498 E12.28813
G1 X105.837 Y112.565 E12.31597
G1 X105.279 Y112.553 E12.34382
G1 X105.066 Y112.515 E12.35461
G1 X103.097 Y114.257 E12.48577
G1 X103.097 Y133.843 E13.46292
G1 X104.875 Y135.417 E13.58139
G1 X105.197 Y135.356 E13.59774
G1 X105.755 Y135.332 E13.6256
G1 X106.31 Y135.387 E13.65343
G1 X106.852 Y135.521 E13.68128
G1 X107.369 Y135.731 E13.70912
G1 X107.851 Y136.013 E13.73698
G1 X108.288 Y136.361 E13.76485
G1 X108.67 Y136.767 E13.79267
G1 X109.032 Y137.295 E13.8246
G1 X112.415 Y143.216 E14.16482
G1 X112.657 Y143.719 E14.19267
G1 X112.824 Y144.252 E14.22054
G1 X112.913 Y144.803 E14.24838
G1 X112.923 Y145.361 E14.27622
G1 X112.853 Y145.915 E14.30408
G1 X112.705 Y146.453 E14.33192
G1 X112.41 Y147.096 E14.36722
G1 X112.238 Y147.395 E14.38443
G1 X111.925 Y147.857 E14.41227
G1 X111.55 Y148.271 E14.44013
G1 X111.12 Y148.626 E14.46795
G1 X110.643 Y148.917 E14.49583
G1 X110.13 Y149.136 E14.52366
G1 X109.591 Y149.28 E14.55149
G1 X108.857 Y149.35 E14.58828
G1 X103.084 Y149.35 E14.87629
G1 X102.527 Y149.31 E14.90415
G1 X101.982 Y149.191 E14.93198
G1 X101.288 Y148.912 E14.9693
G1 X101.155 Y148.843 E14.97678
G1 X100.679 Y148.551 E15.00464
G1 X100.25 Y148.194 E15.03248
G1 X99.745 Y147.602 E15.0713
G1 X90.215 Y133.85 E15.90603
G1 X87.376 Y133.85 E16.04767
G1 X86.819 Y133.81 E16.07553
G1 X86.274 Y133.691 E16.10336
G1 X85.751 Y133.495 E16.13123
G1 X85.262 Y133.227 E16.15905
G1 X84.618 Y132.708 E16.20031
G1 X84.442 Y132.532 E16.21273
G1 X84.077 Y132.11 E16.24057
G1 X83.775 Y131.64 E16.26844
G1 X83.544 Y131.132 E16.29628
G1 X83.388 Y130.596 E16.32413
G1 X83.3 Y129.774 E16.36537
G1 X83.3 Y118.126 E16.9465
G1 X83.34 Y117.569 E16.97436
G1 X83.459 Y117.024 E17.00219
G1 X83.655 Y116.501 E17.03005
G1 X83.923 Y116.012 E17.05787
G1 X84.442 Y115.368 E17.09914
G1 X84.618 Y115.192 E17.11155
G1 X85.04 Y114.827 E17.13939
G1 X85.51 Y114.525 E17.16726
G1 X86.018 Y114.294 E17.1951
G1 X86.554 Y114.138 E17.22295
G1 X87.107 Y114.059 E17.25082
G1 X87.445 Y114.051 E17.26769
G1 X90.181 Y114.099 E17.40421
G1 X99.745 Y100.298 E18.24192
G1 X100.095 Y99.863 E18.26977
G1 X100.504 Y99.482 E18.29766
G1 X101.155 Y99.057 E18.33645
G1 X101.288 Y98.988 E18.34392
G1 X101.801 Y98.767 E18.37179
G1 X102.34 Y98.622 E18.39964
G1 X103.084 Y98.55 E18.43693
G1 X108.857 Y98.55 E18.72494
G1 X109.414 Y98.59 E18.7528
G1 X109.959 Y98.709 E18.78063
G1 X109.983 Y98.718 E18.78191
G0 F2160 X110.482 Y98.905
M204 S3000
M205 X10 Y10
G0 F3000 X110.343 Y99.504
M204 S1800
M205 X8 Y8
G1 F3600 E18.80851
G1 F2400 X110.782 Y99.77 E18.83411
G1 X111.175 Y100.101 E18.85975
G1 X111.511 Y100.489 E18.88536
G1 X111.717 Y100.805 E18.90417
G1 X111.889 Y101.104 E18.92138
G1 X112.11 Y101.567 E18.94698
G1 X112.256 Y102.059 E18.97258
G1 X112.324 Y102.568 E18.9982
G1 X112.312 Y103.082 E19.02385
G1 X112.221 Y103.587 E19.04945
G1 X112.052 Y104.072 E19.07508
G1 X111.894 Y104.386 E19.09261
G1 X108.511 Y110.307 E19.43283
G1 X108.223 Y110.732 E19.45844
G1 X107.872 Y111.106 E19.48403
G1 X107.467 Y111.422 E19.50966
G1 X107.018 Y111.671 E19.53528
G1 X106.536 Y111.848 E19.56089
G1 X106.032 Y111.947 E19.58652
G1 X105.519 Y111.968 E19.61213
G1 X104.886 Y111.873 E19.64407
G1 X102.497 Y113.986 E19.80319
G1 X102.497 Y134.114 E20.80738
G1 X104.703 Y136.066 E20.95433
G1 X104.802 Y136.04 E20.95944
G1 X105.307 Y135.947 E20.98506
G1 X105.82 Y135.935 E21.01066
G1 X106.329 Y136.002 E21.03627
G1 X106.822 Y136.147 E21.06191
G1 X107.286 Y136.366 E21.08751
G1 X107.71 Y136.655 E21.11311
G1 X108.085 Y137.007 E21.13877
G1 X108.511 Y137.593 E21.17491
G1 X111.894 Y143.514 E21.51513
G1 X112.114 Y143.978 E21.54075
G1 X112.258 Y144.471 E21.56637
G1 X112.325 Y144.98 E21.59199
G1 X112.311 Y145.493 E21.61759
G1 X112.218 Y145.998 E21.64321
G1 X112.048 Y146.483 E21.66885
G1 X111.889 Y146.796 E21.68636
G1 X111.717 Y147.095 E21.70357
G1 X111.428 Y147.519 E21.72917
G1 X111.076 Y147.893 E21.75479
G1 X110.67 Y148.208 E21.78043
G1 X110.22 Y148.455 E21.80604
G1 X109.737 Y148.63 E21.83167
G1 X109.233 Y148.728 E21.85729
G1 X108.857 Y148.75 E21.87608
G1 X103.084 Y148.75 E22.16409
G1 X102.572 Y148.71 E22.18972
G1 X102.073 Y148.591 E22.21531
G1 X101.564 Y148.379 E22.24282
G1 X101.431 Y148.31 E22.25029
G1 X100.995 Y148.039 E22.2759
G1 X100.607 Y147.704 E22.30148
G1 X100.239 Y147.261 E22.33021
G1 X90.53 Y133.25 E23.18065
G1 X87.376 Y133.25 E23.338
G1 X86.864 Y133.21 E23.36362
G1 X86.365 Y133.091 E23.38922
G1 X85.89 Y132.896 E23.41483
G1 X85.451 Y132.63 E23.44044
G1 X85.043 Y132.283 E23.46717
G1 X84.867 Y132.107 E23.47958
G1 X84.533 Y131.717 E23.5052
G1 X84.264 Y131.28 E23.5308
G1 X84.066 Y130.806 E23.55643
G1 X83.943 Y130.308 E23.58202
G1 X83.9 Y129.774 E23.60875
G1 X83.9 Y118.126 E24.18987
G1 X83.94 Y117.614 E24.21549
G1 X84.059 Y117.115 E24.24109
G1 X84.254 Y116.64 E24.2667
G1 X84.52 Y116.201 E24.29231
G1 X84.867 Y115.793 E24.31903
G1 X85.043 Y115.617 E24.33145
G1 X85.433 Y115.283 E24.35707
G1 X85.87 Y115.014 E24.38267
G1 X86.344 Y114.816 E24.4083
G1 X86.842 Y114.693 E24.43389
G1 X87.434 Y114.651 E24.4635
G1 X90.492 Y114.705 E24.61609
G1 X100.239 Y100.639 E25.46986
G1 X100.563 Y100.241 E25.49546
G1 X100.945 Y99.899 E25.52104
G1 X101.431 Y99.59 E25.54978
G1 X101.564 Y99.521 E25.55725
G1 X102.037 Y99.32 E25.58289
G1 X102.535 Y99.196 E25.6085
G1 X103.084 Y99.15 E25.63598
G1 X108.857 Y99.15 E25.924
G1 X109.369 Y99.19 E25.94962
G1 X109.849 Y99.305 E25.97424
G0 F2160 X109.868 Y99.309
G0 X110.343 Y99.504
M204 S3000
M205 X10 Y10
G0 F3000 X109.769 Y99.909
M204 S1800
M205 X8 Y8
G1 F3600 E26.00084
G1 F2400 X110.191 Y100.102 E26.02399
G1 X110.573 Y100.365 E26.04712
G1 X110.905 Y100.69 E26.0703
G1 X111.197 Y101.104 E26.09558
G1 X111.369 Y101.403 E26.11279
G1 X111.565 Y101.824 E26.13596
G1 X111.687 Y102.272 E26.15912
G1 X111.729 Y102.734 E26.18227
G1 X111.692 Y103.197 E26.20544
G1 X111.575 Y103.647 E26.22864
G1 X111.373 Y104.088 E26.25284
G1 X107.99 Y110.009 E26.59305
G1 X107.726 Y110.391 E26.61622
G1 X107.4 Y110.722 E26.6394
G1 X107.023 Y110.993 E26.66256
G1 X106.605 Y111.194 E26.6857
G1 X106.158 Y111.321 E26.70888
G1 X105.696 Y111.37 E26.73206
G1 X105.233 Y111.338 E26.75522
G1 X104.955 Y111.28 E26.76938
G1 X104.72 Y111.218 E26.78151
G1 X101.897 Y113.716 E26.96957
G1 X101.897 Y134.384 E28.0007
