;FLAVOR:Marlin
;TIME:552
;Filament used: 0.556029m
;Layer height: 0.2
;MINX:78.04
;MINY:97.408
;MINZ:0.2
;MAXX:131.959
;MAXY:112.591
;MAXZ:8
;Generated with Cura_SteamEngine 4.6.1
M140 S65
M105
M190 S65
M104 S200
M105
M109 S200
M82 ;absolute extrusion mode
G21 ;metric values
G90 ;absolute positioning
M82 ;set extruder to absolute mode
M107 ;start with the fan off
G28 X0 Y0 ;move X/Y to min endstops
G28 Z0 ;move Z to min endstops
G1 Z15.0 F100 ;move the platform down 15mm
G92 E0 ;zero the extruded length
G1 F200 E3 ;extrude 3mm of feed stock
G92 E0 ;zero the extruded length again
G1 F100
G0 Y20 F100
M117 Printing...
G5
G92 E0
G92 E0
G1 F2400 E-6
;LAYER_COUNT:40
;LAYER:0
M106 S255
M204 S3000
M205 X10 Y10
G1 F600 Z0.275
G0 F3000 X125.066 Y99.099 Z0.275
M204 S1800
M205 X8 Y8
;TYPE:SKIRT
G1 F600 Z0.2
G1 F2400 E0
G1 X125.713 Y99.148 E0.03021
G1 X126.35 Y99.276 E0.06047
G1 X126.966 Y99.482 E0.09071
G1 X127.553 Y99.762 E0.121
G1 X128.1 Y100.111 E0.15121
G1 X128.601 Y100.525 E0.18147
G1 X129.046 Y100.998 E0.21171
G1 X129.431 Y101.522 E0.24199
G1 X129.748 Y102.089 E0.27224
G1 X129.993 Y102.69 E0.30246
G1 X130.162 Y103.317 E0.3327
G1 X130.269 Y104.276 E0.37763
G1 X130.279 Y104.793 E0.40171
G1 X130.269 Y105.692 E0.44357
G1 X130.221 Y106.34 E0.47383
G1 X130.092 Y106.977 E0.50409
G1 X129.887 Y107.593 E0.53432
G1 X129.608 Y108.179 E0.56454
G1 X129.258 Y108.727 E0.59482
G1 X128.844 Y109.228 E0.62508
G1 X128.372 Y109.674 E0.65532
G1 X127.849 Y110.058 E0.68553
G1 X127.282 Y110.376 E0.7158
G1 X126.68 Y110.621 E0.74607
G1 X126.053 Y110.791 E0.77632
G1 X125.188 Y110.895 E0.81689
G1 X124.67 Y110.911 E0.84102
G1 X85.639 Y110.911 E2.65846
G1 X84.941 Y110.902 E2.69097
G1 X84.293 Y110.853 E2.72123
G1 X83.656 Y110.726 E2.75147
G1 X83.04 Y110.521 E2.7817
G1 X82.453 Y110.242 E2.81197
G1 X81.905 Y109.893 E2.84222
G1 X81.404 Y109.48 E2.87245
G1 X80.957 Y109.008 E2.90272
G1 X80.572 Y108.485 E2.93296
G1 X80.254 Y107.918 E2.96323
G1 X80.008 Y107.317 E2.99347
G1 X79.838 Y106.69 E3.02372
G1 X79.731 Y105.763 E3.06717
G1 X79.72 Y105.042 E3.10075
G1 X79.731 Y104.298 E3.1354
G1 X79.78 Y103.651 E3.16561
G1 X79.909 Y103.014 E3.19588
G1 X80.115 Y102.398 E3.22612
G1 X80.395 Y101.812 E3.25636
G1 X80.746 Y101.265 E3.28663
G1 X81.16 Y100.765 E3.31685
G1 X81.633 Y100.319 E3.34712
G1 X82.157 Y99.935 E3.37737
G1 X82.724 Y99.618 E3.40762
G1 X83.326 Y99.374 E3.43787
G1 X83.953 Y99.205 E3.46811
G1 X84.862 Y99.1 E3.51072
G1 X124.292 Y99.088 E5.34674
G1 X125.066 Y99.099 E5.38279
M204 S3000
M205 X10 Y10
G0 F3000 X125.074 Y98.539
M204 S1800
M205 X8 Y8
G1 F2400 X125.755 Y98.588 E5.41458
G1 X126.426 Y98.717 E5.44639
G1 X127.077 Y98.924 E5.4782
G1 X127.7 Y99.205 E5.51003
G1 X128.286 Y99.557 E5.54186
G1 X128.826 Y99.975 E5.57366
G1 X129.314 Y100.453 E5.60546
G1 X129.743 Y100.985 E5.63729
G1 X130.107 Y101.563 E5.66909
G1 X130.401 Y102.18 E5.70092
G1 X130.62 Y102.827 E5.73272
G1 X130.763 Y103.495 E5.76453
G1 X130.829 Y104.265 E5.80052
G1 X130.839 Y104.782 E5.8246
G1 X130.829 Y105.7 E5.86735
G1 X130.78 Y106.381 E5.89914
G1 X130.651 Y107.052 E5.93096
G1 X130.445 Y107.704 E5.96279
G1 X130.165 Y108.326 E5.99456
G1 X129.813 Y108.912 E6.02639
G1 X129.395 Y109.453 E6.05822
G1 X128.917 Y109.941 E6.09003
G1 X128.386 Y110.37 E6.12182
G1 X127.808 Y110.734 E6.15362
G1 X127.191 Y111.028 E6.18545
G1 X126.544 Y111.248 E6.21727
G1 X125.876 Y111.391 E6.24908
G1 X125.209 Y111.455 E6.28028
G1 X124.67 Y111.471 E6.30539
G1 X85.632 Y111.471 E8.12316
G1 X84.934 Y111.462 E8.15567
G1 X84.252 Y111.413 E8.18751
G1 X83.581 Y111.285 E8.21931
G1 X82.93 Y111.079 E8.25111
G1 X82.306 Y110.799 E8.28296
G1 X81.72 Y110.448 E8.31476
G1 X81.179 Y110.031 E8.34657
G1 X80.69 Y109.553 E8.37841
G1 X80.261 Y109.022 E8.4102
G1 X79.896 Y108.444 E8.44203
G1 X79.602 Y107.828 E8.47381
G1 X79.381 Y107.181 E8.50565
G1 X79.237 Y106.513 E8.53747
G1 X79.171 Y105.777 E8.57188
G1 X79.16 Y105.042 E8.6061
G1 X79.171 Y104.29 E8.64112
G1 X79.221 Y103.609 E8.67292
G1 X79.35 Y102.938 E8.70474
G1 X79.557 Y102.287 E8.73655
G1 X79.839 Y101.664 E8.76839
G1 X80.191 Y101.079 E8.80018
G1 X80.609 Y100.539 E8.83198
G1 X81.088 Y100.051 E8.86382
G1 X81.62 Y99.622 E8.89564
G1 X82.199 Y99.259 E8.92746
G1 X82.816 Y98.966 E8.95927
G1 X83.463 Y98.747 E8.99107
G1 X84.131 Y98.604 E9.02288
G1 X84.846 Y98.54 E9.05631
G1 X124.292 Y98.528 E10.89308
G1 X125.074 Y98.539 E10.9295
M204 S3000
M205 X10 Y10
G0 F3000 X125.082 Y97.979
M204 S1800
M205 X8 Y8
G1 F2400 X125.795 Y98.029 E10.96278
G1 X126.499 Y98.158 E10.99611
G1 X127.183 Y98.366 E11.0294
G1 X127.84 Y98.648 E11.06269
G1 X128.462 Y99.002 E11.09601
G1 X129.04 Y99.423 E11.12931
G1 X129.568 Y99.906 E11.16263
G1 X130.038 Y100.444 E11.19589
G1 X130.446 Y101.032 E11.22922
G1 X130.785 Y101.662 E11.26253
G1 X131.052 Y102.325 E11.29581
G1 X131.243 Y103.015 E11.32915
G1 X131.356 Y103.721 E11.36244
G1 X131.389 Y104.254 E11.38731
G1 X131.399 Y104.771 E11.41139
G1 X131.389 Y105.707 E11.45498
G1 X131.34 Y106.421 E11.4883
G1 X131.21 Y107.124 E11.52159
G1 X131.004 Y107.809 E11.5549
G1 X130.722 Y108.466 E11.58819
G1 X130.368 Y109.088 E11.62151
G1 X129.947 Y109.667 E11.65485
G1 X129.465 Y110.195 E11.68814
G1 X128.926 Y110.665 E11.72144
G1 X128.339 Y111.073 E11.75473
G1 X127.709 Y111.413 E11.78806
G1 X127.046 Y111.68 E11.82134
G1 X126.356 Y111.871 E11.85468
G1 X125.65 Y111.985 E11.88798
G1 X124.91 Y112.027 E11.92249
G1 X85.707 Y112.031 E13.74795
G1 X84.926 Y112.021 E13.78432
G1 X84.213 Y111.972 E13.8176
G1 X83.509 Y111.844 E13.85092
G1 X82.824 Y111.638 E13.88422
G1 X82.167 Y111.356 E13.91751
G1 X81.545 Y111.003 E13.95082
G1 X80.966 Y110.583 E13.98412
G1 X80.437 Y110.101 E14.01745
G1 X79.966 Y109.563 E14.05074
G1 X79.558 Y108.976 E14.08403
G1 X79.218 Y108.346 E14.11736
G1 X78.95 Y107.683 E14.15066
G1 X78.758 Y106.994 E14.18397
G1 X78.644 Y106.288 E14.21727
G1 X78.602 Y105.454 E14.25615
G1 X78.601 Y104.946 E14.27981
G1 X78.611 Y104.282 E14.31073
G1 X78.661 Y103.568 E14.34406
G1 X78.791 Y102.865 E14.37735
G1 X78.999 Y102.18 E14.41068
G1 X79.282 Y101.523 E14.44399
G1 X79.636 Y100.902 E14.47728
G1 X80.058 Y100.324 E14.5106
G1 X80.541 Y99.797 E14.54389
G1 X81.08 Y99.327 E14.57719
G1 X81.668 Y98.92 E14.61049
G1 X82.298 Y98.581 E14.6438
G1 X82.962 Y98.315 E14.67711
G1 X83.651 Y98.124 E14.7104
G1 X84.358 Y98.011 E14.74374
G1 X85.15 Y97.972 E14.78066
G1 X124.292 Y97.968 E16.60328
G1 X125.082 Y97.979 E16.64007
M204 S3000
M205 X10 Y10
G0 F3000 X125.09 Y97.419
M204 S1800
M205 X8 Y8
G1 F2400 X125.834 Y97.469 E16.67479
G1 X126.568 Y97.599 E16.7095
G1 X127.285 Y97.807 E16.74426
G1 X127.975 Y98.091 E16.779
G1 X128.631 Y98.446 E16.81374
G1 X129.244 Y98.87 E16.84844
G1 X129.81 Y99.357 E16.88321
G1 X130.319 Y99.901 E16.9179
G1 X130.768 Y100.497 E16.95265
G1 X131.15 Y101.138 E16.98739
G1 X131.461 Y101.816 E17.02213
G1 X131.698 Y102.523 E17.05685
G1 X131.858 Y103.252 E17.0916
G1 X131.949 Y104.243 E17.13794
G1 X131.959 Y104.76 E17.16202
G1 X131.949 Y105.715 E17.20649
G1 X131.899 Y106.459 E17.24121
G1 X131.769 Y107.194 E17.27597
G1 X131.562 Y107.91 E17.31067
G1 X131.279 Y108.601 E17.34544
G1 X130.924 Y109.256 E17.38013
G1 X130.5 Y109.871 E17.41492
G1 X130.014 Y110.436 E17.44962
G1 X129.469 Y110.946 E17.48438
G1 X128.874 Y111.395 E17.51909
G1 X128.233 Y111.777 E17.55383
G1 X127.556 Y112.089 E17.58854
G1 X126.848 Y112.326 E17.62331
G1 X126.12 Y112.487 E17.65803
G1 X125.251 Y112.574 E17.69869
G1 X124.67 Y112.591 E17.72576
G1 X85.707 Y112.591 E19.54004
G1 X84.919 Y112.581 E19.57673
G1 X84.175 Y112.532 E19.61145
G1 X83.44 Y112.403 E19.6462
G1 X82.724 Y112.196 E19.68091
G1 X82.033 Y111.914 E19.71566
G1 X81.377 Y111.559 E19.75039
G1 X80.762 Y111.136 E19.78515
G1 X80.197 Y110.65 E19.81985
G1 X79.686 Y110.106 E19.8546
G1 X79.237 Y109.511 E19.88931
G1 X78.854 Y108.871 E19.92404
G1 X78.541 Y108.194 E19.95877
G1 X78.303 Y107.487 E19.99351
G1 X78.142 Y106.758 E20.02827
G1 X78.051 Y105.807 E20.07276
G1 X78.04 Y105.284 E20.09711
G1 X78.051 Y104.273 E20.14419
G1 X78.102 Y103.529 E20.17892
G1 X78.233 Y102.795 E20.21364
G1 X78.441 Y102.078 E20.2484
G1 X78.725 Y101.389 E20.2831
G1 X79.081 Y100.733 E20.31786
G1 X79.505 Y100.119 E20.3526
G1 X79.992 Y99.555 E20.3873
G1 X80.537 Y99.045 E20.42205
G1 X81.134 Y98.597 E20.45681
G1 X81.774 Y98.216 E20.49149
G1 X82.453 Y97.905 E20.52627
G1 X83.16 Y97.668 E20.56099
G1 X83.889 Y97.509 E20.59573
G1 X84.814 Y97.421 E20.639
G1 X85.33 Y97.409 E20.66303
G1 X124.292 Y97.408 E22.47727
G1 X125.09 Y97.419 E22.51443
M204 S3000
M205 X10 Y10
G1 F2400 E16.51443
;MESH:rod connector.obj
G0 F3000 X124.705 Y103.704
G0 X124.706 Y104.662
G0 X85.38 Y105.281
G0 X85.28 Y105.351
M204 S1800
M205 X8 Y8
;TYPE:WALL-OUTER
G1 F2400 E22.51443
G1 F1500 X85.28 Y104.649 E22.54712
G1 X124.44 Y104.648 E24.37057
G1 X124.72 Y104.648 E24.38361
G1 X124.72 Y104.928 E24.39205
G1 X124.72 Y105.351 E24.41174
G1 X85.28 Y105.351 E26.24824
M204 S3000
M205 X10 Y10
G0 F3000 X85.28 Y105.151
G0 X85.765 Y104.998
M204 S1800
M205 X8 Y8
;TYPE:SKIN
G1 F1500 X86.048 Y104.998 E26.25186
G1 X124.231 Y104.998 E26.74075
M204 S3000
M205 X10 Y10
G0 F3000 X124.307 Y105.209
G1 F2400 E20.74075
;MESH:NONMESH
G0 F600 X124.307 Y105.209 Z0.4
G0 F3000 X86 Y105.251
G0 X86 Y105.441
;TIME_ELAPSED:23.895381
;LAYER:1
M140 S65
M204 S1800
M205 X8 Y8
;TYPE:WALL-INNER
;MESH:rod connector.obj
G1 F2400 E26.74075
G1 F2250 X86 Y105.242 E26.74737
G1 X86 Y104.56 E26.77006
G1 X123.801 Y104.559 E28.02732
G1 X124 Y104.559 E28.03394
G1 X124 Y104.758 E28.03822
G1 X124 Y105.44 E28.06091
G1 X86.199 Y105.441 E29.31817
G1 X86 Y105.441 E29.32245
M204 S3000
M205 X10 Y10
G0 F4500 X85.799 Y105.841
M204 S1800
M205 X8 Y8
G1 F2250 X85.6 Y105.841 E29.32907
G1 X85.6 Y105.642 E29.33336
G1 X85.6 Y104.16 E29.38265
G1 X124.201 Y104.159 E30.66652
G1 X124.4 Y104.159 E30.67314
G1 X124.4 Y104.358 E30.67742
G1 X124.4 Y105.84 E30.72671
G1 X85.799 Y105.841 E32.01059
M204 S3000
M205 X10 Y10
G0 F4500 X85.4 Y106.241
M204 S1800
M205 X8 Y8
;TYPE:WALL-OUTER
G1 F2250 X85.2 Y106.241 E32.01724
G1 X85.2 Y106.041 E32.02155
G1 X85.2 Y103.76 E32.09741
G1 X124.6 Y103.759 E33.40786
G1 X124.8 Y103.759 E33.41452
G1 X124.8 Y103.959 E33.41882
G1 X124.8 Y106.24 E33.49469
G1 X85.4 Y106.241 E34.80514
M204 S3000
M205 X10 Y10
G0 F4500 X85.2 Y106.241
G0 X85.67 Y105.771
G0 X86.39 Y105.051
M204 S1800
M205 X8 Y8
;TYPE:SKIN
G1 F1350 X86.39 Y104.95 E34.8085
G1 X123.61 Y104.949 E36.04644
G1 X123.61 Y105.05 E36.0498
G1 X86.39 Y105.051 E37.28774
M204 S3000
M205 X10 Y10
;MESH:NONMESH
G0 F600 X86.39 Y105.051 Z0.6
G0 F4500 X86 Y105.834
;TIME_ELAPSED:34.273130
;LAYER:2
G1 F2400 E31.28774
M204 S1800
M205 X8 Y8
;TYPE:WALL-INNER
;MESH:rod connector.obj
G1 F2400 E37.28774
G1 F3000 X86 Y105.635 E37.29436
G1 X86 Y104.167 E37.34319
G1 X123.801 Y104.166 E38.60045
G1 X124 Y104.166 E38.60707
G1 X124 Y104.365 E38.61135
G1 X124 Y105.833 E38.66018
G1 X86.199 Y105.834 E39.91745
G1 X86 Y105.834 E39.92173
M204 S3000
M205 X10 Y10
G0 F6000 X85.799 Y106.234
M204 S1800
M205 X8 Y8
G1 F3000 X85.6 Y106.234 E39.92835
G1 X85.6 Y106.035 E39.93263
G1 X85.6 Y103.767 E40.00806
G1 X124.201 Y103.766 E41.29194
G1 X124.4 Y103.766 E41.29856
G1 X124.4 Y103.965 E41.30284
G1 X124.4 Y106.233 E41.37827
G1 X85.799 Y106.234 E42.66215
M204 S3000
M205 X10 Y10
G0 F6000 X85.4 Y106.634
M204 S1800
M205 X8 Y8
;TYPE:WALL-OUTER
G1 F3000 X85.2 Y106.634 E42.6688
G1 X85.2 Y106.434 E42.67311
G1 X85.2 Y103.367 E42.77512
G1 X124.6 Y103.366 E44.08556
G1 X124.8 Y103.366 E44.09222
G1 X124.8 Y103.566 E44.09652
G1 X124.8 Y106.633 E44.19853
G1 X85.4 Y106.634 E45.50898
M204 S3000
M205 X10 Y10
G0 F6000 X85.2 Y106.634
G0 X85.67 Y106.164
G0 X86.39 Y105.444
M204 S1800
M205 X8 Y8
;TYPE:SKIN
G1 F1200 X86.39 Y104.557 E45.53848
G1 X123.61 Y104.556 E46.77643
G1 X123.61 Y105.443 E46.80593
G1 X86.39 Y105.444 E48.04387
M204 S3000
M205 X10 Y10
G0 F6000 X86.634 Y104.736
M204 S1800
M205 X8 Y8
G1 F1200 X87.16 Y105.262 E48.06861
M204 S3000
M205 X10 Y10
G0 F6000 X87.2 Y104.736
M204 S1800
M205 X8 Y8
G1 F1200 X87.726 Y105.262 E48.09335
M204 S3000
M205 X10 Y10
G0 F6000 X87.766 Y104.736
M204 S1800
M205 X8 Y8
G1 F1200 X88.292 Y105.262 E48.11809
M204 S3000
M205 X10 Y10
G0 F6000 X88.331 Y104.736
M204 S1800
M205 X8 Y8
G1 F1200 X88.857 Y105.262 E48.14284
M204 S3000
M205 X10 Y10
G0 F6000 X88.897 Y104.736
M204 S1800
M205 X8 Y8
G1 F1200 X89.423 Y105.262 E48.16758
M204 S3000
M205 X10 Y10
G0 F6000 X89.463 Y104.736
M204 S1800
M205 X8 Y8
G1 F1200 X89.989 Y105.262 E48.19232
M204 S3000
M205 X10 Y10
G0 F6000 X90.028 Y104.736
M204 S1800
M205 X8 Y8
G1 F1200 X90.554 Y105.262 E48.21706
M204 S3000
M205 X10 Y10
G0 F6000 X90.594 Y104.736
M204 S1800
M205 X8 Y8
G1 F1200 X91.12 Y105.262 E48.2418
M204 S3000
M205 X10 Y10
G0 F6000 X91.16 Y104.736
M204 S1800
M205 X8 Y8
G1 F1200 X91.686 Y105.262 E48.26654
M204 S3000
M205 X10 Y10
G0 F6000 X91.725 Y104.736
M204 S1800
M205 X8 Y8
G1 F1200 X92.251 Y105.262 E48.29128
M204 S3000
M205 X10 Y10
G0 F6000 X92.291 Y104.736
M204 S1800
M205 X8 Y8
G1 F1200 X92.817 Y105.262 E48.31603
M204 S3000
M205 X10 Y10
G0 F6000 X92.857 Y104.736
M204 S1800
M205 X8 Y8
G1 F1200 X93.383 Y105.262 E48.34077
M204 S3000
M205 X10 Y10
G0 F6000 X93.422 Y104.736
M204 S1800
M205 X8 Y8
G1 F1200 X93.949 Y105.262 E48.36553
M204 S3000
M205 X10 Y10
G0 F6000 X93.988 Y104.736
M204 S1800
M205 X8 Y8
G1 F1200 X94.514 Y105.262 E48.39027
M204 S3000
M205 X10 Y10
G0 F6000 X94.554 Y104.736
M204 S1800
M205 X8 Y8
G1 F1200 X95.08 Y105.262 E48.41502
M204 S3000
M205 X10 Y10
G0 F6000 X95.12 Y104.736
M204 S1800
M205 X8 Y8
G1 F1200 X95.646 Y105.262 E48.43976
M204 S3000
M205 X10 Y10
G0 F6000 X95.685 Y104.736
M204 S1800
M205 X8 Y8
G1 F1200 X96.211 Y105.262 E48.4645
M204 S3000
M205 X10 Y10
G0 F6000 X96.251 Y104.736
M204 S1800
M205 X8 Y8
G1 F1200 X96.777 Y105.262 E48.48924
M204 S3000
M205 X10 Y10
G0 F6000 X96.817 Y104.736
M204 S1800
M205 X8 Y8
G1 F1200 X97.343 Y105.262 E48.51398
M204 S3000
M205 X10 Y10
G0 F6000 X97.382 Y104.736
M204 S1800
M205 X8 Y8
G1 F1200 X97.908 Y105.262 E48.53872
M204 S3000
M205 X10 Y10
G0 F6000 X97.948 Y104.736
M204 S1800
M205 X8 Y8
G1 F1200 X98.474 Y105.262 E48.56346
M204 S3000
M205 X10 Y10
G0 F6000 X98.514 Y104.736
M204 S1800
M205 X8 Y8
G1 F1200 X99.04 Y105.262 E48.58821
M204 S3000
M205 X10 Y10
G0 F6000 X99.079 Y104.736
M204 S1800
M205 X8 Y8
G1 F1200 X99.605 Y105.262 E48.61295
M204 S3000
M205 X10 Y10
G0 F6000 X99.645 Y104.736
M204 S1800
M205 X8 Y8
G1 F1200 X100.171 Y105.262 E48.63769
M204 S3000
M205 X10 Y10
G0 F6000 X100.211 Y104.736
M204 S1800
M205 X8 Y8
G1 F1200 X100.737 Y105.262 E48.66243
M204 S3000
M205 X10 Y10
G0 F6000 X100.776 Y104.736
M204 S1800
M205 X8 Y8
G1 F1200 X101.302 Y105.262 E48.68717
M204 S3000
M205 X10 Y10
G0 F6000 X101.342 Y104.736
M204 S1800
M205 X8 Y8
G1 F1200 X101.868 Y105.262 E48.71191
M204 S3000
M205 X10 Y10
G0 F6000 X101.908 Y104.736
M204 S1800
M205 X8 Y8
G1 F1200 X102.434 Y105.262 E48.73665
M204 S3000
M205 X10 Y10
G0 F6000 X102.473 Y104.736
M204 S1800
M205 X8 Y8
G1 F1200 X103 Y105.262 E48.76142
M204 S3000
M205 X10 Y10
G0 F6000 X103.039 Y104.736
M204 S1800
M205 X8 Y8
G1 F1200 X103.565 Y105.262 E48.78616
M204 S3000
M205 X10 Y10
G0 F6000 X103.605 Y104.736
M204 S1800
M205 X8 Y8
G1 F1200 X104.131 Y105.262 E48.8109
M204 S3000
M205 X10 Y10
G0 F6000 X104.17 Y104.736
M204 S1800
M205 X8 Y8
G1 F1200 X104.697 Y105.262 E48.83567
M204 S3000
M205 X10 Y10
G0 F6000 X104.736 Y104.736
M204 S1800
M205 X8 Y8
G1 F1200 X105.262 Y105.262 E48.86041
M204 S3000
M205 X10 Y10
G0 F6000 X105.302 Y104.736
M204 S1800
M205 X8 Y8
G1 F1200 X105.828 Y105.262 E48.88515
M204 S3000
M205 X10 Y10
G0 F6000 X105.868 Y104.736
M204 S1800
M205 X8 Y8
G1 F1200 X106.394 Y105.262 E48.90989
M204 S3000
M205 X10 Y10
G0 F6000 X106.433 Y104.736
M204 S1800
M205 X8 Y8
G1 F1200 X106.959 Y105.262 E48.93463
M204 S3000
M205 X10 Y10
G0 F6000 X106.999 Y104.736
M204 S1800
M205 X8 Y8
G1 F1200 X107.525 Y105.262 E48.95937
M204 S3000
M205 X10 Y10
G0 F6000 X107.565 Y104.736
M204 S1800
M205 X8 Y8
G1 F1200 X108.091 Y105.262 E48.98411
M204 S3000
M205 X10 Y10
G0 F6000 X108.13 Y104.736
M204 S1800
M205 X8 Y8
G1 F1200 X108.656 Y105.262 E49.00886
M204 S3000
M205 X10 Y10
G0 F6000 X108.696 Y104.736
M204 S1800
M205 X8 Y8
G1 F1200 X109.222 Y105.262 E49.0336
M204 S3000
M205 X10 Y10
G0 F6000 X109.262 Y104.736
M204 S1800
