;FLAVOR:Marlin
;TIME:6611
;Filament used: 7.52559m
;Layer height: 0.2
;MINX:47.09
;MINY:56.74
;MINZ:0.2
;MAXX:162.91
;MAXY:153.26
;MAXZ:46
;Generated with Cura_SteamEngine 4.1.0
M140 S65
M105
M190 S65
M104 S200
M105
M109 S200
M82 ;absolute extrusion mode
G21 ;metric values
G90 ;absolute positioning
M82 ;set extruder to absolute mode
M107 ;start with the fan off
G28 X0 Y0 ;move X/Y to min endstops
G28 Z0 ;move Z to min endstops
G1 Z15.0 F100 ;move the platform down 15mm
G92 E0 ;zero the extruded length
G1 F200 E3 ;extrude 3mm of feed stock
G92 E0 ;zero the extruded length again
G1 F100
M117 Printing...
G5
G92 E0
G92 E0
G1 F2400 E-6
;LAYER_COUNT:230
;LAYER:0
M106 S255
M204 S3000
M205 X10 Y10
G0 F3000 X154.148 Y58.093 Z0.2
M204 S1800
M205 X8 Y8
;TYPE:SKIRT
G1 F2400 E0
G1 X154.339 Y57.747 E0.0184
G1 X154.564 Y57.478 E0.03473
G1 X154.728 Y57.314 E0.04553
G1 X155.034 Y57.064 E0.06393
G1 X155.385 Y56.881 E0.08236
G1 X155.765 Y56.771 E0.10078
G1 X156.114 Y56.74 E0.1171
G1 X160.786 Y56.74 E0.33465
G1 X161.179 Y56.78 E0.35304
G1 X161.557 Y56.898 E0.37148
G1 X161.903 Y57.089 E0.38988
G1 X162.172 Y57.314 E0.40621
G1 X162.336 Y57.478 E0.41701
G1 X162.586 Y57.784 E0.43541
G1 X162.769 Y58.135 E0.45384
G1 X162.879 Y58.515 E0.47227
G1 X162.91 Y58.864 E0.48858
G1 X162.91 Y63.536 E0.70613
G1 X162.87 Y63.929 E0.72452
G1 X162.752 Y64.307 E0.74296
G1 X162.561 Y64.653 E0.76136
G1 X162.336 Y64.922 E0.77769
G1 X162.172 Y65.086 E0.78849
G1 X161.866 Y65.336 E0.80689
G1 X161.515 Y65.519 E0.82533
G1 X161.135 Y65.629 E0.84375
G1 X160.786 Y65.66 E0.86006
G1 X156.114 Y65.66 E1.07761
G1 X155.721 Y65.62 E1.096
G1 X155.343 Y65.502 E1.11444
G1 X154.997 Y65.311 E1.13284
G1 X154.728 Y65.086 E1.14917
G1 X154.564 Y64.922 E1.15997
G1 X154.314 Y64.616 E1.17837
G1 X154.131 Y64.265 E1.19681
G1 X154.021 Y63.885 E1.21523
G1 X153.99 Y63.536 E1.23154
G1 X153.99 Y58.864 E1.44909
G1 X154.03 Y58.471 E1.46748
G1 X154.148 Y58.093 E1.48592
M204 S3000
M205 X10 Y10
G0 F3000 X154.707 Y58.22
M204 S1800
M205 X8 Y8
G1 F2400 X154.96 Y57.874 E1.50588
G1 X155.124 Y57.71 E1.51668
G1 X155.387 Y57.504 E1.53224
G1 X155.691 Y57.365 E1.5478
G1 X156.114 Y57.3 E1.56773
G1 X160.786 Y57.3 E1.78528
G1 X161.118 Y57.34 E1.80085
G1 X161.43 Y57.457 E1.81636
G1 X161.776 Y57.71 E1.83632
G1 X161.94 Y57.874 E1.84712
G1 X162.146 Y58.137 E1.86268
G1 X162.285 Y58.441 E1.87824
G1 X162.35 Y58.864 E1.89817
G1 X162.35 Y63.536 E2.11572
G1 X162.31 Y63.868 E2.13129
G1 X162.193 Y64.18 E2.14681
G1 X161.94 Y64.526 E2.16677
G1 X161.776 Y64.69 E2.17757
G1 X161.513 Y64.896 E2.19312
G1 X161.209 Y65.035 E2.20869
G1 X160.786 Y65.1 E2.22861
G1 X156.114 Y65.1 E2.44616
G1 X155.782 Y65.06 E2.46173
G1 X155.47 Y64.943 E2.47725
G1 X155.124 Y64.69 E2.49721
G1 X154.96 Y64.526 E2.50801
G1 X154.754 Y64.263 E2.52356
G1 X154.615 Y63.959 E2.53913
G1 X154.55 Y63.536 E2.55906
G1 X154.55 Y58.864 E2.7766
G1 X154.59 Y58.532 E2.79218
G1 X154.707 Y58.22 E2.80769
M204 S3000
M205 X10 Y10
G0 F3000 X155.15 Y58.609
M204 S1800
M205 X8 Y8
G1 F2400 X155.265 Y58.377 E2.81975
G1 X155.356 Y58.27 E2.82629
G1 X155.52 Y58.106 E2.83709
G1 X155.729 Y57.954 E2.84912
G1 X155.974 Y57.872 E2.86115
G1 X156.114 Y57.86 E2.8677
G1 X160.786 Y57.86 E3.08524
G1 X161.041 Y57.9 E3.09726
G1 X161.273 Y58.015 E3.10932
G1 X161.38 Y58.106 E3.11586
G1 X161.544 Y58.27 E3.12666
G1 X161.696 Y58.479 E3.13869
G1 X161.778 Y58.724 E3.15072
G1 X161.79 Y58.864 E3.15727
G1 X161.79 Y63.536 E3.37481
G1 X161.75 Y63.791 E3.38683
G1 X161.635 Y64.023 E3.39889
G1 X161.544 Y64.13 E3.40543
G1 X161.38 Y64.294 E3.41623
G1 X161.171 Y64.446 E3.42826
G1 X160.926 Y64.528 E3.4403
G1 X160.786 Y64.54 E3.44684
G1 X156.114 Y64.54 E3.66439
G1 X155.859 Y64.5 E3.6764
G1 X155.627 Y64.385 E3.68846
G1 X155.52 Y64.294 E3.695
G1 X155.356 Y64.13 E3.7058
G1 X155.204 Y63.921 E3.71784
G1 X155.122 Y63.676 E3.72987
G1 X155.11 Y63.536 E3.73641
G1 X155.11 Y58.864 E3.95396
G1 X155.15 Y58.609 E3.96598
M204 S3000
M205 X10 Y10
G0 F3000 X155.752 Y58.666
M204 S1800
M205 X8 Y8
G1 F2400 X155.916 Y58.502 E3.97678
G1 X156.114 Y58.42 E3.98675
G1 X160.786 Y58.42 E4.2043
G1 X160.984 Y58.502 E4.21428
G1 X161.148 Y58.666 E4.22508
G1 X161.23 Y58.864 E4.23506
G1 X161.23 Y63.536 E4.45261
G1 X161.148 Y63.734 E4.46259
G1 X160.984 Y63.898 E4.47339
G1 X160.786 Y63.98 E4.48337
G1 X156.114 Y63.98 E4.70091
G1 X155.916 Y63.898 E4.71089
G1 X155.752 Y63.734 E4.72169
G1 X155.67 Y63.536 E4.73167
G1 X155.67 Y58.864 E4.94922
G1 X155.752 Y58.666 E4.9592
M204 S3000
M205 X10 Y10
G1 F2400 E-1.0408
G0 F3000 X155.285 Y58.666
G0 X112.203 Y116.689
M204 S1800
M205 X8 Y8
G1 F2400 E4.9592
G1 X112.504 Y116.946 E4.97763
G1 X112.746 Y117.259 E4.99605
G1 X112.922 Y117.613 E5.01446
G1 X113.022 Y117.996 E5.03289
G1 X113.046 Y118.29 E5.04663
G1 X113.21 Y151.126 E6.57563
G1 X113.172 Y151.52 E6.59406
G1 X113.056 Y151.898 E6.61247
G1 X112.866 Y152.245 E6.63089
G1 X112.636 Y152.522 E6.64766
G1 X112.472 Y152.686 E6.65846
G1 X112.166 Y152.936 E6.67686
G1 X111.815 Y153.119 E6.69529
G1 X111.435 Y153.229 E6.71371
G1 X111.086 Y153.26 E6.73002
G1 X85.414 Y153.26 E7.92542
G1 X85.021 Y153.22 E7.94381
G1 X84.643 Y153.102 E7.96225
G1 X84.297 Y152.911 E7.98066
G1 X84.028 Y152.686 E7.99699
G1 X83.864 Y152.522 E8.00779
G1 X83.614 Y152.216 E8.02618
G1 X83.431 Y151.865 E8.04462
G1 X83.321 Y151.485 E8.06304
G1 X83.29 Y151.136 E8.07935
G1 X83.29 Y118.464 E9.6007
G1 X83.33 Y118.071 E9.61909
G1 X83.448 Y117.693 E9.63753
G1 X83.639 Y117.347 E9.65593
G1 X83.864 Y117.078 E9.67226
G1 X84.028 Y116.914 E9.68306
G1 X84.334 Y116.664 E9.70146
G1 X84.685 Y116.481 E9.71989
G1 X85.065 Y116.371 E9.73832
G1 X85.414 Y116.34 E9.75463
G1 X111.086 Y116.34 E10.95003
G1 X111.479 Y116.38 E10.96842
G1 X111.857 Y116.498 E10.98686
G1 X112.203 Y116.689 E11.00526
M204 S3000
M205 X10 Y10
G0 F3000 X112.007 Y117.245
M204 S1800
M205 X8 Y8
G1 F2400 X112.23 Y117.493 E11.02079
G1 X112.389 Y117.787 E11.03636
G1 X112.473 Y118.111 E11.05194
G1 X112.486 Y118.293 E11.06044
G1 X112.65 Y151.129 E12.58944
G1 X112.612 Y151.461 E12.605
G1 X112.496 Y151.774 E12.62054
G1 X112.24 Y152.126 E12.64081
G1 X112.076 Y152.29 E12.65161
G1 X111.813 Y152.496 E12.66716
G1 X111.509 Y152.635 E12.68273
G1 X111.086 Y152.7 E12.70266
G1 X85.414 Y152.7 E13.89805
G1 X85.082 Y152.66 E13.91362
G1 X84.77 Y152.543 E13.92914
G1 X84.424 Y152.29 E13.9491
G1 X84.26 Y152.126 E13.9599
G1 X84.054 Y151.863 E13.97546
G1 X83.915 Y151.559 E13.99102
G1 X83.85 Y151.136 E14.01095
G1 X83.85 Y118.464 E15.53229
G1 X83.89 Y118.132 E15.54786
G1 X84.007 Y117.82 E15.56338
G1 X84.26 Y117.474 E15.58334
G1 X84.424 Y117.31 E15.59414
G1 X84.687 Y117.104 E15.60969
G1 X84.991 Y116.965 E15.62526
G1 X85.414 Y116.9 E15.64519
G1 X111.086 Y116.9 E16.84058
G1 X111.418 Y116.94 E16.85615
G1 X111.73 Y117.057 E16.87167
G1 X112.007 Y117.245 E16.88726
M204 S3000
M205 X10 Y10
G0 F3000 X111.573 Y117.615
M204 S1800
M205 X8 Y8
G1 F2400 X111.758 Y117.796 E16.89931
G1 X111.879 Y118.024 E16.91133
G1 X111.926 Y118.296 E16.92418
G1 X112.09 Y151.132 E18.45318
G1 X112.052 Y151.387 E18.46519
G1 X111.937 Y151.619 E18.47725
G1 X111.844 Y151.73 E18.48399
G1 X111.68 Y151.894 E18.49479
G1 X111.471 Y152.046 E18.50682
G1 X111.226 Y152.128 E18.51885
G1 X111.086 Y152.14 E18.5254
G1 X85.414 Y152.14 E19.72079
G1 X85.159 Y152.1 E19.73281
G1 X84.927 Y151.985 E19.74487
G1 X84.82 Y151.894 E19.75141
G1 X84.656 Y151.73 E19.76221
G1 X84.504 Y151.521 E19.77424
G1 X84.422 Y151.276 E19.78627
G1 X84.41 Y151.136 E19.79281
G1 X84.41 Y118.464 E21.31416
G1 X84.45 Y118.209 E21.32618
G1 X84.565 Y117.977 E21.33824
G1 X84.656 Y117.87 E21.34478
G1 X84.82 Y117.706 E21.35558
G1 X85.029 Y117.554 E21.36761
G1 X85.274 Y117.472 E21.37964
G1 X85.414 Y117.46 E21.38618
G1 X111.086 Y117.46 E22.58158
G1 X111.341 Y117.5 E22.5936
G1 X111.573 Y117.615 E22.60565
M204 S3000
M205 X10 Y10
G0 F3000 X111.229 Y118.059
M204 S1800
M205 X8 Y8
G1 F2400 X111.332 Y118.166 E22.61257
G1 X111.366 Y118.299 E22.61896
G1 X111.53 Y151.135 E24.14796
G1 X111.448 Y151.334 E24.15799
G1 X111.284 Y151.498 E24.16879
G1 X111.086 Y151.58 E24.17876
G1 X85.414 Y151.58 E25.37416
G1 X85.216 Y151.498 E25.38414
G1 X85.052 Y151.334 E25.39494
G1 X84.97 Y151.136 E25.40492
G1 X84.97 Y118.464 E26.92626
G1 X85.052 Y118.266 E26.93624
G1 X85.216 Y118.102 E26.94704
G1 X85.414 Y118.02 E26.95702
G1 X111.086 Y118.02 E28.15242
G1 X111.229 Y118.059 E28.15932
M204 S3000
M205 X10 Y10
G1 F2400 E22.15932
G0 F3000 X111.229 Y117.635
G0 X76.686 Y117.384
M204 S1800
M205 X8 Y8
G1 F2400 E28.15932
G1 X76.869 Y117.735 E28.17775
G1 X76.979 Y118.115 E28.19617
G1 X77.01 Y118.464 E28.21249
G1 X77.01 Y151.136 E29.73383
G1 X76.97 Y151.529 E29.75223
G1 X76.852 Y151.907 E29.77066
G1 X76.661 Y152.253 E29.78907
G1 X76.436 Y152.522 E29.8054
G1 X76.272 Y152.686 E29.8162
G1 X75.966 Y152.936 E29.8346
G1 X75.615 Y153.119 E29.85303
G1 X75.235 Y153.229 E29.87145
G1 X74.886 Y153.26 E29.88776
G1 X49.214 Y153.26 E31.08316
G1 X48.821 Y153.22 E31.10155
G1 X48.443 Y153.102 E31.11999
G1 X48.097 Y152.911 E31.1384
G1 X47.828 Y152.686 E31.15473
G1 X47.664 Y152.522 E31.16553
G1 X47.414 Y152.216 E31.18393
G1 X47.231 Y151.865 E31.20236
G1 X47.121 Y151.485 E31.22078
G1 X47.09 Y151.136 E31.23709
G1 X47.09 Y118.464 E32.75844
G1 X47.13 Y118.071 E32.77683
G1 X47.248 Y117.693 E32.79527
G1 X47.439 Y117.347 E32.81367
G1 X47.664 Y117.078 E32.83
G1 X47.828 Y116.914 E32.8408
G1 X48.134 Y116.664 E32.8592
G1 X48.485 Y116.481 E32.87764
G1 X48.865 Y116.371 E32.89606
G1 X49.214 Y116.34 E32.91237
G1 X74.886 Y116.34 E34.10777
G1 X75.279 Y116.38 E34.12616
G1 X75.657 Y116.498 E34.1446
G1 X76.003 Y116.689 E34.163
G1 X76.272 Y116.914 E34.17933
G1 X76.436 Y117.078 E34.19013
G1 X76.686 Y117.384 E34.20853
M204 S3000
M205 X10 Y10
G0 F3000 X76.246 Y117.737
M204 S1800
M205 X8 Y8
G1 F2400 X76.385 Y118.041 E34.2241
G1 X76.45 Y118.464 E34.24402
G1 X76.45 Y151.136 E35.76537
G1 X76.41 Y151.468 E35.78094
G1 X76.293 Y151.78 E35.79646
G1 X76.04 Y152.126 E35.81642
G1 X75.876 Y152.29 E35.82722
G1 X75.613 Y152.496 E35.84277
G1 X75.309 Y152.635 E35.85834
G1 X74.886 Y152.7 E35.87826
G1 X49.214 Y152.7 E37.07366
G1 X48.882 Y152.66 E37.08923
G1 X48.57 Y152.543 E37.10475
G1 X48.224 Y152.29 E37.12471
G1 X48.06 Y152.126 E37.13551
G1 X47.854 Y151.863 E37.15106
G1 X47.715 Y151.559 E37.16663
G1 X47.65 Y151.136 E37.18655
G1 X47.65 Y118.464 E38.7079
G1 X47.69 Y118.132 E38.72347
G1 X47.807 Y117.82 E38.73899
G1 X48.06 Y117.474 E38.75895
G1 X48.224 Y117.31 E38.76975
G1 X48.487 Y117.104 E38.7853
G1 X48.791 Y116.965 E38.80087
G1 X49.214 Y116.9 E38.82079
G1 X74.886 Y116.9 E40.01619
G1 X75.218 Y116.94 E40.03176
G1 X75.53 Y117.057 E40.04728
G1 X75.876 Y117.31 E40.06724
G1 X76.04 Y117.474 E40.07804
G1 X76.246 Y117.737 E40.09359
M204 S3000
M205 X10 Y10
G0 F3000 X75.644 Y117.87
M204 S1800
M205 X8 Y8
G1 F2400 X75.796 Y118.079 E40.10562
G1 X75.878 Y118.324 E40.11766
G1 X75.89 Y118.464 E40.1242
G1 X75.89 Y151.136 E41.64554
G1 X75.85 Y151.391 E41.65756
G1 X75.735 Y151.623 E41.66962
G1 X75.644 Y151.73 E41.67616
G1 X75.48 Y151.894 E41.68696
G1 X75.271 Y152.046 E41.69899
G1 X75.026 Y152.128 E41.71102
G1 X74.886 Y152.14 E41.71757
G1 X49.214 Y152.14 E42.91296
G1 X48.959 Y152.1 E42.92498
G1 X48.727 Y151.985 E42.93704
G1 X48.62 Y151.894 E42.94358
G1 X48.456 Y151.73 E42.95438
G1 X48.304 Y151.521 E42.96641
G1 X48.222 Y151.276 E42.97844
G1 X48.21 Y151.136 E42.98499
G1 X48.21 Y118.464 E44.50633
G1 X48.25 Y118.209 E44.51835
G1 X48.365 Y117.977 E44.53041
G1 X48.456 Y117.87 E44.53695
G1 X48.62 Y117.706 E44.54775
G1 X48.829 Y117.554 E44.55978
G1 X49.074 Y117.472 E44.57181
G1 X49.214 Y117.46 E44.57835
G1 X74.886 Y117.46 E45.77375
G1 X75.141 Y117.5 E45.78577
G1 X75.373 Y117.615 E45.79783
G1 X75.48 Y117.706 E45.80437
G1 X75.644 Y117.87 E45.81517
M204 S3000
M205 X10 Y10
G0 F3000 X75.248 Y118.266
M204 S1800
M205 X8 Y8
G1 F2400 X75.33 Y118.464 E45.82515
G1 X75.33 Y151.136 E47.34649
G1 X75.248 Y151.334 E47.35647
G1 X75.084 Y151.498 E47.36727
G1 X74.886 Y151.58 E47.37725
G1 X49.214 Y151.58 E48.57264
G1 X49.016 Y151.498 E48.58262
G1 X48.852 Y151.334 E48.59342
G1 X48.77 Y151.136 E48.6034
G1 X48.77 Y118.464 E50.12475
G1 X48.852 Y118.266 E50.13473
G1 X49.016 Y118.102 E50.14553
G1 X49.214 Y118.02 E50.15551
G1 X74.886 Y118.02 E51.3509
G1 X75.084 Y118.102 E51.36088
G1 X75.248 Y118.266 E51.37168
M204 S3000
M205 X10 Y10
G1 F2400 E45.37168
;MESH:soil moisture enclosure.obj
G0 F3000 X74.196 Y119.154
G0 X66.179 Y121.229
G0 X49.96 Y150.39
G0 X49.33 Y151.02
M204 S1800
M205 X8 Y8
;TYPE:WALL-OUTER
G1 F2400 E51.37168
G1 F1500 X49.33 Y118.58 E52.88222
G1 X74.77 Y118.58 E54.06681
G1 X74.77 Y151.02 E55.57736
G1 X49.33 Y151.02 E56.76195
M204 S3000
M205 X10 Y10
G0 F3000 X49.33 Y150.82
G0 X49.946 Y150.404
G1 F2400 E50.76195
G0 F3000 X49.99 Y150.404
G0 X66.107 Y146.882
G0 X66.767 Y146.882
M204 S1800
M205 X8 Y8
G1 F2400 E56.76195
G1 F1500 X69.332 Y146.882 E56.88139
G1 X69.332 Y121.817 E58.04852
G1 X66.767 Y121.817 E58.16796
G1 X66.767 Y146.882 E59.33509
M204 S3000
M205 X10 Y10
G0 F3000 X66.967 Y146.882
G0 X66.207 Y147.442
M204 S1800
M205 X8 Y8
;TYPE:WALL-INNER
G1 F1500 X69.892 Y147.442 E59.50668
G1 X69.892 Y121.257 E60.72596
G1 X66.207 Y121.257 E60.89755
G1 X66.207 Y147.442 E62.11683
M204 S3000
M205 X10 Y10
G0 F3000 X65.647 Y148.002
M204 S1800
M205 X8 Y8
G1 F1500 X70.452 Y148.002 E62.34057
G1 X70.452 Y120.697 E63.61201
G1 X65.647 Y120.697 E63.83575
G1 X65.647 Y148.002 E65.10718
M204 S3000
M205 X10 Y10
G0 F3000 X49.96 Y150.39
G0 X49.89 Y150.46
M204 S1800
M205 X8 Y8
G1 F1500 X49.89 Y119.14 E66.56557
G1 X74.21 Y119.14 E67.69802
G1 X74.21 Y150.46 E69.15641
G1 X49.89 Y150.46 E70.28885
M204 S3000
M205 X10 Y10
G0 F3000 X50.45 Y149.9
M204 S1800
M205 X8 Y8
G1 F1500 X50.45 Y119.7 E71.69509
G1 X73.65 Y119.7 E72.77537
G1 X73.65 Y149.9 E74.18161
G1 X50.45 Y149.9 E75.2619
M204 S3000
M205 X10 Y10
G0 F3000 X51 Y149.35
M204 S1800
M205 X8 Y8
;TYPE:SKIN
G1 F1500 X51 Y120.25 E76.61692
G1 X65.097 Y120.25 E77.27334
G1 X65.097 Y148.552 E78.5912
G1 X71.002 Y148.552 E78.86616
G1 X71.002 Y120.25 E80.18402
G1 X73.1 Y120.25 E80.28171
G1 X73.1 Y149.35 E81.63673
G1 X51 Y149.35 E82.66579
M204 S3000
M205 X10 Y10
G0 F3000 X51.678 Y149.089
M204 S1800
M205 X8 Y8
G1 F1500 X51.259 Y148.67 E82.69339
M204 S3000
M205 X10 Y10
G0 F3000 X51.259 Y147.878
M204 S1800
M205 X8 Y8
G1 F1500 X52.47 Y149.089 E82.77313
M204 S3000
M205 X10 Y10
G0 F3000 X53.262 Y149.089
M204 S1800
M205 X8 Y8
G1 F1500 X51.259 Y147.086 E82.90503
M204 S3000
M205 X10 Y10
G0 F3000 X51.259 Y146.294
M204 S1800
M205 X8 Y8
G1 F1500 X54.054 Y149.089 E83.08909
M204 S3000
M205 X10 Y10
G0 F3000 X54.846 Y149.089
M204 S1800
M205 X8 Y8
G1 F1500 X51.259 Y145.502 E83.3253
M204 S3000
M205 X10 Y10
G0 F3000 X51.259 Y144.71
M204 S1800
M205 X8 Y8
G1 F1500 X55.637 Y149.089 E83.61363
M204 S3000
M205 X10 Y10
G0 F3000 X56.429 Y149.089
M204 S1800
M205 X8 Y8
G1 F1500 X51.259 Y143.918 E83.95412
M204 S3000
M205 X10 Y10
G0 F3000 X51.259 Y143.126
M204 S1800
M205 X8 Y8
G1 F1500 X57.221 Y149.089 E84.34676
M204 S3000
M205 X10 Y10
G0 F3000 X58.013 Y149.089
M204 S1800
M205 X8 Y8
G1 F1500 X51.259 Y142.334 E84.79155
M204 S3000
M205 X10 Y10
G0 F3000 X51.259 Y141.542
M204 S1800
M205 X8 Y8
G1 F1500 X58.805 Y149.089 E85.2885
M204 S3000
M205 X10 Y10
G0 F3000 X59.597 Y149.089
M204 S1800
M205 X8 Y8
G1 F1500 X51.259 Y140.751 E85.83758
M204 S3000
M205 X10 Y10
G0 F3000 X51.259 Y139.959
M204 S1800
M205 X8 Y8
G1 F1500 X60.389 Y149.089 E86.4388
M204 S3000
M205 X10 Y10
G0 F3000 X61.181 Y149.089
M204 S1800
M205 X8 Y8
G1 F1500 X51.259 Y139.167 E87.09218
M204 S3000
M205 X10 Y10
G0 F3000 X51.259 Y138.375
M204 S1800
M205 X8 Y8
G1 F1500 X61.973 Y149.089 E87.79772
M204 S3000
M205 X10 Y10
G0 F3000 X62.765 Y149.089
M204 S1800
M205 X8 Y8
G1 F1500 X51.259 Y137.583 E88.55541
M204 S3000
M205 X10 Y10
G0 F3000 X51.259 Y136.791
M204 S1800
M205 X8 Y8
G1 F1500 X63.557 Y149.089 E89.36525
M204 S3000
M205 X10 Y10
G0 F3000 X64.349 Y149.089
M204 S1800
M205 X8 Y8
G1 F1500 X51.259 Y135.999 E90.22725
M204 S3000
M205 X10 Y10
G0 F3000 X51.259 Y135.207
M204 S1800
M205 X8 Y8
G1 F1500 X64.837 Y148.785 E91.12138
M204 S3000
M205 X10 Y10
G0 F3000 X64.863 Y148.811
M204 S1800
M205 X8 Y8
G1 F1500 X65.141 Y149.089 E91.13969
M204 S3000
M205 X10 Y10
G0 F3000 X65.655 Y148.811
M204 S1800
