;FLAVOR:Marlin
;TIME:6647
;Filament used: 7.58968m
;Layer height: 0.2
;MINX:44.85
;MINY:54.5
;MINZ:0.2
;MAXX:165.15
;MAXY:155.5
;MAXZ:46
;Generated with Cura_SteamEngine 4.1.0
M140 S65
M105
M190 S65
M104 S200
M105
M109 S200
M82 ;absolute extrusion mode
G21 ;metric values
G90 ;absolute positioning
M82 ;set extruder to absolute mode
M107 ;start with the fan off
G28 X0 Y0 ;move X/Y to min endstops
G28 Z0 ;move Z to min endstops
G1 Z15.0 F100 ;move the platform down 15mm
G92 E0 ;zero the extruded length
G1 F200 E3 ;extrude 3mm of feed stock
G92 E0 ;zero the extruded length again
G1 F100
M117 Printing...
G5
G92 E0
G92 E0
G1 F2400 E-6
;LAYER_COUNT:230
;LAYER:0
M106 S255
M204 S3000
M205 X10 Y10
G0 F3000 X152.105 Y57.174 Z0.2
M204 S1800
M205 X8 Y8
;TYPE:SKIRT
G1 F2400 E0
G1 X152.374 Y56.661 E0.02697
G1 X152.711 Y56.19 E0.05394
G1 X152.98 Y55.894 E0.07256
G1 X153.144 Y55.73 E0.08336
G1 X153.581 Y55.35 E0.11033
G1 X154.066 Y55.033 E0.13731
G1 X154.59 Y54.786 E0.16428
G1 X155.143 Y54.614 E0.19125
G1 X155.715 Y54.519 E0.21825
G1 X156.114 Y54.5 E0.23685
G1 X160.786 Y54.5 E0.4544
G1 X161.364 Y54.54 E0.48138
G1 X161.931 Y54.659 E0.50835
G1 X162.476 Y54.855 E0.53532
G1 X162.989 Y55.124 E0.56229
G1 X163.46 Y55.461 E0.58926
G1 X163.756 Y55.73 E0.60789
G1 X163.92 Y55.894 E0.61869
G1 X164.3 Y56.331 E0.64565
G1 X164.617 Y56.816 E0.67263
G1 X164.864 Y57.34 E0.69961
G1 X165.036 Y57.893 E0.72657
G1 X165.131 Y58.465 E0.75357
G1 X165.15 Y58.864 E0.77217
G1 X165.15 Y63.536 E0.98972
G1 X165.11 Y64.114 E1.0167
G1 X164.991 Y64.681 E1.04368
G1 X164.795 Y65.226 E1.07064
G1 X164.526 Y65.739 E1.09762
G1 X164.189 Y66.21 E1.12458
G1 X163.92 Y66.506 E1.14321
G1 X163.756 Y66.67 E1.15401
G1 X163.319 Y67.05 E1.18097
G1 X162.834 Y67.367 E1.20795
G1 X162.31 Y67.614 E1.23493
G1 X161.757 Y67.786 E1.2619
G1 X161.185 Y67.881 E1.28889
G1 X160.786 Y67.9 E1.3075
G1 X156.114 Y67.9 E1.52504
G1 X155.536 Y67.86 E1.55202
G1 X154.969 Y67.741 E1.579
G1 X154.424 Y67.545 E1.60597
G1 X153.911 Y67.276 E1.63294
G1 X153.44 Y66.939 E1.65991
G1 X153.144 Y66.67 E1.67853
G1 X152.98 Y66.506 E1.68933
G1 X152.6 Y66.069 E1.7163
G1 X152.283 Y65.584 E1.74328
G1 X152.036 Y65.06 E1.77025
G1 X151.864 Y64.507 E1.79722
G1 X151.769 Y63.935 E1.82422
G1 X151.75 Y63.536 E1.84282
G1 X151.75 Y58.864 E2.06037
G1 X151.79 Y58.286 E2.08734
G1 X151.909 Y57.719 E2.11432
G1 X152.105 Y57.174 E2.14129
M204 S3000
M205 X10 Y10
G0 F3000 X152.664 Y57.298
M204 S1800
M205 X8 Y8
G1 F2400 X152.932 Y56.829 E2.16644
G1 X153.376 Y56.29 E2.19896
G1 X153.54 Y56.126 E2.20976
G1 X153.949 Y55.774 E2.23489
G1 X154.405 Y55.486 E2.26
G1 X154.898 Y55.269 E2.28508
G1 X155.418 Y55.127 E2.31018
G1 X156.114 Y55.06 E2.34274
G1 X160.786 Y55.06 E2.56029
G1 X161.324 Y55.1 E2.58541
G1 X161.85 Y55.219 E2.61052
G1 X162.352 Y55.414 E2.6356
G1 X162.821 Y55.682 E2.66075
G1 X163.36 Y56.126 E2.69327
G1 X163.524 Y56.29 E2.70407
G1 X163.876 Y56.699 E2.72919
G1 X164.164 Y57.155 E2.75431
G1 X164.381 Y57.648 E2.77939
G1 X164.523 Y58.168 E2.80449
G1 X164.59 Y58.864 E2.83705
G1 X164.59 Y63.536 E3.05459
G1 X164.55 Y64.074 E3.07971
G1 X164.431 Y64.6 E3.10483
G1 X164.236 Y65.102 E3.1299
G1 X163.968 Y65.571 E3.15506
G1 X163.524 Y66.11 E3.18757
G1 X163.36 Y66.274 E3.19837
G1 X162.951 Y66.626 E3.2235
G1 X162.495 Y66.914 E3.24861
G1 X162.002 Y67.131 E3.27369
G1 X161.482 Y67.273 E3.29879
G1 X160.786 Y67.34 E3.33135
G1 X156.114 Y67.34 E3.5489
G1 X155.576 Y67.3 E3.57402
G1 X155.05 Y67.181 E3.59913
G1 X154.548 Y66.986 E3.62421
G1 X154.079 Y66.718 E3.64936
G1 X153.54 Y66.274 E3.68188
G1 X153.376 Y66.11 E3.69268
G1 X153.024 Y65.701 E3.71781
G1 X152.736 Y65.245 E3.74292
G1 X152.519 Y64.752 E3.768
G1 X152.377 Y64.232 E3.7931
G1 X152.31 Y63.536 E3.82566
G1 X152.31 Y58.864 E4.04321
G1 X152.35 Y58.326 E4.06833
G1 X152.469 Y57.8 E4.09344
G1 X152.664 Y57.298 E4.11852
M204 S3000
M205 X10 Y10
G0 F3000 X153.223 Y57.432
M204 S1800
M205 X8 Y8
G1 F2400 X153.488 Y57.013 E4.1416
G1 X153.772 Y56.686 E4.16177
G1 X153.936 Y56.522 E4.17257
G1 X154.314 Y56.201 E4.19566
G1 X154.738 Y55.944 E4.21875
G1 X155.199 Y55.759 E4.24188
G1 X155.682 Y55.65 E4.26493
G1 X156.114 Y55.62 E4.2851
G1 X160.786 Y55.62 E4.50265
G1 X161.28 Y55.66 E4.52572
G1 X161.762 Y55.779 E4.54884
G1 X162.218 Y55.973 E4.57192
G1 X162.637 Y56.238 E4.595
G1 X162.964 Y56.522 E4.61517
G1 X163.128 Y56.686 E4.62597
G1 X163.449 Y57.064 E4.64906
G1 X163.706 Y57.488 E4.67215
G1 X163.891 Y57.949 E4.69528
G1 X164 Y58.432 E4.71833
G1 X164.03 Y58.864 E4.7385
G1 X164.03 Y63.536 E4.95605
G1 X163.99 Y64.03 E4.97912
G1 X163.871 Y64.512 E5.00224
G1 X163.677 Y64.968 E5.02532
G1 X163.412 Y65.387 E5.0484
G1 X163.128 Y65.714 E5.06857
G1 X162.964 Y65.878 E5.07937
G1 X162.586 Y66.199 E5.10246
G1 X162.162 Y66.456 E5.12555
G1 X161.701 Y66.641 E5.14868
G1 X161.218 Y66.75 E5.17173
G1 X160.786 Y66.78 E5.1919
G1 X156.114 Y66.78 E5.40944
G1 X155.62 Y66.74 E5.43252
G1 X155.138 Y66.621 E5.45564
G1 X154.682 Y66.427 E5.47872
G1 X154.263 Y66.162 E5.5018
G1 X153.936 Y65.878 E5.52197
G1 X153.772 Y65.714 E5.53277
G1 X153.451 Y65.336 E5.55586
G1 X153.194 Y64.912 E5.57895
G1 X153.009 Y64.451 E5.60208
G1 X152.9 Y63.968 E5.62513
G1 X152.87 Y63.536 E5.6453
G1 X152.87 Y58.864 E5.86284
G1 X152.91 Y58.37 E5.88592
G1 X153.029 Y57.888 E5.90904
G1 X153.223 Y57.432 E5.93212
M204 S3000
M205 X10 Y10
G0 F3000 X153.588 Y57.985
M204 S1800
M205 X8 Y8
G1 F2400 X153.782 Y57.58 E5.95303
G1 X154.168 Y57.082 E5.98236
G1 X154.332 Y56.918 E5.99316
G1 X154.676 Y56.63 E6.01406
G1 X155.066 Y56.408 E6.03495
G1 X155.489 Y56.259 E6.05583
G1 X156.114 Y56.18 E6.08517
G1 X160.786 Y56.18 E6.30272
G1 X161.233 Y56.22 E6.32361
G1 X161.665 Y56.338 E6.34447
G1 X162.07 Y56.532 E6.36538
G1 X162.568 Y56.918 E6.39472
G1 X162.732 Y57.082 E6.40552
G1 X163.02 Y57.426 E6.42641
G1 X163.242 Y57.816 E6.4473
G1 X163.391 Y58.239 E6.46819
G1 X163.47 Y58.864 E6.49752
G1 X163.47 Y63.536 E6.71507
G1 X163.43 Y63.983 E6.73596
G1 X163.312 Y64.415 E6.75682
G1 X163.118 Y64.82 E6.77773
G1 X162.732 Y65.318 E6.80707
G1 X162.568 Y65.482 E6.81787
G1 X162.224 Y65.77 E6.83876
G1 X161.834 Y65.992 E6.85965
G1 X161.411 Y66.141 E6.88054
G1 X160.786 Y66.22 E6.90987
G1 X156.114 Y66.22 E7.12742
G1 X155.667 Y66.18 E7.14832
G1 X155.235 Y66.062 E7.16917
G1 X154.83 Y65.868 E7.19008
G1 X154.332 Y65.482 E7.21942
G1 X154.168 Y65.318 E7.23022
G1 X153.88 Y64.974 E7.25111
G1 X153.658 Y64.584 E7.272
G1 X153.509 Y64.161 E7.29289
G1 X153.43 Y63.536 E7.32222
G1 X153.43 Y58.864 E7.53977
G1 X153.47 Y58.417 E7.56067
G1 X153.588 Y57.985 E7.58152
M204 S3000
M205 X10 Y10
G0 F3000 X154.148 Y58.093
M204 S1800
M205 X8 Y8
G1 F2400 X154.339 Y57.747 E7.59992
G1 X154.564 Y57.478 E7.61625
G1 X154.728 Y57.314 E7.62705
G1 X155.034 Y57.064 E7.64545
G1 X155.385 Y56.881 E7.66388
G1 X155.765 Y56.771 E7.6823
G1 X156.114 Y56.74 E7.69862
G1 X160.786 Y56.74 E7.91617
G1 X161.179 Y56.78 E7.93456
G1 X161.557 Y56.898 E7.953
G1 X161.903 Y57.089 E7.9714
G1 X162.172 Y57.314 E7.98773
G1 X162.336 Y57.478 E7.99853
G1 X162.586 Y57.784 E8.01693
G1 X162.769 Y58.135 E8.03536
G1 X162.879 Y58.515 E8.05378
G1 X162.91 Y58.864 E8.0701
G1 X162.91 Y63.536 E8.28765
G1 X162.87 Y63.929 E8.30604
G1 X162.752 Y64.307 E8.32448
G1 X162.561 Y64.653 E8.34288
G1 X162.336 Y64.922 E8.35921
G1 X162.172 Y65.086 E8.37001
G1 X161.866 Y65.336 E8.38841
G1 X161.515 Y65.519 E8.40684
G1 X161.135 Y65.629 E8.42527
G1 X160.786 Y65.66 E8.44158
G1 X156.114 Y65.66 E8.65913
G1 X155.721 Y65.62 E8.67752
G1 X155.343 Y65.502 E8.69596
G1 X154.997 Y65.311 E8.71436
G1 X154.728 Y65.086 E8.73069
G1 X154.564 Y64.922 E8.74149
G1 X154.314 Y64.616 E8.75989
G1 X154.131 Y64.265 E8.77832
G1 X154.021 Y63.885 E8.79675
G1 X153.99 Y63.536 E8.81306
G1 X153.99 Y58.864 E9.03061
G1 X154.03 Y58.471 E9.049
G1 X154.148 Y58.093 E9.06744
M204 S3000
M205 X10 Y10
G0 F3000 X154.707 Y58.22
M204 S1800
M205 X8 Y8
G1 F2400 X154.96 Y57.874 E9.0874
G1 X155.124 Y57.71 E9.0982
G1 X155.387 Y57.504 E9.11376
G1 X155.691 Y57.365 E9.12932
G1 X156.114 Y57.3 E9.14925
G1 X160.786 Y57.3 E9.3668
G1 X161.118 Y57.34 E9.38237
G1 X161.43 Y57.457 E9.39788
G1 X161.776 Y57.71 E9.41784
G1 X161.94 Y57.874 E9.42864
G1 X162.146 Y58.137 E9.4442
G1 X162.285 Y58.441 E9.45976
G1 X162.35 Y58.864 E9.47969
G1 X162.35 Y63.536 E9.69724
G1 X162.31 Y63.868 E9.71281
G1 X162.193 Y64.18 E9.72833
G1 X161.94 Y64.526 E9.74829
G1 X161.776 Y64.69 E9.75908
G1 X161.513 Y64.896 E9.77464
G1 X161.209 Y65.035 E9.79021
G1 X160.786 Y65.1 E9.81013
G1 X156.114 Y65.1 E10.02768
G1 X155.782 Y65.06 E10.04325
G1 X155.47 Y64.943 E10.05877
G1 X155.124 Y64.69 E10.07873
G1 X154.96 Y64.526 E10.08953
G1 X154.754 Y64.263 E10.10508
G1 X154.615 Y63.959 E10.12065
G1 X154.55 Y63.536 E10.14058
G1 X154.55 Y58.864 E10.35812
G1 X154.59 Y58.532 E10.37369
G1 X154.707 Y58.22 E10.38921
M204 S3000
M205 X10 Y10
G0 F3000 X155.15 Y58.609
M204 S1800
M205 X8 Y8
G1 F2400 X155.265 Y58.377 E10.40127
G1 X155.356 Y58.27 E10.40781
G1 X155.52 Y58.106 E10.41861
G1 X155.729 Y57.954 E10.43064
G1 X155.974 Y57.872 E10.44267
G1 X156.114 Y57.86 E10.44921
G1 X160.786 Y57.86 E10.66676
G1 X161.041 Y57.9 E10.67878
G1 X161.273 Y58.015 E10.69084
G1 X161.38 Y58.106 E10.69738
G1 X161.544 Y58.27 E10.70818
G1 X161.696 Y58.479 E10.72021
G1 X161.778 Y58.724 E10.73224
G1 X161.79 Y58.864 E10.73879
G1 X161.79 Y63.536 E10.95633
G1 X161.75 Y63.791 E10.96835
G1 X161.635 Y64.023 E10.98041
G1 X161.544 Y64.13 E10.98695
G1 X161.38 Y64.294 E10.99775
G1 X161.171 Y64.446 E11.00978
G1 X160.926 Y64.528 E11.02181
G1 X160.786 Y64.54 E11.02836
G1 X156.114 Y64.54 E11.2459
G1 X155.859 Y64.5 E11.25792
G1 X155.627 Y64.385 E11.26998
G1 X155.52 Y64.294 E11.27652
G1 X155.356 Y64.13 E11.28732
G1 X155.204 Y63.921 E11.29935
G1 X155.122 Y63.676 E11.31139
G1 X155.11 Y63.536 E11.31793
G1 X155.11 Y58.864 E11.53548
G1 X155.15 Y58.609 E11.5475
M204 S3000
M205 X10 Y10
G0 F3000 X155.752 Y58.666
M204 S1800
M205 X8 Y8
G1 F2400 X155.916 Y58.502 E11.55829
G1 X156.114 Y58.42 E11.56827
G1 X160.786 Y58.42 E11.78582
G1 X160.984 Y58.502 E11.7958
G1 X161.148 Y58.666 E11.8066
G1 X161.23 Y58.864 E11.81658
G1 X161.23 Y63.536 E12.03413
G1 X161.148 Y63.734 E12.04411
G1 X160.984 Y63.898 E12.05491
G1 X160.786 Y63.98 E12.06489
G1 X156.114 Y63.98 E12.28243
G1 X155.916 Y63.898 E12.29241
G1 X155.752 Y63.734 E12.30321
G1 X155.67 Y63.536 E12.31319
G1 X155.67 Y58.864 E12.53074
G1 X155.752 Y58.666 E12.54072
M204 S3000
M205 X10 Y10
G1 F2400 E6.54072
G0 F3000 X155.285 Y58.666
G0 X113.289 Y114.724
M204 S1800
M205 X8 Y8
G1 F2400 E12.54072
G1 X113.76 Y115.061 E12.56769
G1 X114.18 Y115.46 E12.59466
G1 X114.542 Y115.913 E12.62166
G1 X114.837 Y116.411 E12.64861
G1 X115.062 Y116.945 E12.6756
G1 X115.21 Y117.505 E12.70257
G1 X115.286 Y118.279 E12.73878
G1 X115.45 Y151.115 E14.26778
G1 X115.413 Y151.693 E14.29475
G1 X115.297 Y152.261 E14.32175
G1 X115.103 Y152.807 E14.34873
G1 X114.837 Y153.321 E14.37568
G1 X114.502 Y153.794 E14.40267
G1 X114.22 Y154.106 E14.42225
G1 X114.056 Y154.27 E14.43305
G1 X113.619 Y154.65 E14.46001
G1 X113.134 Y154.967 E14.48699
G1 X112.61 Y155.214 E14.51397
G1 X112.057 Y155.386 E14.54093
G1 X111.485 Y155.481 E14.56793
G1 X111.086 Y155.5 E14.58653
G1 X85.414 Y155.5 E15.78193
G1 X84.836 Y155.46 E15.80891
G1 X84.269 Y155.341 E15.83589
G1 X83.724 Y155.145 E15.86285
G1 X83.211 Y154.876 E15.88983
G1 X82.74 Y154.539 E15.91679
G1 X82.444 Y154.27 E15.93542
G1 X82.28 Y154.106 E15.94622
G1 X81.9 Y153.669 E15.97318
G1 X81.583 Y153.184 E16.00016
G1 X81.336 Y152.66 E16.02714
G1 X81.164 Y152.107 E16.05411
G1 X81.069 Y151.535 E16.0811
G1 X81.05 Y151.136 E16.09971
G1 X81.05 Y118.464 E17.62105
G1 X81.09 Y117.886 E17.64803
G1 X81.209 Y117.319 E17.67501
G1 X81.405 Y116.774 E17.70197
G1 X81.674 Y116.261 E17.72895
G1 X82.011 Y115.79 E17.75591
G1 X82.28 Y115.494 E17.77454
G1 X82.444 Y115.33 E17.78534
G1 X82.881 Y114.95 E17.8123
G1 X83.366 Y114.633 E17.83928
G1 X83.89 Y114.386 E17.86626
G1 X84.443 Y114.214 E17.89323
G1 X85.015 Y114.119 E17.92022
G1 X85.414 Y114.1 E17.93882
G1 X111.086 Y114.1 E19.13422
G1 X111.664 Y114.14 E19.1612
G1 X112.231 Y114.259 E19.18818
G1 X112.776 Y114.455 E19.21514
G1 X113.289 Y114.724 E19.24212
M204 S3000
M205 X10 Y10
G0 F3000 X113.121 Y115.282
M204 S1800
M205 X8 Y8
G1 F2400 X113.544 Y115.615 E19.26718
G1 X113.914 Y116.008 E19.29232
G1 X114.221 Y116.451 E19.31742
G1 X114.46 Y116.935 E19.34255
G1 X114.625 Y117.448 E19.36764
G1 X114.712 Y117.98 E19.39274
G1 X114.726 Y118.282 E19.40682
G1 X114.89 Y151.118 E20.93582
G1 X114.853 Y151.656 E20.96093
G1 X114.736 Y152.182 E20.98603
G1 X114.544 Y152.686 E21.01114
G1 X114.278 Y153.156 E21.03629
G1 X113.824 Y153.71 E21.06964
G1 X113.66 Y153.874 E21.08044
G1 X113.251 Y154.226 E21.10556
G1 X112.795 Y154.514 E21.13068
G1 X112.302 Y154.731 E21.15576
G1 X111.782 Y154.873 E21.18086
G1 X111.086 Y154.94 E21.21342
G1 X85.414 Y154.94 E22.40881
G1 X84.876 Y154.9 E22.43393
G1 X84.35 Y154.781 E22.45905
G1 X83.848 Y154.586 E22.48412
G1 X83.379 Y154.318 E22.50928
G1 X82.84 Y153.874 E22.54179
G1 X82.676 Y153.71 E22.55259
G1 X82.324 Y153.301 E22.57772
G1 X82.036 Y152.845 E22.60283
G1 X81.819 Y152.352 E22.62791
G1 X81.677 Y151.832 E22.65301
G1 X81.61 Y151.136 E22.68557
G1 X81.61 Y118.464 E24.20692
G1 X81.65 Y117.926 E24.23204
G1 X81.769 Y117.4 E24.25715
G1 X81.964 Y116.898 E24.28223
G1 X82.232 Y116.429 E24.30738
G1 X82.676 Y115.89 E24.3399
G1 X82.84 Y115.726 E24.3507
G1 X83.249 Y115.374 E24.37582
G1 X83.705 Y115.086 E24.40094
G1 X84.198 Y114.869 E24.42602
G1 X84.718 Y114.727 E24.45112
G1 X85.414 Y114.66 E24.48368
G1 X111.086 Y114.66 E25.67907
G1 X111.624 Y114.7 E25.70419
G1 X112.15 Y114.819 E25.72931
G1 X112.652 Y115.014 E25.75438
G1 X113.121 Y115.282 E25.77953
M204 S3000
M205 X10 Y10
G0 F3000 X112.937 Y115.838
M204 S1800
M205 X8 Y8
G1 F2400 X113.308 Y116.168 E25.80265
G1 X113.622 Y116.552 E25.82575
G1 X113.87 Y116.982 E25.84887
G1 X114.045 Y117.445 E25.87191
G1 X114.144 Y117.932 E25.89505
G1 X114.166 Y118.285 E25.91152
G1 X114.33 Y151.121 E27.44052
G1 X114.292 Y151.615 E27.4636
G1 X114.176 Y152.097 E27.48668
G1 X113.984 Y152.555 E27.5098
G1 X113.721 Y152.975 E27.53288
G1 X113.428 Y153.314 E27.55374
G1 X113.264 Y153.478 E27.56454
G1 X112.886 Y153.799 E27.58764
G1 X112.462 Y154.056 E27.61072
G1 X112.001 Y154.241 E27.63385
G1 X111.518 Y154.35 E27.65691
G1 X111.086 Y154.38 E27.67707
G1 X85.414 Y154.38 E28.87247
G1 X84.92 Y154.34 E28.89555
G1 X84.438 Y154.221 E28.91866
G1 X83.982 Y154.027 E28.94174
G1 X83.563 Y153.762 E28.96482
G1 X83.236 Y153.478 E28.98499
G1 X83.072 Y153.314 E28.99579
G1 X82.751 Y152.936 E29.01888
G1 X82.494 Y152.512 E29.04197
G1 X82.309 Y152.051 E29.0651
G1 X82.2 Y151.568 E29.08816
G1 X82.17 Y151.136 E29.10832
G1 X82.17 Y118.464 E30.62967
G1 X82.21 Y117.97 E30.65274
G1 X82.329 Y117.488 E30.67586
G1 X82.523 Y117.032 E30.69894
G1 X82.788 Y116.613 E30.72202
G1 X83.072 Y116.286 E30.74219
G1 X83.236 Y116.122 E30.75299
G1 X83.614 Y115.801 E30.77608
G1 X84.038 Y115.544 E30.79917
G1 X84.499 Y115.359 E30.8223
G1 X84.982 Y115.25 E30.84535
G1 X85.414 Y115.22 E30.86552
G1 X111.086 Y115.22 E32.06091
G1 X111.58 Y115.26 E32.08399
G1 X112.062 Y115.379 E32.10711
G1 X112.518 Y115.573 E32.13018
G1 X112.937 Y115.838 E32.15327
M204 S3000
M205 X10 Y10
G0 F3000 X112.37 Y116.132
M204 S1800
M205 X8 Y8
G1 F2400 X112.734 Y116.394 E32.17415
G1 X113.046 Y116.716 E32.19503
G1 X113.296 Y117.089 E32.21594
G1 X113.476 Y117.5 E32.23683
G1 X113.58 Y117.936 E32.2577
G1 X113.606 Y118.287 E32.27409
G1 X113.77 Y151.123 E33.80309
G1 X113.732 Y151.57 E33.82398
G1 X113.616 Y152.004 E33.8449
G1 X113.425 Y152.409 E33.86575
G1 X113.032 Y152.918 E33.89569
G1 X112.868 Y153.082 E33.90649
G1 X112.524 Y153.37 E33.92738
G1 X112.134 Y153.592 E33.94828
G1 X111.711 Y153.741 E33.96916
G1 X111.086 Y153.82 E33.9985
G1 X85.414 Y153.82 E35.19389
G1 X84.967 Y153.78 E35.21479
G1 X84.535 Y153.662 E35.23564
G1 X84.13 Y153.468 E35.25655
G1 X83.632 Y153.082 E35.28589
G1 X83.468 Y152.918 E35.29669
G1 X83.18 Y152.574 E35.31758
G1 X82.958 Y152.184 E35.33848
G1 X82.809 Y151.761 E35.35936
G1 X82.73 Y151.136 E35.3887
G1 X82.73 Y118.464 E36.91004
G1 X82.77 Y118.017 E36.93094
G1 X82.888 Y117.585 E36.95179
G1 X83.082 Y117.18 E36.9727
G1 X83.468 Y116.682 E37.00204
G1 X83.632 Y116.518 E37.01284
