;FLAVOR:Marlin
;TIME:12731
;Filament used: 11.765m
;Layer height: 0.2
;MINX:58.04
;MINY:38.04
;MINZ:0.2
;MAXX:151.835
;MAXY:171.96
;MAXZ:63.6
;Generated with Cura_SteamEngine 4.6.1
M140 S65
M105
M190 S65
M104 S200
M105
M109 S200
M82 ;absolute extrusion mode
G21 ;metric values
G90 ;absolute positioning
M82 ;set extruder to absolute mode
M107 ;start with the fan off
G28 X0 Y0 ;move X/Y to min endstops
G28 Z0 ;move Z to min endstops
G1 Z15.0 F100 ;move the platform down 15mm
G92 E0 ;zero the extruded length
G1 F200 E3 ;extrude 3mm of feed stock
G92 E0 ;zero the extruded length again
G1 F100
G0 Y20 F100
M117 Printing...
G5
G92 E0
G92 E0
G1 F2400 E-6
;LAYER_COUNT:320
;LAYER:0
M106 S255
M204 S3000
M205 X10 Y10
G1 F600 Z0.275
G0 F3000 X144.941 Y39.731 Z0.275
M204 S1800
M205 X8 Y8
;TYPE:SKIRT
G1 F600 Z0.2
G1 F2400 E0
G1 X145.588 Y39.78 E0.03021
G1 X146.225 Y39.908 E0.06047
G1 X146.841 Y40.114 E0.09071
G1 X147.428 Y40.394 E0.121
G1 X147.975 Y40.743 E0.15121
G1 X148.476 Y41.157 E0.18147
G1 X148.921 Y41.63 E0.21171
G1 X149.306 Y42.154 E0.24199
G1 X149.623 Y42.721 E0.27224
G1 X149.868 Y43.322 E0.30246
G1 X150.037 Y43.949 E0.3327
G1 X150.143 Y44.862 E0.3755
G1 X150.154 Y123.099 E4.01854
G1 X150.155 Y164.277 E5.93596
G1 X150.144 Y165.063 E5.97256
G1 X150.095 Y165.711 E6.00282
G1 X149.967 Y166.348 E6.03308
G1 X149.762 Y166.964 E6.06331
G1 X149.482 Y167.55 E6.09355
G1 X149.133 Y168.098 E6.1238
G1 X148.719 Y168.599 E6.15406
G1 X148.246 Y169.044 E6.1843
G1 X147.723 Y169.429 E6.21454
G1 X147.156 Y169.746 E6.24479
G1 X146.554 Y169.992 E6.27507
G1 X145.927 Y170.161 E6.30531
G1 X145.033 Y170.266 E6.34722
G1 X144.551 Y170.279 E6.36968
G1 X120.833 Y170.28 E7.47409
G1 X120.059 Y170.269 E7.51013
G1 X119.412 Y170.22 E7.54034
G1 X118.775 Y170.092 E7.5706
G1 X118.159 Y169.886 E7.60084
G1 X117.572 Y169.606 E7.63113
G1 X117.025 Y169.257 E7.66134
G1 X116.524 Y168.843 E7.6916
G1 X116.079 Y168.37 E7.72184
G1 X115.81 Y168.019 E7.74243
G1 X114.252 Y165.795 E7.86888
G1 X112.645 Y163.626 E7.99457
G1 X111.016 Y161.553 E8.11734
G1 X109.297 Y159.487 E8.24249
G1 X107.514 Y157.464 E8.36805
G1 X105.683 Y155.5 E8.49308
G1 X103.821 Y153.616 E8.61642
G1 X101.847 Y151.727 E8.74365
G1 X99.893 Y149.96 E8.86632
G1 X97.857 Y148.22 E8.99103
G1 X95.745 Y146.519 E9.1173
G1 X93.638 Y144.915 E9.24061
G1 X91.439 Y143.339 E9.36658
G1 X89.253 Y141.863 E9.4894
G1 X86.963 Y140.41 E9.61569
G1 X84.674 Y139.047 E9.73974
G1 X82.31 Y137.727 E9.86581
G1 X79.955 Y136.5 E9.98946
G1 X77.554 Y135.333 E10.11377
G1 X75.107 Y134.23 E10.23875
G1 X72.634 Y133.195 E10.36359
G1 X70.11 Y132.222 E10.48954
G1 X67.582 Y131.333 E10.61432
G1 X65.047 Y130.519 E10.7383
G1 X64.555 Y130.375 E10.76217
G1 X63.474 Y130.045 E10.8148
G1 X62.866 Y129.817 E10.84504
G1 X62.29 Y129.517 E10.87528
G1 X61.755 Y129.148 E10.90554
G1 X61.27 Y128.716 E10.93578
G1 X60.841 Y128.228 E10.96604
G1 X60.476 Y127.691 E10.99627
G1 X60.179 Y127.113 E11.02653
G1 X59.956 Y126.503 E11.05678
G1 X59.809 Y125.87 E11.08704
G1 X59.742 Y125.255 E11.11584
G1 X59.72 Y124.67 E11.1431
G1 X59.72 Y85.698 E12.9578
G1 X59.731 Y84.932 E12.99347
G1 X59.78 Y84.285 E13.02369
G1 X59.908 Y83.648 E13.05394
G1 X60.114 Y83.032 E13.08418
G1 X60.394 Y82.445 E13.11447
G1 X60.744 Y81.898 E13.14471
G1 X61.158 Y81.398 E13.17493
G1 X61.631 Y80.952 E13.20521
G1 X62.155 Y80.568 E13.23546
G1 X62.722 Y80.251 E13.2657
G1 X63.508 Y79.947 E13.30495
G1 X66.391 Y79.066 E13.44532
G1 X68.967 Y78.195 E13.57194
G1 X71.453 Y77.276 E13.69535
G1 X73.945 Y76.273 E13.82044
G1 X76.393 Y75.206 E13.94478
G1 X78.814 Y74.069 E14.06933
G1 X81.215 Y72.857 E14.19457
G1 X83.576 Y71.581 E14.31953
G1 X85.887 Y70.245 E14.44383
G1 X88.147 Y68.852 E14.56745
G1 X90.411 Y67.368 E14.6935
G1 X92.612 Y65.832 E14.81848
G1 X94.755 Y64.247 E14.94259
G1 X96.887 Y62.573 E15.06881
G1 X98.92 Y60.883 E15.19191
G1 X100.928 Y59.114 E15.31652
G1 X102.906 Y57.27 E15.44244
G1 X104.786 Y55.416 E15.56539
G1 X106.666 Y53.455 E15.69189
G1 X108.466 Y51.466 E15.8168
G1 X110.197 Y49.442 E15.94081
G1 X111.88 Y47.358 E16.06554
G1 X113.497 Y45.232 E16.18992
G1 X115.223 Y42.823 E16.32791
G1 X115.792 Y42.002 E16.37443
G1 X116.195 Y41.492 E16.40469
G1 X116.656 Y41.035 E16.43492
G1 X117.171 Y40.639 E16.46517
G1 X117.73 Y40.308 E16.49542
G1 X118.326 Y40.049 E16.52568
G1 X118.949 Y39.865 E16.55593
G1 X119.59 Y39.759 E16.58618
G1 X120.156 Y39.726 E16.61258
G1 X144.167 Y39.72 E17.73063
G1 X144.941 Y39.731 E17.76668
M204 S3000
M205 X10 Y10
G0 F3000 X144.949 Y39.171
M204 S1800
M205 X8 Y8
G1 F2400 X145.63 Y39.22 E17.79847
G1 X146.301 Y39.349 E17.83029
G1 X146.952 Y39.556 E17.8621
G1 X147.575 Y39.837 E17.89392
G1 X148.161 Y40.189 E17.92575
G1 X148.701 Y40.607 E17.95755
G1 X149.189 Y41.085 E17.98936
G1 X149.618 Y41.617 E18.02118
G1 X149.982 Y42.195 E18.05299
G1 X150.276 Y42.812 E18.08481
G1 X150.495 Y43.459 E18.11662
G1 X150.638 Y44.127 E18.14843
G1 X150.703 Y44.846 E18.18204
G1 X150.714 Y123.099 E21.82583
G1 X150.715 Y164.277 E23.74325
G1 X150.704 Y165.071 E23.78023
G1 X150.655 Y165.752 E23.81202
G1 X150.526 Y166.423 E23.84383
G1 X150.32 Y167.075 E23.87567
G1 X150.039 Y167.698 E23.9075
G1 X149.687 Y168.283 E23.93929
G1 X149.269 Y168.824 E23.97112
G1 X148.791 Y169.312 E24.00293
G1 X148.26 Y169.741 E24.03472
G1 X147.681 Y170.105 E24.06656
G1 X147.065 Y170.399 E24.09835
G1 X146.418 Y170.619 E24.13017
G1 X145.75 Y170.762 E24.16198
G1 X145.051 Y170.826 E24.19466
G1 X144.551 Y170.839 E24.21795
G1 X120.833 Y170.84 E25.32236
G1 X120.051 Y170.829 E25.35878
G1 X119.37 Y170.78 E25.39057
G1 X118.699 Y170.651 E25.42239
G1 X118.048 Y170.444 E25.4542
G1 X117.425 Y170.163 E25.48602
G1 X116.839 Y169.811 E25.51785
G1 X116.299 Y169.393 E25.54965
G1 X115.811 Y168.915 E25.58146
G1 X115.351 Y168.34 E25.61574
G1 X113.804 Y166.131 E25.74132
G1 X112.202 Y163.969 E25.86662
G1 X110.572 Y161.895 E25.98945
G1 X108.862 Y159.839 E26.11397
G1 X107.081 Y157.819 E26.23937
G1 X105.305 Y155.914 E26.36064
G1 X103.413 Y154 E26.48596
G1 X101.499 Y152.168 E26.60933
G1 X99.512 Y150.372 E26.73405
G1 X97.484 Y148.638 E26.85829
G1 X95.414 Y146.97 E26.98208
G1 X93.291 Y145.356 E27.10626
G1 X91.142 Y143.815 E27.22939
G1 X88.909 Y142.307 E27.35486
G1 X86.68 Y140.892 E27.4778
G1 X84.408 Y139.54 E27.60091
G1 X82.056 Y138.227 E27.72634
G1 X79.702 Y137 E27.84994
G1 X77.316 Y135.84 E27.97348
G1 X74.882 Y134.743 E28.0978
G1 X72.394 Y133.702 E28.22338
G1 X69.931 Y132.752 E28.3463
G1 X67.402 Y131.863 E28.47113
G1 X64.908 Y131.062 E28.5931
G1 X64.392 Y130.911 E28.61814
G1 X63.311 Y130.581 E28.67077
G1 X62.67 Y130.343 E28.7026
G1 X62.062 Y130.033 E28.73438
G1 X61.494 Y129.653 E28.7662
G1 X60.974 Y129.21 E28.79801
G1 X60.509 Y128.709 E28.82984
G1 X60.106 Y128.157 E28.86167
G1 X59.77 Y127.562 E28.89348
G1 X59.507 Y126.932 E28.92527
G1 X59.318 Y126.275 E28.95711
G1 X59.183 Y125.282 E29.00377
G1 X59.16 Y124.67 E29.03229
G1 X59.16 Y85.698 E30.84699
G1 X59.171 Y84.924 E30.88303
G1 X59.22 Y84.243 E30.91482
G1 X59.35 Y83.572 E30.94665
G1 X59.556 Y82.921 E30.97844
G1 X59.837 Y82.298 E31.01027
G1 X60.189 Y81.712 E31.0421
G1 X60.607 Y81.172 E31.0739
G1 X61.086 Y80.684 E31.10574
G1 X61.618 Y80.255 E31.13756
G1 X62.196 Y79.892 E31.16934
G1 X62.813 Y79.598 E31.20117
G1 X63.348 Y79.41 E31.22757
G1 X66.224 Y78.532 E31.36759
G1 X68.739 Y77.682 E31.49121
G1 X71.258 Y76.75 E31.61628
G1 X73.72 Y75.759 E31.73986
G1 X76.182 Y74.686 E31.86491
G1 X78.574 Y73.563 E31.98796
G1 X80.947 Y72.365 E32.11174
G1 X83.292 Y71.098 E32.23585
G1 X85.606 Y69.76 E32.36031
G1 X87.865 Y68.367 E32.48389
G1 X90.102 Y66.901 E32.60843
G1 X92.277 Y65.383 E32.73194
G1 X94.418 Y63.8 E32.85592
G1 X96.52 Y62.15 E32.98035
G1 X98.57 Y60.445 E33.10451
G1 X100.569 Y58.685 E33.22853
G1 X102.51 Y56.876 E33.35208
G1 X104.385 Y55.026 E33.47473
G1 X106.243 Y53.088 E33.59974
G1 X108.038 Y51.105 E33.72429
G1 X109.765 Y49.084 E33.84807
G1 X111.442 Y47.009 E33.97231
G1 X113.057 Y44.886 E34.09651
G1 X114.763 Y42.503 E34.23298
G1 X115.332 Y41.683 E34.27946
G1 X115.754 Y41.145 E34.31129
G1 X116.235 Y40.66 E34.3431
G1 X116.77 Y40.235 E34.37492
G1 X117.351 Y39.875 E34.40674
G1 X117.969 Y39.586 E34.43851
G1 X118.618 Y39.37 E34.47036
G1 X119.287 Y39.232 E34.50217
G1 X119.904 Y39.175 E34.53102
G1 X120.54 Y39.16 E34.56064
G1 X144.167 Y39.16 E35.66082
G1 X144.949 Y39.171 E35.69723
M204 S3000
M205 X10 Y10
G0 F3000 X144.957 Y38.611
M204 S1800
M205 X8 Y8
G1 F2400 X145.67 Y38.661 E35.73051
G1 X146.374 Y38.79 E35.76384
G1 X147.058 Y38.998 E35.79713
G1 X147.715 Y39.28 E35.83042
G1 X148.337 Y39.634 E35.86375
G1 X148.915 Y40.055 E35.89704
G1 X149.443 Y40.538 E35.93037
G1 X149.913 Y41.076 E35.96363
G1 X150.321 Y41.664 E35.99696
G1 X150.66 Y42.294 E36.03027
G1 X150.927 Y42.957 E36.06355
G1 X151.118 Y43.647 E36.09689
G1 X151.231 Y44.353 E36.13018
G1 X151.271 Y45.15 E36.16734
G1 X151.274 Y123.099 E39.79697
G1 X151.275 Y164.277 E41.71439
G1 X151.264 Y165.079 E41.75174
G1 X151.214 Y165.792 E41.78502
G1 X151.085 Y166.496 E41.81835
G1 X150.878 Y167.181 E41.85167
G1 X150.596 Y167.838 E41.88496
G1 X150.242 Y168.46 E41.91829
G1 X149.821 Y169.038 E41.95158
G1 X149.339 Y169.566 E41.98487
G1 X148.8 Y170.036 E42.01817
G1 X148.212 Y170.444 E42.0515
G1 X147.583 Y170.783 E42.08477
G1 X146.919 Y171.05 E42.11809
G1 X146.23 Y171.242 E42.1514
G1 X145.524 Y171.355 E42.18469
G1 X144.755 Y171.396 E42.22055
G1 X120.833 Y171.4 E43.33446
G1 X120.043 Y171.389 E43.37125
G1 X119.33 Y171.339 E43.40453
G1 X118.626 Y171.21 E43.43786
G1 X117.942 Y171.002 E43.47115
G1 X117.285 Y170.72 E43.50444
G1 X116.663 Y170.366 E43.53776
G1 X116.085 Y169.945 E43.57106
G1 X115.557 Y169.462 E43.60438
G1 X114.893 Y168.661 E43.65283
G1 X113.362 Y166.474 E43.77714
G1 X111.755 Y164.307 E43.90276
G1 X110.132 Y162.24 E44.02513
G1 X108.457 Y160.227 E44.14707
G1 X106.665 Y158.195 E44.27323
G1 X104.893 Y156.294 E44.39424
G1 X103.024 Y154.402 E44.51808
G1 X101.096 Y152.558 E44.6423
G1 X99.149 Y150.797 E44.76455
G1 X97.13 Y149.072 E44.8882
G1 X95.082 Y147.422 E45.01066
G1 X92.961 Y145.809 E45.13474
G1 X90.804 Y144.262 E45.25834
G1 X88.614 Y142.784 E45.38137
G1 X86.371 Y141.36 E45.50508
G1 X84.142 Y140.033 E45.62587
G1 X81.802 Y138.727 E45.75065
G1 X79.448 Y137.5 E45.87426
G1 X77.049 Y136.334 E45.99847
G1 X74.656 Y135.255 E46.1207
G1 X72.227 Y134.238 E46.24332
G1 X69.699 Y133.264 E46.36946
G1 X67.277 Y132.412 E46.48902
G1 X64.688 Y131.581 E46.61563
G1 X63.147 Y131.116 E46.69058
G1 X62.476 Y130.869 E46.72388
G1 X61.836 Y130.549 E46.75719
G1 X61.236 Y130.16 E46.79049
G1 X60.684 Y129.706 E46.82377
G1 X60.185 Y129.193 E46.85709
G1 X59.747 Y128.628 E46.89038
G1 X59.374 Y128.017 E46.92372
G1 X59.072 Y127.369 E46.95701
G1 X58.845 Y126.691 E46.9903
G1 X58.694 Y125.991 E47.02364
G1 X58.624 Y125.31 E47.05552
G1 X58.6 Y124.67 E47.08534
G1 X58.6 Y85.698 E48.90004
G1 X58.611 Y84.916 E48.93646
G1 X58.661 Y84.203 E48.96974
G1 X58.791 Y83.499 E49.00308
G1 X58.998 Y82.815 E49.03635
G1 X59.28 Y82.158 E49.06964
G1 X59.634 Y81.536 E49.10297
G1 X60.055 Y80.958 E49.13627
G1 X60.538 Y80.43 E49.16959
G1 X61.077 Y79.96 E49.20289
G1 X61.665 Y79.553 E49.23619
G1 X62.295 Y79.213 E49.26952
G1 X63.189 Y78.873 E49.31406
G1 X66.058 Y77.997 E49.45374
G1 X68.562 Y77.15 E49.57683
G1 X71.074 Y76.221 E49.70154
G1 X73.495 Y75.247 E49.82305
G1 X75.941 Y74.181 E49.94729
G1 X78.319 Y73.064 E50.06963
G1 X80.678 Y71.873 E50.19268
G1 X83.038 Y70.598 E50.31758
G1 X85.309 Y69.285 E50.43973
G1 X87.583 Y67.883 E50.56413
G1 X89.777 Y66.445 E50.68628
G1 X91.935 Y64.939 E50.80881
G1 X94.097 Y63.34 E50.93403
G1 X96.157 Y61.722 E51.056
G1 X98.201 Y60.024 E51.17973
G1 X100.195 Y58.267 E51.30349
G1 X102.113 Y56.48 E51.42555
G1 X104.001 Y54.617 E51.54906
G1 X105.836 Y52.702 E51.67256
G1 X107.61 Y50.743 E51.79562
G1 X109.333 Y48.727 E51.91911
G1 X111.021 Y46.638 E52.04417
G1 X112.6 Y44.563 E52.16558
G1 X114.304 Y42.184 E52.30184
G1 X114.872 Y41.364 E52.34829
G1 X115.312 Y40.8 E52.3816
G1 X115.812 Y40.288 E52.41493
G1 X116.366 Y39.836 E52.44822
G1 X116.967 Y39.448 E52.48153
G1 X117.607 Y39.13 E52.51481
G1 X118.279 Y38.885 E52.54811
G1 X118.974 Y38.716 E52.58142
G1 X119.882 Y38.616 E52.62395
G1 X120.535 Y38.6 E52.65437
G1 X144.167 Y38.6 E53.75477
G1 X144.957 Y38.611 E53.79156
M204 S3000
M205 X10 Y10
G0 F3000 X144.965 Y38.051
M204 S1800
M205 X8 Y8
G1 F2400 X145.709 Y38.101 E53.82628
G1 X146.443 Y38.231 E53.86099
G1 X147.16 Y38.439 E53.89576
G1 X147.85 Y38.723 E53.9305
G1 X148.506 Y39.078 E53.96523
G1 X149.119 Y39.502 E53.99994
G1 X149.685 Y39.989 E54.03471
G1 X150.194 Y40.533 E54.0694
G1 X150.643 Y41.129 E54.10415
G1 X151.025 Y41.77 E54.13889
G1 X151.336 Y42.448 E54.17362
G1 X151.573 Y43.155 E54.20835
G1 X151.733 Y43.884 E54.2431
G1 X151.822 Y44.814 E54.2866
G1 X151.834 Y45.33 E54.31064
G1 X151.834 Y123.099 E57.93189
G1 X151.835 Y164.277 E59.84931
G1 X151.824 Y165.087 E59.88703
G1 X151.774 Y165.831 E59.92175
G1 X151.644 Y166.566 E59.9565
G1 X151.436 Y167.282 E59.99122
G1 X151.153 Y167.972 E60.02595
G1 X150.798 Y168.628 E60.06068
G1 X150.374 Y169.242 E60.09543
G1 X149.888 Y169.807 E60.13013
G1 X149.343 Y170.317 E60.16488
G1 X148.747 Y170.766 E60.19963
G1 X148.107 Y171.148 E60.23434
G1 X147.429 Y171.459 E60.26907
G1 X146.722 Y171.697 E60.30381
G1 X145.993 Y171.857 E60.33856
G1 X145.087 Y171.945 E60.38095
G1 X144.551 Y171.959 E60.40591
G1 X120.833 Y171.96 E61.51032
G1 X120.035 Y171.949 E61.54748
G1 X119.291 Y171.899 E61.58221
G1 X118.557 Y171.769 E61.61692
G1 X117.84 Y171.561 E61.65168
G1 X117.15 Y171.277 E61.68642
G1 X116.494 Y170.922 E61.72115
G1 X115.881 Y170.498 E61.75586
G1 X115.315 Y170.011 E61.79063
G1 X114.806 Y169.467 E61.82532
G1 X114.434 Y168.982 E61.85378
G1 X112.901 Y166.793 E61.97822
G1 X111.326 Y164.668 E62.10138
G1 X109.691 Y162.586 E62.22465
G1 X108.018 Y160.576 E62.34642
G1 X106.266 Y158.589 E62.46978
G1 X104.48 Y156.673 E62.59174
G1 X102.634 Y154.805 E62.71403
G1 X100.729 Y152.982 E62.83681
G1 X98.768 Y151.209 E62.95991
G1 X96.773 Y149.504 E63.08211
G1 X94.732 Y147.86 E63.20414
G1 X92.615 Y146.249 E63.32802
G1 X90.5 Y144.732 E63.44921
G1 X88.303 Y143.25 E63.57261
G1 X86.103 Y141.853 E63.69396
G1 X83.833 Y140.502 E63.81697
G1 X81.521 Y139.211 E63.94027
G1 X79.195 Y137.999 E64.0624
G1 X76.839 Y136.854 E64.18438
G1 X74.431 Y135.768 E64.30738
G1 X71.987 Y134.745 E64.43075
G1 X69.52 Y133.794 E64.55386
G1 X67.097 Y132.942 E64.67346
G1 X64.549 Y132.124 E64.79807
G1 X64.065 Y131.982 E64.82156
G1 X62.984 Y131.652 E64.87418
G1 X62.283 Y131.396 E64.90893
G1 X61.614 Y131.067 E64.94365
G1 X60.984 Y130.668 E64.97837
G1 X60.4 Y130.204 E65.0131
G1 X59.869 Y129.68 E65.04784
G1 X59.397 Y129.102 E65.08259
G1 X58.99 Y128.477 E65.11732
G1 X58.652 Y127.812 E65.15205
G1 X58.387 Y127.115 E65.18678
G1 X58.198 Y126.393 E65.22153
G1 X58.064 Y125.337 E65.27109
G1 X58.04 Y124.67 E65.30217
G1 X58.04 Y85.698 E67.11687
G1 X58.051 Y84.908 E67.15366
G1 X58.102 Y84.164 E67.18839
G1 X58.232 Y83.429 E67.22314
G1 X58.44 Y82.713 E67.25786
G1 X58.723 Y82.023 E67.29259
G1 X59.079 Y81.367 E67.32734
G1 X59.503 Y80.753 E67.36209
G1 X59.99 Y80.189 E67.39679
G1 X60.534 Y79.679 E67.43151
G1 X61.13 Y79.231 E67.46623
G1 X61.771 Y78.849 E67.50097
G1 X62.449 Y78.537 E67.53572
G1 X63.03 Y78.337 E67.56434
G1 X65.881 Y77.466 E67.70315
G1 X68.377 Y76.622 E67.82584
G1 X70.849 Y75.708 E67.94856
G1 X73.3 Y74.721 E68.07159
G1 X75.7 Y73.675 E68.1935
G1 X78.079 Y72.558 E68.31588
G1 X80.438 Y71.367 E68.43893
G1 X82.743 Y70.121 E68.56094
G1 X85.039 Y68.794 E68.68442
G1 X87.25 Y67.431 E68.80537
G1 X89.468 Y65.977 E68.92886
G1 X91.642 Y64.46 E69.0523
G1 X93.743 Y62.906 E69.17398
G1 X95.812 Y61.282 E69.29646
G1 X97.831 Y59.603 E69.41873
G1 X99.802 Y57.867 E69.54103
G1 X101.733 Y56.067 E69.66395
G1 X103.617 Y54.209 E69.78717
G1 X105.414 Y52.335 E69.90806
G1 X107.197 Y50.365 E70.03179
G1 X108.907 Y48.364 E70.15435
G1 X110.567 Y46.309 E70.27736
G1 X112.142 Y44.239 E70.39848
G1 X113.886 Y41.804 E70.53794
G1 X114.412 Y41.045 E70.58094
G1 X114.869 Y40.455 E70.61569
G1 X115.387 Y39.918 E70.65043
G1 X115.959 Y39.44 E70.68514
G1 X116.579 Y39.026 E70.71986
G1 X117.24 Y38.68 E70.7546
G1 X117.934 Y38.407 E70.78933
G1 X118.654 Y38.21 E70.82408
G1 X119.39 Y38.091 E70.8588
G1 X120.091 Y38.047 E70.89151
