;FLAVOR:Marlin
;TIME:2444
;Filament used: 1.13469m
;Layer height: 0.2
;MINX:88.62
;MINY:88.623
;MINZ:0.2
;MAXX:121.384
;MAXY:121.379
;MAXZ:86
;Generated with Cura_SteamEngine 4.6.1
M140 S60
M105
M190 S60
M104 S200
M105
M109 S200
M82 ;absolute extrusion mode
G21 ;metric values
G90 ;absolute positioning
M82 ;set extruder to absolute mode
M107 ;start with the fan off
G28 X0 Y0 ;move X/Y to min endstops
G28 Z0 ;move Z to min endstops
G1 Z15.0 F100 ;move the platform down 15mm
G92 E0 ;zero the extruded length
G1 F200 E3 ;extrude 3mm of feed stock
G92 E0 ;zero the extruded length again
G1 F100
G0 Y20 F100
M117 Printing...
G5
G92 E0
G92 E0
G1 F2400 E-6
;LAYER_COUNT:430
;LAYER:0
M106 S255
M204 S3000
M205 X10 Y10
G1 F600 Z0.275
G0 F3000 X106.393 Y89.798 Z0.275
M204 S1800
M205 X8 Y8
;TYPE:SKIRT
G1 F600 Z0.2
G1 F2400 E0
G1 X106.94 Y89.86 E0.02563
G1 X107.647 Y89.967 E0.05893
G1 X108.28 Y90.092 E0.08897
G1 X109.202 Y90.324 E0.13324
G1 X109.906 Y90.543 E0.16757
G1 X110.655 Y90.818 E0.20473
G1 X111.213 Y91.053 E0.23292
G1 X111.885 Y91.376 E0.26764
G1 X112.942 Y91.968 E0.32405
G1 X113.527 Y92.334 E0.35618
G1 X114.01 Y92.675 E0.38371
G1 X114.67 Y93.192 E0.42275
G1 X115.332 Y93.768 E0.46361
G1 X115.682 Y94.102 E0.48614
G1 X116.361 Y94.812 E0.53189
G1 X116.703 Y95.207 E0.55622
G1 X117.301 Y95.971 E0.60139
G1 X117.757 Y96.609 E0.63791
G1 X118.051 Y97.076 E0.6636
G1 X118.444 Y97.775 E0.70094
G1 X118.838 Y98.565 E0.74205
G1 X119.135 Y99.223 E0.77567
G1 X119.334 Y99.744 E0.80164
G1 X119.516 Y100.279 E0.82795
G1 X119.749 Y101.088 E0.86715
G1 X119.929 Y101.851 E0.90366
G1 X120.09 Y102.753 E0.94632
G1 X120.187 Y103.46 E0.97955
G1 X120.233 Y104.041 E1.00669
G1 X120.265 Y104.764 E1.04039
G1 X120.262 Y105.44 E1.07186
G1 X120.224 Y106.124 E1.10376
G1 X120.117 Y107.079 E1.14851
G1 X119.998 Y107.801 E1.18258
G1 X119.811 Y108.66 E1.22352
G1 X119.688 Y109.124 E1.24587
G1 X119.392 Y110.063 E1.29172
G1 X119.119 Y110.806 E1.32857
G1 X118.899 Y111.308 E1.3541
G1 X118.542 Y112.032 E1.39168
G1 X118.101 Y112.82 E1.43373
G1 X117.714 Y113.449 E1.46812
G1 X117.416 Y113.877 E1.4924
G1 X117.101 Y114.298 E1.51689
G1 X116.339 Y115.207 E1.57212
G1 X115.818 Y115.77 E1.60784
G1 X115.42 Y116.153 E1.63356
G1 X114.876 Y116.642 E1.66762
G1 X114.315 Y117.096 E1.70122
G1 X113.621 Y117.601 E1.74119
G1 X113.151 Y117.911 E1.76741
G1 X112.482 Y118.304 E1.80353
G1 X111.637 Y118.74 E1.84781
G1 X111.057 Y119.013 E1.87766
G1 X110.327 Y119.306 E1.91429
G1 X109.769 Y119.501 E1.94181
G1 X108.603 Y119.83 E1.99822
G1 X108.126 Y119.936 E2.02098
G1 X107.158 Y120.106 E2.06674
G1 X106.645 Y120.171 E2.09082
G1 X105.659 Y120.246 E2.13686
G1 X105.135 Y120.26 E2.16127
G1 X104.154 Y120.237 E2.20697
G1 X103.64 Y120.199 E2.23096
G1 X102.67 Y120.081 E2.27646
G1 X102.15 Y119.991 E2.30104
G1 X101.176 Y119.772 E2.34752
G1 X100.684 Y119.637 E2.37128
G1 X99.766 Y119.335 E2.41628
G1 X99.076 Y119.073 E2.45065
G1 X98.57 Y118.846 E2.47647
G1 X98.12 Y118.626 E2.4998
G1 X97.058 Y118.032 E2.55646
G1 X96.462 Y117.658 E2.58922
G1 X95.989 Y117.324 E2.61618
G1 X95.33 Y116.808 E2.65516
G1 X94.669 Y116.233 E2.69595
G1 X94.316 Y115.896 E2.71868
G1 X93.655 Y115.204 E2.76324
G1 X93.347 Y114.851 E2.78505
G1 X92.84 Y114.216 E2.82289
G1 X92.443 Y113.683 E2.85383
G1 X91.987 Y112.983 E2.89273
G1 X91.71 Y112.512 E2.91818
G1 X91.154 Y111.417 E2.97536
G1 X90.864 Y110.773 E3.00825
G1 X90.648 Y110.21 E3.03633
G1 X90.4 Y109.446 E3.07373
G1 X90.17 Y108.603 E3.11442
G1 X90.064 Y108.126 E3.13717
G1 X89.894 Y107.158 E3.18294
G1 X89.829 Y106.645 E3.20701
G1 X89.754 Y105.659 E3.25306
G1 X89.74 Y105.148 E3.27686
G1 X89.76 Y104.201 E3.32097
G1 X89.794 Y103.708 E3.34398
G1 X89.89 Y102.875 E3.38302
G1 X89.978 Y102.276 E3.41122
G1 X90.13 Y101.541 E3.44616
G1 X90.298 Y100.898 E3.47711
G1 X90.672 Y99.746 E3.53351
G1 X90.935 Y99.055 E3.56794
G1 X91.154 Y98.568 E3.5928
G1 X91.375 Y98.117 E3.61619
G1 X91.969 Y97.056 E3.67281
G1 X92.348 Y96.451 E3.70605
G1 X92.675 Y95.99 E3.73237
G1 X93.192 Y95.33 E3.77141
G1 X93.768 Y94.668 E3.81227
G1 X94.104 Y94.316 E3.83493
G1 X94.795 Y93.656 E3.87942
G1 X95.715 Y92.892 E3.9351
G1 X96.235 Y92.504 E3.96532
G1 X96.752 Y92.156 E3.99433
G1 X97.59 Y91.654 E4.03982
G1 X98.259 Y91.303 E4.075
G1 X98.844 Y91.034 E4.10498
G1 X99.702 Y90.691 E4.14801
G1 X100.415 Y90.448 E4.18308
G1 X101.243 Y90.214 E4.22315
G1 X101.71 Y90.105 E4.24548
G1 X102.712 Y89.918 E4.29294
G1 X103.46 Y89.813 E4.32811
G1 X104.011 Y89.77 E4.35385
G1 X104.541 Y89.747 E4.37855
G1 X104.861 Y89.743 E4.39345
G1 X105.677 Y89.757 E4.43145
G1 X106.393 Y89.798 E4.46485
M204 S3000
M205 X10 Y10
G0 F3000 X106.45 Y89.241
M204 S1800
M205 X8 Y8
G1 F2400 X107.024 Y89.307 E4.49175
G1 X107.731 Y89.414 E4.52505
G1 X108.396 Y89.544 E4.5566
G1 X109.341 Y89.782 E4.60198
G1 X110.081 Y90.011 E4.63805
G1 X110.851 Y90.294 E4.67625
G1 X111.437 Y90.539 E4.70582
G1 X112.131 Y90.873 E4.74168
G1 X113.22 Y91.482 E4.79978
G1 X113.845 Y91.873 E4.83411
G1 X114.35 Y92.23 E4.86291
G1 X115.037 Y92.769 E4.90357
G1 X115.699 Y93.345 E4.94443
G1 X116.087 Y93.715 E4.96939
G1 X116.766 Y94.425 E5.01514
G1 X117.144 Y94.861 E5.04201
G1 X117.742 Y95.625 E5.08719
G1 X118.045 Y96.037 E5.111
G1 X118.398 Y96.572 E5.14085
G1 X118.771 Y97.203 E5.17498
G1 X119.339 Y98.316 E5.23316
G1 X119.655 Y99.017 E5.26897
G1 X119.864 Y99.563 E5.29619
G1 X120.046 Y100.098 E5.3225
G1 X120.289 Y100.939 E5.36327
G1 X120.48 Y101.753 E5.4022
G1 X120.641 Y102.655 E5.44486
G1 X120.745 Y103.411 E5.4804
G1 X120.792 Y104.016 E5.50865
G1 X120.824 Y104.739 E5.54235
G1 X120.822 Y105.451 E5.57551
G1 X120.783 Y106.158 E5.60848
G1 X120.673 Y107.147 E5.65481
G1 X120.545 Y107.92 E5.6913
G1 X120.358 Y108.779 E5.73223
G1 X120.222 Y109.293 E5.75699
G1 X119.926 Y110.232 E5.80284
G1 X119.761 Y110.704 E5.82612
G1 X119.502 Y111.334 E5.85784
G1 X119.204 Y111.969 E5.8905
G1 X118.589 Y113.093 E5.95016
G1 X118.176 Y113.765 E5.98689
G1 X117.864 Y114.213 E6.01231
G1 X117.549 Y114.634 E6.03679
G1 X116.765 Y115.571 E6.09368
G1 X116.209 Y116.171 E6.13177
G1 X115.794 Y116.569 E6.15855
G1 X115.25 Y117.058 E6.19261
G1 X114.66 Y117.537 E6.22799
G1 X113.948 Y118.055 E6.26899
G1 X113.454 Y118.383 E6.2966
G1 X112.762 Y118.789 E6.33396
G1 X111.889 Y119.24 E6.37972
G1 X111.293 Y119.521 E6.4104
G1 X110.528 Y119.829 E6.4488
G1 X109.95 Y120.031 E6.47731
G1 X108.751 Y120.37 E6.53533
G1 X108.223 Y120.488 E6.56052
G1 X107.255 Y120.658 E6.60629
G1 X106.688 Y120.729 E6.63289
G1 X105.702 Y120.804 E6.67894
G1 X105.122 Y120.819 E6.70595
G1 X104.141 Y120.796 E6.75165
G1 X103.573 Y120.755 E6.77816
G1 X102.603 Y120.637 E6.82366
G1 X102.027 Y120.538 E6.85088
G1 X101.053 Y120.319 E6.89736
G1 X100.509 Y120.169 E6.92364
G1 X99.591 Y119.867 E6.96864
G1 X98.852 Y119.586 E7.00545
G1 X98.324 Y119.35 E7.03238
G1 X97.874 Y119.13 E7.05571
G1 X96.78 Y118.518 E7.11408
G1 X96.143 Y118.119 E7.14908
G1 X95.649 Y117.769 E7.17727
G1 X94.962 Y117.23 E7.21793
G1 X94.301 Y116.655 E7.25872
G1 X93.911 Y116.283 E7.28382
G1 X93.25 Y115.591 E7.32838
G1 X92.909 Y115.201 E7.3525
G1 X92.402 Y114.566 E7.39034
G1 X91.991 Y114.015 E7.42235
G1 X91.512 Y113.28 E7.4632
G1 X91.226 Y112.792 E7.48954
G1 X90.652 Y111.666 E7.54839
G1 X90.344 Y110.98 E7.5834
G1 X90.118 Y110.389 E7.61287
G1 X89.86 Y109.593 E7.65183
G1 X89.63 Y108.75 E7.69252
G1 X89.512 Y108.223 E7.71767
G1 X89.342 Y107.255 E7.76343
G1 X89.271 Y106.688 E7.79004
G1 X89.196 Y105.702 E7.83608
G1 X89.18 Y105.136 E7.86245
G1 X89.2 Y104.189 E7.90656
G1 X89.237 Y103.643 E7.93204
G1 X89.333 Y102.81 E7.97108
G1 X89.425 Y102.19 E8.00027
G1 X89.584 Y101.42 E8.03688
G1 X89.757 Y100.753 E8.06897
G1 X90.141 Y99.569 E8.12692
G1 X90.422 Y98.83 E8.16374
G1 X90.651 Y98.321 E8.18973
G1 X90.872 Y97.87 E8.21311
G1 X91.483 Y96.778 E8.27138
G1 X91.888 Y96.131 E8.30692
G1 X92.23 Y95.65 E8.33441
G1 X92.769 Y94.963 E8.37507
G1 X93.345 Y94.301 E8.41593
G1 X93.717 Y93.911 E8.44102
G1 X94.408 Y93.251 E8.48552
G1 X94.784 Y92.921 E8.50881
G1 X95.364 Y92.455 E8.54346
G1 X95.904 Y92.052 E8.57483
G1 X96.445 Y91.688 E8.60519
G1 X97.304 Y91.172 E8.65185
G1 X97.753 Y90.928 E8.67565
G1 X98.61 Y90.525 E8.71975
G1 X99.5 Y90.169 E8.76438
G1 X100.263 Y89.909 E8.80192
G1 X101.091 Y89.675 E8.84198
G1 X101.608 Y89.554 E8.86671
G1 X102.61 Y89.367 E8.91417
G1 X103.411 Y89.255 E8.95183
G1 X103.987 Y89.21 E8.97873
G1 X104.517 Y89.187 E9.00343
G1 X104.87 Y89.183 E9.01987
G1 X105.686 Y89.197 E9.05787
G1 X106.45 Y89.241 E9.09351
M204 S3000
M205 X10 Y10
G0 F3000 X106.508 Y88.684
M204 S1800
M205 X8 Y8
G1 F2400 X107.108 Y88.753 E9.12163
G1 X107.815 Y88.86 E9.15493
G1 X108.512 Y88.996 E9.18799
G1 X109.481 Y89.239 E9.23451
G1 X110.256 Y89.479 E9.27229
G1 X111.047 Y89.769 E9.31152
G1 X111.66 Y90.026 E9.34247
G1 X112.377 Y90.37 E9.3795
G1 X113.498 Y90.996 E9.43929
G1 X114.163 Y91.412 E9.47581
G1 X114.69 Y91.784 E9.50585
G1 X115.405 Y92.347 E9.54822
G1 X116.067 Y92.923 E9.58908
G1 X116.491 Y93.328 E9.61639
G1 X117.17 Y94.038 E9.66213
G1 X117.585 Y94.516 E9.69161
G1 X118.183 Y95.28 E9.73679
G1 X118.498 Y95.709 E9.76157
G1 X118.87 Y96.269 E9.79287
G1 X119.256 Y96.922 E9.82819
G1 X119.84 Y98.066 E9.888
G1 X120.176 Y98.811 E9.92606
G1 X120.394 Y99.383 E9.95456
G1 X120.576 Y99.918 E9.98088
G1 X120.828 Y100.79 E10.02314
G1 X121.031 Y101.654 E10.06447
G1 X121.192 Y102.556 E10.10713
G1 X121.303 Y103.363 E10.14506
G1 X121.352 Y103.991 E10.1744
G1 X121.384 Y104.714 E10.20809
G1 X121.382 Y105.463 E10.24297
G1 X121.342 Y106.192 E10.27697
G1 X121.229 Y107.215 E10.32489
G1 X121.093 Y108.039 E10.36378
G1 X120.906 Y108.898 E10.40472
G1 X120.756 Y109.461 E10.43185
G1 X120.46 Y110.4 E10.47769
G1 X120.288 Y110.894 E10.50205
G1 X120.017 Y111.555 E10.53531
G1 X119.71 Y112.21 E10.569
G1 X119.078 Y113.367 E10.63039
G1 X118.639 Y114.081 E10.66941
G1 X118.312 Y114.548 E10.69596
G1 X117.997 Y114.969 E10.72044
G1 X117.191 Y115.934 E10.77899
G1 X116.6 Y116.572 E10.81948
G1 X116.168 Y116.986 E10.84735
G1 X115.624 Y117.475 E10.88141
G1 X115.005 Y117.978 E10.91855
G1 X114.276 Y118.51 E10.96057
G1 X113.756 Y118.854 E10.9896
G1 X113.042 Y119.274 E11.02817
G1 X112.141 Y119.74 E11.07541
G1 X111.529 Y120.028 E11.1069
G1 X110.728 Y120.352 E11.14714
G1 X110.131 Y120.561 E11.17659
G1 X108.898 Y120.91 E11.23626
G1 X108.32 Y121.04 E11.26385
G1 X107.352 Y121.21 E11.30961
G1 X106.73 Y121.288 E11.3388
G1 X105.744 Y121.363 E11.38484
G1 X105.109 Y121.379 E11.41442
G1 X104.128 Y121.356 E11.46011
G1 X103.505 Y121.311 E11.4892
G1 X102.535 Y121.193 E11.5347
G1 X101.904 Y121.084 E11.56452
G1 X100.93 Y120.865 E11.611
G1 X100.334 Y120.7 E11.6398
G1 X99.416 Y120.398 E11.6848
G1 X98.628 Y120.099 E11.72404
G1 X98.078 Y119.853 E11.7521
G1 X97.628 Y119.633 E11.77542
G1 X96.502 Y119.004 E11.83548
G1 X95.825 Y118.58 E11.87268
G1 X95.309 Y118.215 E11.90211
G1 X94.595 Y117.653 E11.94442
G1 X93.934 Y117.078 E11.98521
G1 X93.506 Y116.67 E12.01275
G1 X92.845 Y115.978 E12.05731
G1 X92.472 Y115.55 E12.08374
G1 X91.965 Y114.915 E12.12158
G1 X91.54 Y114.346 E12.15465
G1 X91.038 Y113.578 E12.19737
G1 X90.741 Y113.073 E12.22465
G1 X90.151 Y111.916 E12.28513
G1 X89.823 Y111.186 E12.32239
G1 X89.587 Y110.568 E12.3532
G1 X89.32 Y109.741 E12.39366
G1 X89.09 Y108.898 E12.43435
G1 X88.96 Y108.32 E12.46194
G1 X88.79 Y107.352 E12.5077
G1 X88.712 Y106.73 E12.53689
G1 X88.637 Y105.744 E12.58294
G1 X88.62 Y105.124 E12.61182
G1 X88.64 Y104.177 E12.65592
G1 X88.681 Y103.579 E12.68383
G1 X88.777 Y102.746 E12.72288
G1 X88.872 Y102.104 E12.7531
G1 X89.037 Y101.298 E12.79141
G1 X89.216 Y100.608 E12.8246
G1 X89.609 Y99.392 E12.8841
G1 X89.909 Y98.605 E12.92332
G1 X90.148 Y98.075 E12.9504
G1 X90.369 Y97.624 E12.97378
G1 X90.997 Y96.5 E13.03373
G1 X91.428 Y95.812 E13.07154
G1 X91.784 Y95.31 E13.10019
G1 X92.347 Y94.595 E13.14257
G1 X92.923 Y93.933 E13.18343
G1 X93.331 Y93.506 E13.21093
G1 X94.022 Y92.846 E13.25543
G1 X94.433 Y92.485 E13.2809
G1 X95.013 Y92.019 E13.31554
G1 X95.572 Y91.601 E13.34804
G1 X96.139 Y91.219 E13.37988
G1 X97.019 Y90.69 E13.42769
G1 X97.493 Y90.432 E13.45282
G1 X98.376 Y90.016 E13.49827
G1 X99.298 Y89.647 E13.54451
G1 X100.11 Y89.37 E13.58446
G1 X100.938 Y89.136 E13.62453
G1 X101.505 Y89.004 E13.65163
G1 X102.507 Y88.817 E13.6991
G1 X103.362 Y88.697 E13.7393
G1 X103.963 Y88.651 E13.76737
G1 X104.493 Y88.628 E13.79207
G1 X104.88 Y88.623 E13.81009
G1 X105.696 Y88.637 E13.84809
G1 X106.508 Y88.684 E13.88597
M204 S3000
M205 X10 Y10
G1 F2400 E7.88597
;MESH:spool_holder.obj
G0 F3000 X106.019 Y94.391
G0 X105.812 Y95.9
G0 X106.601 Y96.556
M204 S1800
M205 X8 Y8
;TYPE:WALL-INNER
G1 F2400 E13.88597
G1 F1500 X107.504 Y96.775 E13.92923
G1 X108.284 Y97.053 E13.96779
G1 X109.053 Y97.417 E14.00741
G1 X109.77 Y97.846 E14.04631
G1 X110.465 Y98.362 E14.08662
G1 X111.081 Y98.919 E14.12529
G1 X111.638 Y99.535 E14.16396
G1 X112.154 Y100.23 E14.20427
G1 X112.583 Y100.947 E14.24317
G1 X112.939 Y101.698 E14.28187
G1 X113.197 Y102.422 E14.31766
G1 X113.412 Y103.245 E14.35727
G1 X113.544 Y104.073 E14.39631
G1 X113.598 Y105.012 E14.44011
G1 X113.564 Y105.743 E14.47418
G1 X113.444 Y106.61 E14.51494
G1 X113.254 Y107.399 E14.55273
G1 X112.97 Y108.219 E14.59314
G1 X112.624 Y108.97 E14.63164
G1 X112.199 Y109.694 E14.67073
G1 X111.694 Y110.387 E14.71066
G1 X111.133 Y111.02 E14.75005
G1 X110.453 Y111.648 E14.79315
G1 X109.781 Y112.147 E14.83212
G1 X109.126 Y112.539 E14.86767
G1 X108.281 Y112.948 E14.91138
G1 X107.507 Y113.224 E14.94964
G1 X106.675 Y113.434 E14.9896
G1 X105.838 Y113.558 E15.029
G1 X105 Y113.599 E15.06807
G1 X104.162 Y113.558 E15.10713
G1 X103.325 Y113.434 E15.14653
G1 X102.493 Y113.224 E15.18649
G1 X101.716 Y112.947 E15.2249
G1 X100.947 Y112.583 E15.26452
G1 X100.23 Y112.154 E15.30342
G1 X99.535 Y111.638 E15.34373
G1 X98.921 Y111.081 E15.38233
G1 X98.424 Y110.533 E15.41678
G1 X97.847 Y109.769 E15.46136
G1 X97.417 Y109.051 E15.50033
G1 X97.053 Y108.284 E15.53986
G1 X96.776 Y107.507 E15.57827
G1 X96.566 Y106.675 E15.61823
G1 X96.442 Y105.838 E15.65763
G1 X96.401 Y104.999 E15.69674
G1 X96.436 Y104.261 E15.73115
G1 X96.57 Y103.311 E15.77582
G1 X96.774 Y102.497 E15.8149
G1 X97.053 Y101.716 E15.85351
G1 X97.417 Y100.947 E15.89313
G1 X97.846 Y100.23 E15.93204
G1 X98.362 Y99.535 E15.97234
G1 X98.92 Y98.92 E16.01101
G1 X99.481 Y98.41 E16.04631
G1 X100.142 Y97.909 E16.08494
G1 X100.954 Y97.414 E16.12922
G1 X101.617 Y97.1 E16.16338
G1 X102.426 Y96.802 E16.20352
G1 X103.243 Y96.588 E16.24285
G1 X104.073 Y96.456 E16.28198
G1 X104.909 Y96.409 E16.32097
G1 X105.765 Y96.44 E16.36086
G1 X106.601 Y96.556 E16.40016
M204 S3000
M205 X10 Y10
G0 F3000 X101.226 Y101.902
G0 X100.694 Y102.699
G0 X100.328 Y103.583
G0 X100.141 Y104.523
G0 X100.141 Y105.477
G0 X100.328 Y106.417
G0 X100.694 Y107.301
G0 X101.226 Y108.098
G0 X103.944 Y110.301
M204 S1800
M205 X8 Y8
G1 F1500 X104.473 Y110.378 E16.42505
G1 X105 Y110.404 E16.44962
G1 X105.527 Y110.378 E16.47419
G1 X106.056 Y110.301 E16.49908
G1 X106.569 Y110.17 E16.52373
G1 X107.067 Y109.993 E16.54834
G1 X107.547 Y109.765 E16.57309
G1 X108.002 Y109.493 E16.59777
G1 X108.429 Y109.177 E16.62251
G1 X108.82 Y108.82 E16.64716
G1 X109.177 Y108.429 E16.67181
G1 X109.493 Y108.002 E16.69655
G1 X109.765 Y107.547 E16.72123
G1 X109.993 Y107.067 E16.74598
G1 X110.17 Y106.569 E16.77059
G1 X110.301 Y106.056 E16.79524
G1 X110.378 Y105.529 E16.82004
G1 X110.405 Y105 E16.84471
G1 X110.378 Y104.471 E16.86937
G1 X110.301 Y103.944 E16.89417
G1 X110.17 Y103.431 E16.91882
G1 X109.993 Y102.933 E16.94343
G1 X109.765 Y102.453 E16.96818
G1 X109.493 Y101.998 E16.99286
G1 X109.177 Y101.571 E17.0176
G1 X108.82 Y101.18 E17.04225
G1 X108.429 Y100.823 E17.06691
G1 X108.002 Y100.507 E17.09164
G1 X107.547 Y100.235 E17.11632
G1 X107.067 Y100.007 E17.14107
G1 X106.569 Y99.83 E17.16568
G1 X106.056 Y99.699 E17.19033
G1 X105.529 Y99.622 E17.21513
G1 X105 Y99.595 E17.2398
G1 X104.471 Y99.622 E17.26446
G1 X103.944 Y99.699 E17.28926
G1 X103.431 Y99.83 E17.31392
G1 X102.933 Y100.007 E17.33853
G1 X102.453 Y100.235 E17.36327
G1 X101.998 Y100.507 E17.38795
G1 X101.571 Y100.823 E17.41269
G1 X101.18 Y101.18 E17.43734
G1 X100.823 Y101.571 E17.462
G1 X100.507 Y101.998 E17.48673
G1 X100.235 Y102.453 E17.51142
G1 X100.007 Y102.933 E17.53616
G1 X99.83 Y103.431 E17.56077
G1 X99.699 Y103.944 E17.58542
