;FLAVOR:Marlin
;TIME:580
;Filament used: 0.603181m
;Layer height: 0.2
;MINX:78.041
;MINY:97.409
;MINZ:0.2
;MAXX:131.96
;MAXY:112.592
;MAXZ:8
;Generated with Cura_SteamEngine 4.6.1
M140 S65
M105
M190 S65
M104 S200
M105
M109 S200
M82 ;absolute extrusion mode
G21 ;metric values
G90 ;absolute positioning
M82 ;set extruder to absolute mode
M107 ;start with the fan off
G28 X0 Y0 ;move X/Y to min endstops
G28 Z0 ;move Z to min endstops
G1 Z15.0 F100 ;move the platform down 15mm
G92 E0 ;zero the extruded length
G1 F200 E3 ;extrude 3mm of feed stock
G92 E0 ;zero the extruded length again
G1 F100
G0 Y20 F100
M117 Printing...
G5
G92 E0
G92 E0
G1 F2400 E-6
;LAYER_COUNT:40
;LAYER:0
M106 S255
M204 S3000
M205 X10 Y10
G1 F600 Z0.275
G0 F3000 X125.067 Y99.1 Z0.275
M204 S1800
M205 X8 Y8
;TYPE:SKIRT
G1 F600 Z0.2
G1 F2400 E0
G1 X125.714 Y99.149 E0.03021
G1 X126.351 Y99.277 E0.06047
G1 X126.967 Y99.483 E0.09071
G1 X127.554 Y99.763 E0.121
G1 X128.101 Y100.112 E0.15121
G1 X128.602 Y100.526 E0.18147
G1 X129.047 Y100.999 E0.21171
G1 X129.432 Y101.523 E0.24199
G1 X129.749 Y102.09 E0.27224
G1 X129.994 Y102.691 E0.30246
G1 X130.163 Y103.318 E0.3327
G1 X130.269 Y104.231 E0.3755
G1 X130.28 Y104.756 E0.39995
G1 X130.27 Y105.676 E0.44279
G1 X130.223 Y106.324 E0.47304
G1 X130.096 Y106.962 E0.50333
G1 X129.893 Y107.578 E0.53353
G1 X129.615 Y108.166 E0.56382
G1 X129.267 Y108.714 E0.59405
G1 X128.855 Y109.216 E0.62429
G1 X128.384 Y109.664 E0.65455
G1 X127.862 Y110.05 E0.68478
G1 X127.296 Y110.369 E0.71504
G1 X126.695 Y110.616 E0.74529
G1 X126.068 Y110.788 E0.77557
G1 X125.188 Y110.895 E0.81685
G1 X124.67 Y110.911 E0.84098
G1 X85.708 Y110.912 E2.65521
G1 X84.949 Y110.901 E2.69056
G1 X84.302 Y110.852 E2.72077
G1 X83.665 Y110.723 E2.75103
G1 X83.049 Y110.517 E2.78128
G1 X82.463 Y110.237 E2.81152
G1 X81.915 Y109.888 E2.84177
G1 X81.415 Y109.473 E2.87203
G1 X80.969 Y109.001 E2.90227
G1 X80.585 Y108.477 E2.93252
G1 X80.268 Y107.91 E2.96277
G1 X80.023 Y107.308 E2.99303
G1 X79.854 Y106.681 E3.02327
G1 X79.765 Y106.052 E3.05285
G1 X79.721 Y105.324 E3.08681
G1 X79.729 Y104.306 E3.13421
G1 X79.778 Y103.659 E3.16443
G1 X79.906 Y103.022 E3.19468
G1 X80.111 Y102.405 E3.22496
G1 X80.391 Y101.819 E3.2552
G1 X80.74 Y101.271 E3.28545
G1 X81.154 Y100.77 E3.31571
G1 X81.626 Y100.324 E3.34595
G1 X82.149 Y99.939 E3.37619
G1 X82.716 Y99.622 E3.40644
G1 X83.317 Y99.376 E3.43668
G1 X83.944 Y99.206 E3.46693
G1 X84.861 Y99.1 E3.50991
G1 X124.293 Y99.089 E5.34603
G1 X125.067 Y99.1 E5.38207
M204 S3000
M205 X10 Y10
G0 F3000 X125.075 Y98.54
M204 S1800
M205 X8 Y8
G1 F2400 X125.756 Y98.589 E5.41387
G1 X126.427 Y98.718 E5.44568
G1 X127.078 Y98.925 E5.47749
G1 X127.701 Y99.206 E5.50932
G1 X128.287 Y99.558 E5.54115
G1 X128.827 Y99.976 E5.57294
G1 X129.315 Y100.454 E5.60475
G1 X129.744 Y100.986 E5.63658
G1 X130.108 Y101.564 E5.66838
G1 X130.402 Y102.181 E5.70021
G1 X130.621 Y102.828 E5.73201
G1 X130.764 Y103.496 E5.76382
G1 X130.829 Y104.215 E5.79744
G1 X130.84 Y104.762 E5.82292
G1 X130.83 Y105.682 E5.86576
G1 X130.782 Y106.364 E5.89759
G1 X130.656 Y107.035 E5.92938
G1 X130.451 Y107.687 E5.96121
G1 X130.172 Y108.311 E5.99304
G1 X129.823 Y108.898 E6.02484
G1 X129.407 Y109.44 E6.05665
G1 X128.93 Y109.93 E6.08849
G1 X128.4 Y110.36 E6.12027
G1 X127.823 Y110.726 E6.15209
G1 X127.207 Y111.022 E6.18391
G1 X126.561 Y111.244 E6.21572
G1 X125.893 Y111.389 E6.24755
G1 X125.209 Y111.455 E6.27955
G1 X124.67 Y111.471 E6.30466
G1 X85.708 Y111.472 E8.11889
G1 X84.941 Y111.461 E8.15461
G1 X84.26 Y111.411 E8.1864
G1 X83.589 Y111.282 E8.21822
G1 X82.938 Y111.075 E8.25003
G1 X82.315 Y110.794 E8.28185
G1 X81.73 Y110.442 E8.31364
G1 X81.189 Y110.024 E8.34548
G1 X80.701 Y109.546 E8.37729
G1 X80.273 Y109.014 E8.40908
G1 X79.909 Y108.435 E8.44093
G1 X79.616 Y107.818 E8.47273
G1 X79.396 Y107.171 E8.50455
G1 X79.254 Y106.503 E8.53635
G1 X79.18 Y105.78 E8.57019
G1 X79.16 Y105.064 E8.60355
G1 X79.17 Y104.299 E8.63917
G1 X79.219 Y103.617 E8.67101
G1 X79.347 Y102.946 E8.70282
G1 X79.553 Y102.295 E8.73461
G1 X79.834 Y101.672 E8.76644
G1 X80.185 Y101.086 E8.79824
G1 X80.603 Y100.545 E8.83008
G1 X81.08 Y100.057 E8.86185
G1 X81.612 Y99.628 E8.89368
G1 X82.19 Y99.263 E8.92551
G1 X82.807 Y98.969 E8.95733
G1 X83.454 Y98.749 E8.98915
G1 X84.122 Y98.606 E9.02096
G1 X84.845 Y98.54 E9.05477
G1 X124.293 Y98.529 E10.89163
G1 X125.075 Y98.54 E10.92805
M204 S3000
M205 X10 Y10
G0 F3000 X125.083 Y97.98
M204 S1800
M205 X8 Y8
G1 F2400 X125.796 Y98.03 E10.96133
G1 X126.5 Y98.159 E10.99466
G1 X127.184 Y98.367 E11.02795
G1 X127.841 Y98.649 E11.06124
G1 X128.463 Y99.003 E11.09457
G1 X129.041 Y99.424 E11.12786
G1 X129.569 Y99.907 E11.16118
G1 X130.039 Y100.445 E11.19445
G1 X130.447 Y101.033 E11.22777
G1 X130.786 Y101.663 E11.26109
G1 X131.053 Y102.326 E11.29437
G1 X131.244 Y103.016 E11.32771
G1 X131.357 Y103.722 E11.361
G1 X131.397 Y104.519 E11.39816
G1 X131.39 Y105.689 E11.45264
G1 X131.342 Y106.402 E11.48591
G1 X131.215 Y107.106 E11.51922
G1 X131.01 Y107.791 E11.55252
G1 X130.73 Y108.45 E11.58586
G1 X130.378 Y109.072 E11.61914
G1 X129.959 Y109.652 E11.65245
G1 X129.478 Y110.181 E11.68575
G1 X128.941 Y110.654 E11.71907
G1 X128.355 Y111.063 E11.75234
G1 X127.726 Y111.405 E11.78568
G1 X127.063 Y111.674 E11.819
G1 X126.375 Y111.867 E11.85227
G1 X125.669 Y111.983 E11.88559
G1 X124.91 Y112.027 E11.92099
G1 X85.708 Y112.032 E13.7464
G1 X84.933 Y112.021 E13.78249
G1 X84.22 Y111.971 E13.81577
G1 X83.516 Y111.841 E13.84911
G1 X82.832 Y111.634 E13.88238
G1 X82.175 Y111.351 E13.91569
G1 X81.553 Y110.997 E13.94902
G1 X80.975 Y110.576 E13.98231
G1 X80.447 Y110.093 E14.01564
G1 X79.977 Y109.554 E14.04894
G1 X79.57 Y108.966 E14.08223
G1 X79.231 Y108.336 E14.11555
G1 X78.964 Y107.672 E14.14887
G1 X78.773 Y106.983 E14.18216
G1 X78.648 Y106.144 E14.22166
G1 X78.601 Y105.328 E14.25972
G1 X78.61 Y104.291 E14.30801
G1 X78.659 Y103.578 E14.34129
G1 X78.788 Y102.874 E14.37462
G1 X78.995 Y102.189 E14.40794
G1 X79.277 Y101.532 E14.44123
G1 X79.63 Y100.91 E14.47453
G1 X80.051 Y100.332 E14.50783
G1 X80.533 Y99.804 E14.54112
G1 X81.071 Y99.333 E14.57441
G1 X81.659 Y98.925 E14.60774
G1 X82.288 Y98.585 E14.64103
G1 X82.952 Y98.318 E14.67436
G1 X83.641 Y98.126 E14.70766
G1 X84.347 Y98.012 E14.74096
G1 X85.151 Y97.972 E14.77845
G1 X124.293 Y97.969 E16.60106
G1 X125.083 Y97.98 E16.63785
M204 S3000
M205 X10 Y10
G0 F3000 X125.091 Y97.42
M204 S1800
M205 X8 Y8
G1 F2400 X125.835 Y97.47 E16.67257
G1 X126.569 Y97.6 E16.70728
G1 X127.286 Y97.808 E16.74205
G1 X127.976 Y98.092 E16.77679
G1 X128.632 Y98.447 E16.81152
G1 X129.245 Y98.871 E16.84623
G1 X129.811 Y99.358 E16.881
G1 X130.32 Y99.902 E16.91569
G1 X130.769 Y100.498 E16.95043
G1 X131.151 Y101.139 E16.98518
G1 X131.462 Y101.817 E17.01991
G1 X131.699 Y102.524 E17.05463
G1 X131.859 Y103.253 E17.08939
G1 X131.948 Y104.183 E17.13289
G1 X131.96 Y104.775 E17.16046
G1 X131.95 Y105.695 E17.2033
G1 X131.902 Y106.439 E17.23802
G1 X131.774 Y107.174 E17.27276
G1 X131.569 Y107.891 E17.30748
G1 X131.288 Y108.582 E17.34222
G1 X130.934 Y109.239 E17.37697
G1 X130.513 Y109.854 E17.41167
G1 X130.028 Y110.421 E17.44642
G1 X129.485 Y110.933 E17.48117
G1 X128.891 Y111.383 E17.51587
G1 X128.251 Y111.768 E17.55065
G1 X127.575 Y112.081 E17.58533
G1 X126.868 Y112.321 E17.6201
G1 X126.14 Y112.483 E17.65483
G1 X125.251 Y112.574 E17.69644
G1 X124.67 Y112.591 E17.7235
G1 X85.708 Y112.592 E19.53774
G1 X84.925 Y112.581 E19.5742
G1 X84.181 Y112.53 E19.60893
G1 X83.446 Y112.4 E19.64368
G1 X82.73 Y112.192 E19.6784
G1 X82.04 Y111.908 E19.71315
G1 X81.384 Y111.553 E19.74788
G1 X80.771 Y111.129 E19.78258
G1 X80.206 Y110.642 E19.81732
G1 X79.696 Y110.097 E19.85207
G1 X79.248 Y109.501 E19.88679
G1 X78.866 Y108.86 E19.92154
G1 X78.555 Y108.182 E19.95627
G1 X78.318 Y107.475 E19.99099
G1 X78.158 Y106.746 E20.02575
G1 X78.09 Y106.189 E20.05187
G1 X78.041 Y105.331 E20.09189
G1 X78.05 Y104.284 E20.14065
G1 X78.1 Y103.539 E20.17541
G1 X78.229 Y102.805 E20.21012
G1 X78.436 Y102.088 E20.24487
G1 X78.719 Y101.398 E20.27959
G1 X79.074 Y100.742 E20.31432
G1 X79.497 Y100.128 E20.34904
G1 X79.984 Y99.562 E20.38381
G1 X80.528 Y99.052 E20.41853
G1 X81.124 Y98.603 E20.45328
G1 X81.764 Y98.221 E20.48799
G1 X82.442 Y97.909 E20.52274
G1 X83.149 Y97.671 E20.55747
G1 X83.877 Y97.511 E20.59218
G1 X84.814 Y97.421 E20.63601
G1 X85.33 Y97.409 E20.66005
G1 X124.293 Y97.409 E22.47433
G1 X125.091 Y97.42 E22.51149
M204 S3000
M205 X10 Y10
G1 F2400 E16.51149
;MESH:straight through rod connector.obj
G0 F3000 X124.706 Y103.704
G0 X124.706 Y104.663
G0 X85.56 Y105.251
G0 X85.56 Y105.352
M204 S1800
M205 X8 Y8
;TYPE:WALL-OUTER
G1 F2400 E22.51149
G1 F1500 X85.28 Y105.352 E22.52453
G1 X85.28 Y105.072 E22.53297
G1 X85.28 Y104.649 E22.55266
G1 X124.72 Y104.649 E24.38916
G1 X124.72 Y105.351 E24.42184
G1 X85.56 Y105.352 E26.2453
M204 S3000
M205 X10 Y10
G0 F3000 X85.36 Y105.352
G0 X85.766 Y104.999
M204 S1800
M205 X8 Y8
;TYPE:SKIN
G1 F1500 X86.048 Y104.999 E26.24889
G1 X106.131 Y105 E26.50501
G1 X124.233 Y105 E26.73586
M204 S3000
M205 X10 Y10
G0 F3000 X124.31 Y105.209
G1 F2400 E20.73586
;MESH:NONMESH
G0 F600 X124.31 Y105.209 Z0.4
G0 F3000 X86 Y105.251
G0 X86 Y105.44
;TIME_ELAPSED:23.900491
;LAYER:1
M140 S65
M204 S1800
M205 X8 Y8
;TYPE:WALL-INNER
;MESH:straight through rod connector.obj
G1 F2400 E26.73586
G1 F2250 X86 Y104.56 E26.76513
G1 X123.801 Y104.559 E28.02239
G1 X124 Y104.559 E28.02901
G1 X124 Y104.758 E28.03329
G1 X124 Y105.44 E28.05598
G1 X86 Y105.44 E29.31986
M204 S3000
M205 X10 Y10
G0 F4500 X85.6 Y105.84
M204 S1800
M205 X8 Y8
G1 F2250 X85.6 Y104.16 E29.37574
G1 X124.201 Y104.159 E30.65961
G1 X124.4 Y104.159 E30.66623
G1 X124.4 Y104.358 E30.67051
G1 X124.4 Y105.84 E30.71981
G1 X85.6 Y105.84 E32.0103
M204 S3000
M205 X10 Y10
G0 F4500 X85.2 Y106.24
M204 S1800
M205 X8 Y8
;TYPE:WALL-OUTER
G1 F2250 X85.2 Y103.76 E32.09278
G1 X124.6 Y103.759 E33.40323
G1 X124.8 Y103.759 E33.40989
G1 X124.8 Y103.959 E33.41419
G1 X124.8 Y106.24 E33.49006
G1 X85.2 Y106.24 E34.80716
M204 S3000
M205 X10 Y10
G0 F4500 X85.2 Y106.04
G0 X85.64 Y105.8
G0 X85.7 Y105.8
G0 X86.39 Y105.05
M204 S1800
M205 X8 Y8
;TYPE:SKIN
G1 F1350 X86.39 Y104.95 E34.81049
G1 X123.61 Y104.949 E36.04843
G1 X123.61 Y105.05 E36.05179
G1 X86.39 Y105.05 E37.28973
M204 S3000
M205 X10 Y10
;MESH:NONMESH
G0 F600 X86.39 Y105.05 Z0.6
G0 F4500 X86 Y105.833
;TIME_ELAPSED:34.275644
;LAYER:2
G1 F2400 E31.28973
M204 S1800
M205 X8 Y8
;TYPE:WALL-INNER
;MESH:straight through rod connector.obj
G1 F2400 E37.28973
G1 F3000 X86 Y104.167 E37.34514
G1 X123.801 Y104.166 E38.60241
G1 X124 Y104.166 E38.60903
G1 X124 Y104.365 E38.61331
G1 X124 Y105.833 E38.66214
G1 X86 Y105.833 E39.92602
M204 S3000
M205 X10 Y10
G0 F6000 X85.6 Y106.233
M204 S1800
M205 X8 Y8
G1 F3000 X85.6 Y103.767 E40.00804
G1 X124.201 Y103.766 E41.29191
G1 X124.4 Y103.766 E41.29853
G1 X124.4 Y103.965 E41.30282
G1 X124.4 Y106.233 E41.37825
G1 X85.6 Y106.233 E42.66874
M204 S3000
M205 X10 Y10
G0 F6000 X85.2 Y106.633
M204 S1800
M205 X8 Y8
;TYPE:WALL-OUTER
G1 F3000 X85.2 Y103.367 E42.77737
G1 X124.6 Y103.366 E44.08782
G1 X124.8 Y103.366 E44.09447
G1 X124.8 Y103.566 E44.09878
G1 X124.8 Y106.633 E44.20079
G1 X85.2 Y106.633 E45.51789
M204 S3000
M205 X10 Y10
G0 F6000 X85.2 Y106.433
G0 X85.64 Y106.193
G0 X85.7 Y106.193
G0 X86.39 Y105.443
M204 S1800
M205 X8 Y8
;TYPE:SKIN
G1 F1200 X86.39 Y104.557 E45.54736
G1 X123.61 Y104.556 E46.7853
G1 X123.61 Y105.443 E46.8148
G1 X86.39 Y105.443 E48.05274
M204 S3000
M205 X10 Y10
G0 F6000 X86.634 Y104.736
M204 S1800
M205 X8 Y8
G1 F1200 X87.16 Y105.262 E48.07748
M204 S3000
M205 X10 Y10
G0 F6000 X87.2 Y104.736
M204 S1800
M205 X8 Y8
G1 F1200 X87.725 Y105.262 E48.1022
M204 S3000
M205 X10 Y10
G0 F6000 X87.766 Y104.736
M204 S1800
M205 X8 Y8
G1 F1200 X88.291 Y105.262 E48.12692
M204 S3000
M205 X10 Y10
G0 F6000 X88.331 Y104.736
M204 S1800
M205 X8 Y8
G1 F1200 X88.857 Y105.262 E48.15166
M204 S3000
M205 X10 Y10
G0 F6000 X88.897 Y104.736
M204 S1800
M205 X8 Y8
G1 F1200 X89.422 Y105.262 E48.17638
M204 S3000
M205 X10 Y10
G0 F6000 X89.463 Y104.736
M204 S1800
M205 X8 Y8
G1 F1200 X89.988 Y105.262 E48.2011
M204 S3000
M205 X10 Y10
G0 F6000 X90.028 Y104.736
M204 S1800
M205 X8 Y8
G1 F1200 X90.554 Y105.262 E48.22584
M204 S3000
M205 X10 Y10
G0 F6000 X90.594 Y104.736
M204 S1800
M205 X8 Y8
G1 F1200 X91.119 Y105.262 E48.25056
M204 S3000
M205 X10 Y10
G0 F6000 X91.16 Y104.736
M204 S1800
M205 X8 Y8
G1 F1200 X91.685 Y105.262 E48.27528
M204 S3000
M205 X10 Y10
G0 F6000 X91.725 Y104.736
M204 S1800
M205 X8 Y8
G1 F1200 X92.251 Y105.262 E48.30002
M204 S3000
M205 X10 Y10
G0 F6000 X92.291 Y104.736
M204 S1800
M205 X8 Y8
G1 F1200 X92.816 Y105.262 E48.32473
M204 S3000
M205 X10 Y10
G0 F6000 X92.857 Y104.736
M204 S1800
M205 X8 Y8
G1 F1200 X93.382 Y105.262 E48.34945
M204 S3000
M205 X10 Y10
G0 F6000 X93.422 Y104.736
M204 S1800
M205 X8 Y8
G1 F1200 X93.948 Y105.262 E48.37419
M204 S3000
M205 X10 Y10
G0 F6000 X93.988 Y104.736
M204 S1800
M205 X8 Y8
G1 F1200 X94.514 Y105.262 E48.39894
M204 S3000
M205 X10 Y10
G0 F6000 X94.554 Y104.736
M204 S1800
M205 X8 Y8
G1 F1200 X95.079 Y105.262 E48.42365
M204 S3000
M205 X10 Y10
G0 F6000 X95.12 Y104.736
M204 S1800
M205 X8 Y8
G1 F1200 X95.645 Y105.262 E48.44837
M204 S3000
M205 X10 Y10
G0 F6000 X95.685 Y104.736
M204 S1800
M205 X8 Y8
G1 F1200 X96.211 Y105.262 E48.47311
M204 S3000
M205 X10 Y10
G0 F6000 X96.251 Y104.736
M204 S1800
M205 X8 Y8
G1 F1200 X96.776 Y105.262 E48.49783
M204 S3000
M205 X10 Y10
G0 F6000 X96.817 Y104.736
M204 S1800
M205 X8 Y8
G1 F1200 X97.342 Y105.262 E48.52255
M204 S3000
M205 X10 Y10
G0 F6000 X97.382 Y104.736
M204 S1800
M205 X8 Y8
G1 F1200 X97.908 Y105.262 E48.54729
M204 S3000
M205 X10 Y10
G0 F6000 X97.948 Y104.736
M204 S1800
M205 X8 Y8
G1 F1200 X98.473 Y105.262 E48.57201
M204 S3000
M205 X10 Y10
G0 F6000 X98.514 Y104.736
M204 S1800
M205 X8 Y8
G1 F1200 X99.039 Y105.262 E48.59673
M204 S3000
M205 X10 Y10
G0 F6000 X99.079 Y104.736
M204 S1800
M205 X8 Y8
G1 F1200 X99.605 Y105.262 E48.62147
M204 S3000
M205 X10 Y10
G0 F6000 X99.645 Y104.736
M204 S1800
M205 X8 Y8
G1 F1200 X100.17 Y105.262 E48.64619
M204 S3000
M205 X10 Y10
G0 F6000 X100.211 Y104.736
M204 S1800
M205 X8 Y8
G1 F1200 X100.736 Y105.262 E48.6709
M204 S3000
M205 X10 Y10
G0 F6000 X100.776 Y104.736
M204 S1800
M205 X8 Y8
G1 F1200 X101.302 Y105.262 E48.69564
M204 S3000
M205 X10 Y10
G0 F6000 X101.342 Y104.736
M204 S1800
M205 X8 Y8
G1 F1200 X101.867 Y105.262 E48.72036
M204 S3000
M205 X10 Y10
G0 F6000 X101.908 Y104.736
M204 S1800
M205 X8 Y8
G1 F1200 X102.433 Y105.262 E48.74508
M204 S3000
M205 X10 Y10
G0 F6000 X102.473 Y104.736
M204 S1800
M205 X8 Y8
G1 F1200 X102.999 Y105.262 E48.76982
M204 S3000
M205 X10 Y10
G0 F6000 X103.039 Y104.736
M204 S1800
M205 X8 Y8
G1 F1200 X103.564 Y105.262 E48.79454
M204 S3000
M205 X10 Y10
G0 F6000 X103.605 Y104.736
M204 S1800
M205 X8 Y8
G1 F1200 X104.13 Y105.262 E48.81926
M204 S3000
M205 X10 Y10
G0 F6000 X104.17 Y104.736
M204 S1800
M205 X8 Y8
G1 F1200 X104.696 Y105.262 E48.844
M204 S3000
M205 X10 Y10
G0 F6000 X104.736 Y104.736
M204 S1800
M205 X8 Y8
G1 F1200 X105.262 Y105.262 E48.86874
M204 S3000
M205 X10 Y10
G0 F6000 X105.302 Y104.736
M204 S1800
M205 X8 Y8
G1 F1200 X105.827 Y105.262 E48.89346
M204 S3000
M205 X10 Y10
G0 F6000 X105.868 Y104.736
M204 S1800
M205 X8 Y8
G1 F1200 X106.393 Y105.262 E48.91818
M204 S3000
M205 X10 Y10
G0 F6000 X106.433 Y104.736
M204 S1800
M205 X8 Y8
G1 F1200 X106.959 Y105.262 E48.94292
M204 S3000
M205 X10 Y10
G0 F6000 X106.999 Y104.736
M204 S1800
M205 X8 Y8
G1 F1200 X107.524 Y105.262 E48.96764
M204 S3000
M205 X10 Y10
G0 F6000 X107.565 Y104.736
M204 S1800
M205 X8 Y8
G1 F1200 X108.09 Y105.262 E48.99235
M204 S3000
M205 X10 Y10
G0 F6000 X108.13 Y104.736
M204 S1800
M205 X8 Y8
G1 F1200 X108.656 Y105.262 E49.01709
M204 S3000
M205 X10 Y10
G0 F6000 X108.696 Y104.736
M204 S1800
M205 X8 Y8
G1 F1200 X109.221 Y105.262 E49.04181
M204 S3000
M205 X10 Y10
G0 F6000 X109.262 Y104.736
M204 S1800
M205 X8 Y8
G1 F1200 X109.787 Y105.262 E49.06653
M204 S3000
M205 X10 Y10
G0 F6000 X109.827 Y104.736
M204 S1800
M205 X8 Y8
G1 F1200 X110.353 Y105.262 E49.09127
M204 S3000
M205 X10 Y10
G0 F6000 X110.393 Y104.736
M204 S1800
M205 X8 Y8
G1 F1200 X110.918 Y105.262 E49.11599
M204 S3000
M205 X10 Y10
