;FLAVOR:Marlin
;TIME:1899
;Filament used: 0.850983m
;Layer height: 0.1
;MINX:86.05
;MINY:85.5
;MINZ:0.1
;MAXX:123.95
;MAXY:124.5
;MAXZ:10
;Generated with Cura_SteamEngine 4.10.0
M140 S60
M105
M190 S60
M104 S200
M105
M109 S200
M82 ;absolute extrusion mode
G21 ;metric values
G90 ;absolute positioning
M82 ;set extruder to absolute mode
M107 ;start with the fan off
G28 X0 Y0 ;move X/Y to min endstops
G28 Z0 ;move Z to min endstops
G1 Z15.0 F50 ;move the platform down 15mm
G92 E0 ;zero the extruded length
G1 F200 E3 ;extrude 3mm of feed stock
G92 E0 ;zero the extruded length again
G1 F50
G0 Y20 F50
M117 Printing...
G5
G92 E0
G92 E0
G1 F2400 E-6
;LAYER_COUNT:100
;LAYER:0
M107
M204 S3000
M205 X10 Y10
G1 F600 Z0.175
G0 F1500 X87.981 Y87.337 Z0.175
M204 S1800
M205 X8 Y8
;TYPE:SKIRT
G1 F600 Z0.1
G1 F2400 E0
G1 X88.519 Y86.866 E0.01665
G1 X89.106 Y86.457 E0.0333
G1 X89.736 Y86.117 E0.04997
G1 X90.399 Y85.85 E0.06661
G1 X91.088 Y85.658 E0.08327
G1 X91.794 Y85.544 E0.09992
G1 X92.601 Y85.503 E0.11873
G1 X92.78 Y85.5 E0.1229
G1 X93.926 Y85.5 E0.14958
G1 X95.832 Y85.527 E0.19396
G1 X96.261 Y85.54 E0.20395
G1 X99.334 Y85.538 E0.2755
G1 X101.688 Y85.5 E0.33031
G1 X102.334 Y85.501 E0.34535
G1 X103.037 Y85.511 E0.36172
G1 X103.751 Y85.561 E0.37838
G1 X104.642 Y85.739 E0.39954
G1 X105.448 Y85.96 E0.41899
G1 X108.077 Y86.644 E0.48224
G1 X110.668 Y87.24 E0.54414
G1 X113.265 Y87.76 E0.6058
G1 X115.835 Y88.2 E0.66651
G1 X118.446 Y88.573 E0.72792
G1 X119.147 Y88.714 E0.74456
G1 X119.829 Y88.932 E0.76123
G1 X120.481 Y89.224 E0.77787
G1 X121.097 Y89.588 E0.79453
G1 X121.669 Y90.018 E0.81119
G1 X122.189 Y90.509 E0.82784
G1 X122.651 Y91.055 E0.84449
G1 X123.049 Y91.65 E0.86116
G1 X123.378 Y92.285 E0.87781
G1 X123.635 Y92.952 E0.89445
G1 X123.815 Y93.644 E0.9111
G1 X123.917 Y94.352 E0.92775
G1 X123.947 Y95.051 E0.94404
G1 X123.95 Y95.23 E0.94821
G1 X123.95 Y117.443 E1.46537
G1 X123.941 Y118.17 E1.4823
G1 X123.892 Y118.884 E1.49896
G1 X123.764 Y119.588 E1.51562
G1 X123.558 Y120.273 E1.53227
G1 X123.277 Y120.93 E1.54891
G1 X122.924 Y121.553 E1.56558
G1 X122.504 Y122.132 E1.58224
G1 X122.022 Y122.66 E1.59888
G1 X121.485 Y123.132 E1.61553
G1 X120.897 Y123.54 E1.63219
G1 X120.268 Y123.881 E1.64885
G1 X119.605 Y124.149 E1.6655
G1 X118.916 Y124.341 E1.68215
G1 X118.21 Y124.456 E1.6988
G1 X117.399 Y124.497 E1.71771
G1 X117.22 Y124.5 E1.72188
G1 X114.166 Y124.499 E1.79298
G1 X113.463 Y124.489 E1.80935
G1 X112.749 Y124.439 E1.82601
G1 X111.858 Y124.261 E1.84717
G1 X111.052 Y124.04 E1.86663
G1 X108.423 Y123.356 E1.92987
G1 X105.832 Y122.76 E1.99177
G1 X103.235 Y122.24 E2.05344
G1 X100.666 Y121.8 E2.11412
G1 X98.074 Y121.43 E2.17508
G1 X97.903 Y121.403 E2.17911
G1 X97.205 Y121.246 E2.19576
G1 X96.529 Y121.012 E2.21242
G1 X95.883 Y120.705 E2.22907
G1 X95.276 Y120.327 E2.24572
G1 X94.715 Y119.884 E2.26236
G1 X94.206 Y119.381 E2.27902
G1 X93.757 Y118.824 E2.29568
G1 X93.359 Y118.196 E2.31299
G1 X93.249 Y117.998 E2.31826
G1 X91.894 Y115.652 E2.38134
G1 X90.505 Y113.399 E2.44296
G1 X89.06 Y111.198 E2.50426
G1 X87.489 Y108.946 E2.56819
G1 X87.259 Y108.625 E2.57738
G1 X86.875 Y108.021 E2.59405
G1 X86.561 Y107.378 E2.61071
G1 X86.321 Y106.705 E2.62734
G1 X86.158 Y106.008 E2.64401
G1 X86.063 Y105.092 E2.66545
G1 X86.05 Y104.57 E2.67761
G1 X86.051 Y92.514 E2.9583
G1 X86.06 Y91.825 E2.97434
G1 X86.109 Y91.112 E2.99098
G1 X86.237 Y90.408 E3.00764
G1 X86.444 Y89.723 E3.0243
G1 X86.725 Y89.066 E3.04093
G1 X87.078 Y88.444 E3.05759
G1 X87.499 Y87.865 E3.07425
G1 X87.981 Y87.337 E3.0909
M204 S3000
M205 X10 Y10
G0 F1500 X88.528 Y87.59
M204 S1800
M205 X8 Y8
G1 F2400 X89.06 Y87.16 E3.10682
G1 X89.638 Y86.796 E3.12273
G1 X90.254 Y86.501 E3.13863
G1 X90.901 Y86.281 E3.15454
G1 X91.569 Y86.137 E3.17045
G1 X92.295 Y86.071 E3.18742
G1 X92.78 Y86.06 E3.19872
G1 X93.926 Y86.06 E3.2254
G1 X95.815 Y86.087 E3.26938
G1 X96.245 Y86.1 E3.2794
G1 X99.344 Y86.098 E3.35155
G1 X101.688 Y86.06 E3.40613
G1 X102.326 Y86.061 E3.42098
G1 X103.029 Y86.071 E3.43735
G1 X103.71 Y86.12 E3.45325
G1 X104.494 Y86.279 E3.47187
G1 X105.312 Y86.504 E3.49162
G1 X107.954 Y87.191 E3.55518
G1 X110.535 Y87.785 E3.61684
G1 X113.164 Y88.311 E3.67927
G1 X115.771 Y88.757 E3.74084
G1 X118.367 Y89.128 E3.8019
G1 X119.036 Y89.264 E3.81779
G1 X119.686 Y89.477 E3.83372
G1 X120.305 Y89.765 E3.84961
G1 X120.887 Y90.123 E3.86552
G1 X121.423 Y90.546 E3.88142
G1 X121.906 Y91.03 E3.89734
G1 X122.329 Y91.566 E3.91324
G1 X122.687 Y92.148 E3.92914
G1 X122.974 Y92.768 E3.94505
G1 X123.187 Y93.417 E3.96095
G1 X123.323 Y94.087 E3.97687
G1 X123.379 Y94.745 E3.99225
G1 X123.39 Y95.23 E4.00354
G1 X123.39 Y117.436 E4.52054
G1 X123.381 Y118.163 E4.53747
G1 X123.332 Y118.845 E4.55339
G1 X123.204 Y119.516 E4.56929
G1 X122.999 Y120.168 E4.58521
G1 X122.719 Y120.791 E4.60111
G1 X122.369 Y121.377 E4.617
G1 X121.952 Y121.919 E4.63292
G1 X121.475 Y122.408 E4.64883
G1 X120.944 Y122.837 E4.66472
G1 X120.366 Y123.202 E4.68063
G1 X119.75 Y123.497 E4.69654
G1 X119.103 Y123.718 E4.71245
G1 X118.435 Y123.862 E4.72836
G1 X117.705 Y123.929 E4.74543
G1 X117.22 Y123.94 E4.75673
G1 X114.174 Y123.939 E4.82764
G1 X113.471 Y123.929 E4.84401
G1 X112.79 Y123.88 E4.85991
G1 X112.006 Y123.721 E4.87853
G1 X111.188 Y123.496 E4.89828
G1 X108.546 Y122.809 E4.96184
G1 X105.965 Y122.215 E5.0235
G1 X103.336 Y121.689 E5.08593
G1 X100.729 Y121.243 E5.1475
G1 X97.995 Y120.851 E5.21181
G1 X97.329 Y120.699 E5.22771
G1 X96.685 Y120.471 E5.24362
G1 X96.072 Y120.169 E5.25953
G1 X95.498 Y119.797 E5.27545
G1 X94.972 Y119.361 E5.29136
G1 X94.501 Y118.867 E5.30725
G1 X94.09 Y118.321 E5.32316
G1 X93.734 Y117.718 E5.33946
G1 X92.369 Y115.356 E5.40298
G1 X90.989 Y113.117 E5.46421
G1 X89.516 Y110.872 E5.52673
G1 X87.921 Y108.586 E5.59163
G1 X87.714 Y108.298 E5.59988
G1 X87.349 Y107.721 E5.61578
G1 X87.054 Y107.105 E5.63168
G1 X86.833 Y106.458 E5.6476
G1 X86.689 Y105.79 E5.66351
G1 X86.623 Y105.075 E5.68023
G1 X86.61 Y104.57 E5.69199
G1 X86.61 Y92.522 E5.97249
G1 X86.619 Y91.833 E5.98853
G1 X86.668 Y91.151 E6.00445
G1 X86.796 Y90.48 E6.02036
G1 X87.002 Y89.829 E6.03625
G1 X87.282 Y89.206 E6.05216
G1 X87.634 Y88.619 E6.06809
G1 X88.051 Y88.078 E6.08399
G1 X88.528 Y87.59 E6.09988
M204 S3000
M205 X10 Y10
G0 F1500 X88.602 Y88.303
M204 S1800
M205 X8 Y8
G1 F2400 X89.074 Y87.857 E6.115
G1 X89.597 Y87.472 E6.13012
G1 X90.164 Y87.154 E6.14526
G1 X90.765 Y86.908 E6.16038
G1 X91.392 Y86.738 E6.1755
G1 X92.311 Y86.631 E6.19704
G1 X92.78 Y86.62 E6.20796
G1 X93.926 Y86.62 E6.23465
G1 X95.798 Y86.646 E6.27823
G1 X96.261 Y86.66 E6.28902
G1 X99.353 Y86.658 E6.36101
G1 X101.688 Y86.62 E6.41538
G1 X102.318 Y86.621 E6.43005
G1 X103.021 Y86.631 E6.44641
G1 X103.669 Y86.68 E6.46154
G1 X104.345 Y86.819 E6.47761
G1 X105.157 Y87.042 E6.49722
G1 X107.79 Y87.727 E6.56056
G1 X110.436 Y88.336 E6.62377
G1 X113.075 Y88.864 E6.68643
G1 X115.666 Y89.307 E6.74763
G1 X118.288 Y89.682 E6.8093
G1 X118.924 Y89.813 E6.82442
G1 X119.539 Y90.022 E6.83954
G1 X120.124 Y90.304 E6.85466
G1 X120.67 Y90.656 E6.86979
G1 X121.169 Y91.073 E6.88493
G1 X121.612 Y91.547 E6.90003
G1 X121.994 Y92.073 E6.91517
G1 X122.309 Y92.641 E6.93029
G1 X122.551 Y93.244 E6.94542
G1 X122.718 Y93.871 E6.96052
G1 X122.819 Y94.761 E6.98138
G1 X122.83 Y95.23 E6.9923
G1 X122.83 Y117.429 E7.50914
G1 X122.821 Y118.156 E7.52606
G1 X122.773 Y118.804 E7.54119
G1 X122.645 Y119.441 E7.55632
G1 X122.441 Y120.058 E7.57145
G1 X122.162 Y120.645 E7.58658
G1 X121.814 Y121.193 E7.6017
G1 X121.401 Y121.694 E7.61681
G1 X120.929 Y122.141 E7.63195
G1 X120.406 Y122.526 E7.64707
G1 X119.84 Y122.844 E7.66218
G1 X119.238 Y123.091 E7.67733
G1 X118.612 Y123.261 E7.69243
G1 X117.689 Y123.369 E7.71407
G1 X117.22 Y123.38 E7.72499
G1 X114.182 Y123.379 E7.79572
G1 X113.479 Y123.369 E7.81209
G1 X112.831 Y123.32 E7.82722
G1 X112.155 Y123.181 E7.84329
G1 X111.343 Y122.958 E7.8629
G1 X108.71 Y122.273 E7.92624
G1 X106.064 Y121.664 E7.98945
G1 X103.425 Y121.136 E8.05211
G1 X100.829 Y120.692 E8.11343
G1 X98.233 Y120.321 E8.17448
G1 X98.087 Y120.298 E8.17793
G1 X97.454 Y120.152 E8.19305
G1 X96.844 Y119.93 E8.20816
G1 X96.265 Y119.634 E8.2233
G1 X95.728 Y119.269 E8.23842
G1 X95.239 Y118.841 E8.25355
G1 X94.807 Y118.356 E8.26867
G1 X94.339 Y117.653 E8.28833
G1 X94.219 Y117.437 E8.29409
G1 X92.854 Y115.074 E8.35762
G1 X91.458 Y112.81 E8.41955
G1 X89.984 Y110.563 E8.48211
G1 X88.42 Y108.322 E8.54574
G1 X88.169 Y107.972 E8.55577
G1 X87.824 Y107.422 E8.57088
G1 X87.549 Y106.833 E8.58602
G1 X87.348 Y106.216 E8.60113
G1 X87.224 Y105.578 E8.61626
G1 X87.182 Y105.057 E8.62843
G1 X87.17 Y104.57 E8.63977
G1 X87.17 Y92.529 E8.92011
G1 X87.179 Y91.84 E8.93615
G1 X87.228 Y91.192 E8.95128
G1 X87.355 Y90.555 E8.9664
G1 X87.56 Y89.939 E8.98152
G1 X87.839 Y89.352 E8.99665
G1 X88.188 Y88.804 E9.01178
G1 X88.602 Y88.303 E9.02691
M204 S3000
M205 X10 Y10
G1 F2400 E3.02691
;MESH:whiteboard hangers.obj
G0 F1500 X91.785 Y92.554
G0 X93.104 Y92.554
G0 X93.879 Y102.67
G0 X100.35 Y103.5
M204 S1800
M205 X8 Y8
;TYPE:WALL-INNER
G1 F2400 E9.02691
G1 F1500 X93.85 Y103.5 E9.17824
G1 X93.85 Y103.402 E9.18052
G1 X100.35 Y103.402 E9.20701
G1 X101.55 Y103.402 E9.23495
G1 X101.55 Y113.7 E9.4747
G1 X100.35 Y113.7 E9.50264
G1 X100.35 Y103.5 E9.74012
M204 S3000
M205 X10 Y10
G0 X101.892 Y102.842
M204 S1800
M205 X8 Y8
G1 X101.892 Y92.74 E9.97532
G1 X102.11 Y92.74 E9.98039
G1 X102.11 Y102.842 E10.07195
G1 X102.11 Y114.26 E10.33778
G1 X99.79 Y114.26 E10.3918
G1 X99.79 Y104.06 E10.62928
G1 X93.29 Y104.06 E10.78061
G1 X93.29 Y102.842 E10.80897
G1 X93.29 Y92.74 E11.04416
G1 X93.707 Y92.74 E11.05387
G1 X93.707 Y102.842 E11.22901
G1 X101.892 Y102.842 E11.41957
M204 S3000
M205 X10 Y10
G0 X101.72 Y92.689
G0 X101.332 Y92.717
M204 S1800
M205 X8 Y8
;TYPE:WALL-OUTER
G1 X101.004 Y92.717 E11.42721
G1 X100.449 Y92.716 E11.44013
G1 X101.004 Y92.18 E11.45062
G1 X101.332 Y92.18 E11.45795
G1 X102.67 Y92.18 E11.4891
G1 X102.67 Y114.82 E12.0162
G1 X99.23 Y114.82 E12.09629
G1 X99.23 Y104.62 E12.33377
G1 X92.73 Y104.62 E12.48511
G1 X92.73 Y92.18 E12.77474
G1 X94.267 Y92.18 E12.81052
G1 X94.521 Y92.18 E12.81643
G1 X95.077 Y92.717 E12.83443
G1 X94.521 Y92.717 E12.8399
G1 X94.267 Y92.717 E12.84557
G1 X94.267 Y102.282 E13.06826
G1 X101.332 Y102.282 E13.23275
G1 X101.332 Y92.717 E13.45544
M204 S3000
M205 X10 Y10
G0 X101.132 Y92.717
G0 X101.133 Y92.617
G0 X101.72 Y92.689
G0 X101.72 Y102.67
G0 X101 Y103.952
M204 S1800
M205 X8 Y8
;TYPE:SKIN
G1 X101 Y113.15 E13.66959
G1 X100.9 Y113.15 E13.67192
G1 X100.9 Y103.952 E13.88607
G1 X101 Y103.952 E13.8884
M204 S3000
M205 X10 Y10
G1 F2400 E7.8884
G0 F1500 X102.29 Y106.5
G0 X103.615 Y106.5
G0 X106.385 Y106.5
G0 X107.71 Y106.5
G0 X114.95 Y106.5
M204 S1800
M205 X8 Y8
;TYPE:WALL-INNER
G1 F2400 E13.8884
G1 F1500 X108.45 Y106.5 E14.03973
G1 X108.45 Y106.402 E14.04201
G1 X114.95 Y106.402 E14.0685
G1 X116.15 Y106.402 E14.09643
G1 X116.15 Y116.7 E14.33619
G1 X114.95 Y116.7 E14.36413
G1 X114.95 Y106.5 E14.60161
M204 S3000
M205 X10 Y10
G0 X116.493 Y105.842
M204 S1800
M205 X8 Y8
G1 X116.493 Y95.74 E14.8368
G1 X116.71 Y95.74 E14.84186
G1 X116.71 Y105.842 E14.93299
G1 X116.71 Y117.26 E15.19883
G1 X114.39 Y117.26 E15.25284
G1 X114.39 Y107.06 E15.49032
G1 X107.89 Y107.06 E15.64166
G1 X107.89 Y105.842 E15.67001
G1 X107.89 Y95.74 E15.90521
G1 X108.308 Y95.74 E15.91494
G1 X108.308 Y105.842 E16.0905
G1 X116.493 Y105.842 E16.28106
M204 S3000
M205 X10 Y10
G0 X116.321 Y95.689
G0 X115.933 Y95.717
M204 S1800
M205 X8 Y8
;TYPE:WALL-OUTER
G1 X115.604 Y95.717 E16.28872
G1 X115.049 Y95.716 E16.30164
G1 X115.604 Y95.18 E16.31214
G1 X115.933 Y95.18 E16.31948
G1 X117.27 Y95.18 E16.35061
G1 X117.27 Y117.82 E16.87772
G1 X113.83 Y117.82 E16.95781
G1 X113.83 Y107.62 E17.19528
G1 X107.33 Y107.62 E17.34662
G1 X107.33 Y95.18 E17.63625
G1 X108.868 Y95.18 E17.67205
G1 X109.121 Y95.18 E17.67794
G1 X109.677 Y95.717 E17.69594
G1 X109.121 Y95.717 E17.70141
G1 X108.868 Y95.717 E17.70706
G1 X108.868 Y105.282 E17.92975
G1 X115.933 Y105.282 E18.09424
G1 X115.933 Y95.717 E18.31693
M204 S3000
M205 X10 Y10
G0 X115.733 Y95.717
G0 X115.734 Y95.617
G0 X116.321 Y95.689
G0 X116.321 Y105.67
G0 X115.6 Y106.952
M204 S1800
M205 X8 Y8
;TYPE:SKIN
G1 X115.6 Y116.15 E18.53108
G1 X115.5 Y116.15 E18.53341
G1 X115.5 Y106.952 E18.74756
G1 X115.6 Y106.952 E18.74989
M204 S3000
M205 X10 Y10
G1 F2400 E12.74989
;MESH:NONMESH
G0 F600 X115.6 Y106.952 Z0.2
G0 F1500 X108.48 Y105.67
G0 X107.71 Y103.002
G0 X106.385 Y103.002
G0 X103.615 Y103.002
G0 X102.29 Y103.002
G0 X93.547 Y103.002
;TIME_ELAPSED:39.879835
;LAYER:1
M106 S51
M204 S1800
M205 X8 Y8
;TYPE:WALL-INNER
;MESH:whiteboard hangers.obj
G1 F2400 E18.74989
G1 F2250 X101.95 Y103.002 E18.88963
G1 X101.95 Y114.1 E19.07419
G1 X99.95 Y114.1 E19.10745
G1 X99.95 Y103.9 E19.27707
G1 X93.45 Y103.9 E19.38517
G1 X93.45 Y103.002 E19.4001
G1 X93.45 Y92.9 E19.5681
G1 X93.547 Y92.9 E19.56971
G1 X93.547 Y103.002 E19.61045
M204 S3000
M205 X10 Y10
G0 X101.652 Y102.602
M204 S1800
M205 X8 Y8
G1 X101.652 Y92.5 E19.77845
G1 X102.35 Y92.5 E19.79006
G1 X102.35 Y114.5 E20.15592
G1 X99.55 Y114.5 E20.20248
G1 X99.55 Y104.3 E20.37211
G1 X93.05 Y104.3 E20.48021
G1 X93.05 Y92.5 E20.67644
G1 X93.947 Y92.5 E20.69136
G1 X93.947 Y102.602 E20.85935
G1 X101.652 Y102.602 E20.98749
M204 S3000
M205 X10 Y10
G0 X101.48 Y92.769
G0 X101.252 Y92.797
M204 S1800
M205 X8 Y8
;TYPE:WALL-OUTER
G1 X100.746 Y92.796 E20.9959
G1 X100.745 Y92.796 E20.99592
G1 X100.252 Y92.796 E21.00412
G1 X100.607 Y92.453 E21.00852
G1 X100.973 Y92.1 E21.01698
G1 X102.75 Y92.1 E21.04653
G1 X102.75 Y114.9 E21.4257
G1 X99.15 Y114.9 E21.48557
G1 X99.15 Y104.7 E21.65519
G1 X92.65 Y104.7 E21.76329
G1 X92.65 Y92.1 E21.97283
G1 X94.552 Y92.1 E22.00446
G1 X94.918 Y92.454 E22.01292
G1 X95.274 Y92.797 E22.02115
G1 X94.78 Y92.797 E22.02555
G1 X94.779 Y92.797 E22.02557
G1 X94.347 Y92.797 E22.03275
G1 X94.347 Y102.202 E22.18916
G1 X101.252 Y102.202 E22.30399
G1 X101.252 Y92.797 E22.4604
M204 S3000
M205 X10 Y10
G0 X101.052 Y92.797
G0 X101.053 Y92.697
G0 X101.56 Y103.392
M204 S1800
M205 X8 Y8
;TYPE:SKIN
G1 F1350 X101.56 Y113.71 E22.63198
G1 X100.34 Y113.71 E22.65227
G1 X100.34 Y103.51 E22.8219
G1 X93.84 Y103.51 E22.93
G1 X93.84 Y103.392 E22.93196
G1 X101.56 Y103.392 E23.06034
M204 S3000
M205 X10 Y10
G0 F2250 X100.52 Y103.692
M204 S1800
M205 X8 Y8
G1 F1350 X100.641 Y103.57 E23.0632
M204 S3000
M205 X10 Y10
G0 F2250 X101.207 Y103.57
M204 S1800
M205 X8 Y8
G1 F1350 X100.52 Y104.257 E23.07936
M204 S3000
M205 X10 Y10
G0 F2250 X100.52 Y104.823
M204 S1800
M205 X8 Y8
G1 F1350 X101.38 Y103.963 E23.09958
M204 S3000
M205 X10 Y10
G0 F2250 X101.38 Y104.529
M204 S1800
M205 X8 Y8
G1 F1350 X100.52 Y105.389 E23.11981
M204 S3000
M205 X10 Y10
G0 F2250 X100.52 Y105.955
M204 S1800
M205 X8 Y8
G1 F1350 X101.38 Y105.095 E23.14003
M204 S3000
M205 X10 Y10
G0 F2250 X101.38 Y105.66
M204 S1800
M205 X8 Y8
G1 F1350 X100.52 Y106.52 E23.16026
M204 S3000
M205 X10 Y10
G0 F2250 X100.52 Y107.086
M204 S1800
M205 X8 Y8
G1 F1350 X101.38 Y106.226 E23.18049
M204 S3000
M205 X10 Y10
G0 F2250 X101.38 Y106.792
M204 S1800
M205 X8 Y8
G1 F1350 X100.52 Y107.652 E23.20071
M204 S3000
M205 X10 Y10
G0 F2250 X100.52 Y108.217
M204 S1800
M205 X8 Y8
G1 F1350 X101.38 Y107.357 E23.22094
M204 S3000
M205 X10 Y10
G0 F2250 X101.38 Y107.923
M204 S1800
M205 X8 Y8
G1 F1350 X100.52 Y108.783 E23.24116
M204 S3000
M205 X10 Y10
G0 F2250 X100.52 Y109.349
M204 S1800
M205 X8 Y8
G1 F1350 X101.38 Y108.489 E23.26139
M204 S3000
M205 X10 Y10
G0 F2250 X101.38 Y109.054
M204 S1800
M205 X8 Y8
G1 F1350 X100.52 Y109.914 E23.28162
M204 S3000
M205 X10 Y10
G0 F2250 X100.52 Y110.48
M204 S1800
M205 X8 Y8
G1 F1350 X101.38 Y109.62 E23.30184
M204 S3000
M205 X10 Y10
G0 F2250 X101.38 Y110.186
M204 S1800
M205 X8 Y8
G1 F1350 X100.52 Y111.046 E23.32207
M204 S3000
M205 X10 Y10
G0 F2250 X100.52 Y111.611
M204 S1800
M205 X8 Y8
G1 F1350 X101.38 Y110.752 E23.34228
M204 S3000
M205 X10 Y10
G0 F2250 X101.38 Y111.317
M204 S1800
M205 X8 Y8
G1 F1350 X100.52 Y112.177 E23.36251
M204 S3000
M205 X10 Y10
G0 F2250 X100.52 Y112.743
M204 S1800
M205 X8 Y8
G1 F1350 X101.38 Y111.883 E23.38273
M204 S3000
M205 X10 Y10
G0 F2250 X101.38 Y112.449
M204 S1800
M205 X8 Y8
G1 F1350 X100.52 Y113.308 E23.40295
M204 S3000
M205 X10 Y10
